;FLAVOR:Marlin
;TIME:18258
;Filament used: 66.0553m
;Layer height: 0.5
;MINX:103.016
;MINY:3.579
;MINZ:0.2
;MAXX:297.864
;MAXY:396.462
;MAXZ:35.2
;Generated with Cura_SteamEngine 4.11.0
M140 S70
M105
M190 S70
M104 S210
M105
M109 S210
M82 ;absolute extrusion mode
M107 ;Start with the fan off
G21 ;Set units to millimeters
G91 ;Change to relative positioning mode for retract filament and nozzle lifting
G1 F200 E-3 ;Retract 3mm filament for a clean start
G92 E0 ;Zero the extruded length
G1 F1000 Z5 ;Lift the nozzle 5mm before homing axes
G90 ;Absolute positioning
M82 ;Set extruder to absolute mode too
G28 X0 Y0 ;First move X/Y to min endstops
G28 Z0 ;Then move Z to min endstops
G1 F1000 Z15 ;After homing lift the nozzle 15mm before start printing

G92 E0
G92 E0
G1 F1200 E-3
;LAYER_COUNT:71
;LAYER:0
M107
M204 S3000
M205 X10 Y10
G1 F600 Z0.275
;MESH:tall_chamber_folding_float_arm_v5_06.09.2022.stl
G0 F2700 X118.993 Y5.137 Z0.275
M204 S1800
M205 X8 Y8
;TYPE:WALL-INNER
G1 F600 Z0.2
G1 F2700 E0
G1 F900 X119.002 Y5.748 E0.05634
G1 X119.751 Y56.378 E4.72479
G1 X119.76 Y56.987 E4.78094
G1 X120.366 Y56.926 E4.81642
G1 X125.796 Y56.374 E5.31963
G1 X145.414 Y243.028 E22.62338
G1 X145.121 Y243.059 E22.65054
G1 X145.289 Y246.242 E22.94441
G1 X145.629 Y246.242 E22.97576
G1 X145.63 Y378.542 E35.17344
G1 X254.37 Y378.542 E45.19895
G1 X254.371 Y246.242 E57.39662
G1 X254.711 Y246.242 E57.42797
G1 X254.879 Y243.059 E57.72184
G1 X254.586 Y243.028 E57.74901
G1 X274.203 Y56.374 E75.05274
G1 X279.633 Y56.924 E75.55594
G1 X280.239 Y56.985 E75.61209
G1 X280.248 Y56.376 E75.64757
G1 X281.001 Y5.642 E80.32561
G1 X295.171 Y5.642 E81.63204
G1 X295.172 Y5.642 E81.63213
G1 X295.739 Y5.642 E81.68441
G1 X295.732 Y6.209 E81.71811
G1 X295.731 Y6.21 E81.71824
G1 X295.652 Y11.488 E82.20491
G1 X271.01 Y245.946 E103.94032
G1 X271.01 Y392.882 E117.48739
G1 X270.957 Y392.882 E117.49228
G1 X270.957 Y395.182 E117.70433
G1 X129.043 Y395.182 E130.78839
G1 X129.043 Y392.882 E131.00044
G1 X128.99 Y392.882 E131.00533
G1 X128.99 Y245.946 E144.5524
G1 X104.348 Y11.491 E166.28754
G1 X104.277 Y6.686 E166.73059
G1 X118.385 Y5.201 E168.0385
G1 X118.993 Y5.137 E168.07406
M204 S3000
M205 X10 Y10
G0 F2700 X118.927 Y5.211
G0 X119.734 Y57.016
G0 X121.313 Y137.449
G0 X122.179 Y139.638
G0 X123.996 Y141.136
G0 X125.705 Y141.634
G0 X125.711 Y141.535
M204 S1800
M205 X8 Y8
G1 F900 X126.293 Y141.535 E168.12772
G1 X126.877 Y141.463 E168.18197
G1 X127.454 Y141.315 E168.23689
G1 X127.996 Y141.097 E168.29075
G1 X128.509 Y140.816 E168.34468
G1 X128.987 Y140.469 E168.39914
G1 X129.414 Y140.067 E168.45321
G1 X129.789 Y139.615 E168.50735
G1 X130.104 Y139.118 E168.5616
G1 X130.354 Y138.587 E168.61572
G1 X130.537 Y138.027 E168.67003
G1 X130.646 Y137.447 E168.72444
G1 X130.683 Y136.862 E168.77849
G1 X130.646 Y136.277 E168.83253
G1 X130.537 Y135.697 E168.88694
G1 X130.354 Y135.137 E168.94126
G1 X130.104 Y134.606 E168.99537
G1 X129.789 Y134.11 E169.04954
G1 X129.415 Y133.656 E169.10377
G1 X128.984 Y133.251 E169.1583
G1 X128.504 Y132.903 E169.21296
G1 X127.988 Y132.623 E169.26709
G1 X127.447 Y132.409 E169.32073
G1 X126.876 Y132.262 E169.37509
G1 X126.291 Y132.188 E169.42945
G1 X125.705 Y132.188 E169.48348
G1 X125.12 Y132.262 E169.53785
G1 X124.546 Y132.409 E169.59247
G1 X124.002 Y132.628 E169.64654
G1 X123.493 Y132.907 E169.70006
G1 X123.016 Y133.251 E169.75428
G1 X122.584 Y133.657 E169.80894
G1 X122.21 Y134.11 E169.8631
G1 X121.896 Y134.606 E169.91722
G1 X121.646 Y135.137 E169.97133
G1 X121.463 Y135.697 E170.02565
G1 X121.354 Y136.276 E170.07997
G1 X121.317 Y136.86 E170.13392
G1 X121.352 Y137.445 E170.18795
G1 X121.464 Y138.028 E170.24268
G1 X121.646 Y138.586 E170.2968
G1 X121.896 Y139.118 E170.35099
G1 X122.211 Y139.615 E170.40524
G1 X122.587 Y140.068 E170.45952
G1 X123.015 Y140.472 E170.51378
G1 X123.496 Y140.82 E170.56852
G1 X124.012 Y141.1 E170.62265
G1 X124.554 Y141.315 E170.67641
G1 X125.127 Y141.463 E170.73097
G1 X125.711 Y141.535 E170.78522
M204 S3000
M205 X10 Y10
G0 F2700 X125.705 Y141.634
G0 X145.262 Y246.271
G0 X145.602 Y378.57
G0 X254.398 Y378.57
G0 X265.325 Y141.216
G0 X274.295 Y141.574
G0 X276.04 Y141.186
G0 X275.998 Y141.096
M204 S1800
M205 X8 Y8
G1 F900 X276.508 Y140.816 E170.83886
G1 X276.986 Y140.47 E170.89326
G1 X277.414 Y140.067 E170.94746
G1 X277.789 Y139.615 E171.00161
G1 X278.104 Y139.118 E171.05586
G1 X278.354 Y138.587 E171.10997
G1 X278.537 Y138.027 E171.16429
G1 X278.646 Y137.447 E171.2187
G1 X278.683 Y136.862 E171.27274
G1 X278.646 Y136.277 E171.32679
G1 X278.537 Y135.697 E171.3812
G1 X278.354 Y135.137 E171.43552
G1 X278.104 Y134.606 E171.48963
G1 X277.789 Y134.11 E171.5438
G1 X277.415 Y133.656 E171.59803
G1 X276.982 Y133.249 E171.65282
G1 X276.503 Y132.903 E171.7073
G1 X275.988 Y132.624 E171.7613
G1 X275.447 Y132.409 E171.81497
G1 X274.876 Y132.262 E171.86933
G1 X274.291 Y132.188 E171.9237
G1 X273.705 Y132.188 E171.97773
G1 X273.12 Y132.262 E172.03209
G1 X272.546 Y132.41 E172.08674
G1 X272.004 Y132.627 E172.14057
G1 X271.492 Y132.907 E172.19437
G1 X271.015 Y133.253 E172.2487
G1 X270.584 Y133.657 E172.30317
G1 X270.21 Y134.11 E172.35733
G1 X269.896 Y134.606 E172.41145
G1 X269.646 Y135.137 E172.46556
G1 X269.463 Y135.697 E172.51988
G1 X269.354 Y136.276 E172.5742
G1 X269.317 Y136.86 E172.62815
G1 X269.352 Y137.445 E172.68218
G1 X269.464 Y138.028 E172.73692
G1 X269.646 Y138.586 E172.79103
G1 X269.896 Y139.118 E172.84522
G1 X270.211 Y139.615 E172.89947
G1 X270.587 Y140.068 E172.95375
G1 X271.015 Y140.471 E173.00795
G1 X271.495 Y140.82 E173.06267
G1 X272.012 Y141.101 E173.11692
G1 X272.554 Y141.315 E173.17064
G1 X273.127 Y141.463 E173.22521
G1 X273.711 Y141.535 E173.27946
G1 X274.293 Y141.535 E173.33312
G1 X274.877 Y141.463 E173.38737
G1 X275.453 Y141.315 E173.4422
G1 X275.998 Y141.096 E173.49635
M204 S3000
M205 X10 Y10
G0 F2700 X276.04 Y141.186
G0 X257.777 Y311.86
G0 X258.361 Y314.137
G0 X259.452 Y315.547
G0 X259.515 Y315.471
M204 S1800
M205 X8 Y8
G1 F900 X259.995 Y315.82 E173.55107
G1 X260.512 Y316.101 E173.60532
G1 X261.054 Y316.315 E173.65904
G1 X261.627 Y316.463 E173.7136
G1 X262.211 Y316.535 E173.76786
G1 X262.793 Y316.535 E173.82151
G1 X263.377 Y316.463 E173.87576
G1 X263.953 Y316.315 E173.9306
G1 X264.498 Y316.096 E173.98475
G1 X265.008 Y315.816 E174.03839
G1 X265.486 Y315.47 E174.09279
G1 X265.914 Y315.067 E174.14699
G1 X266.289 Y314.615 E174.20114
G1 X266.604 Y314.118 E174.25539
G1 X266.854 Y313.587 E174.3095
G1 X267.037 Y313.027 E174.36382
G1 X267.146 Y312.447 E174.41823
G1 X267.183 Y311.862 E174.47227
G1 X267.146 Y311.277 E174.52632
G1 X267.037 Y310.697 E174.58073
G1 X266.854 Y310.137 E174.63504
G1 X266.604 Y309.606 E174.68915
G1 X266.289 Y309.11 E174.74333
G1 X265.915 Y308.656 E174.79756
G1 X265.482 Y308.249 E174.85235
G1 X265.003 Y307.903 E174.90683
G1 X264.488 Y307.624 E174.96083
G1 X263.947 Y307.409 E175.0145
G1 X263.376 Y307.262 E175.06886
G1 X262.791 Y307.188 E175.12323
G1 X262.205 Y307.188 E175.17725
G1 X261.62 Y307.262 E175.23162
G1 X261.046 Y307.41 E175.28627
G1 X260.504 Y307.627 E175.3401
G1 X259.992 Y307.907 E175.3939
G1 X259.515 Y308.253 E175.44823
G1 X259.084 Y308.657 E175.5027
G1 X258.71 Y309.11 E175.55686
G1 X258.396 Y309.606 E175.61098
G1 X258.146 Y310.137 E175.66509
G1 X257.963 Y310.697 E175.71941
G1 X257.854 Y311.276 E175.77373
G1 X257.817 Y311.86 E175.82768
G1 X257.852 Y312.445 E175.88171
G1 X257.964 Y313.028 E175.93644
G1 X258.146 Y313.586 E175.99056
G1 X258.396 Y314.118 E176.04475
G1 X258.711 Y314.615 E176.099
G1 X259.087 Y315.068 E176.15328
G1 X259.515 Y315.471 E176.20748
M204 S3000
M205 X10 Y10
G0 F2700 X259.452 Y315.547
G0 X254.398 Y378.57
G0 X204.446 Y388.621
G0 X204.354 Y388.585
M204 S1800
M205 X8 Y8
G1 F900 X204.537 Y388.025 E176.2618
G1 X204.646 Y387.447 E176.31603
G1 X204.683 Y386.862 E176.37007
G1 X204.646 Y386.277 E176.42411
G1 X204.537 Y385.697 E176.47852
G1 X204.354 Y385.137 E176.53284
G1 X204.104 Y384.606 E176.58695
G1 X203.79 Y384.112 E176.64092
G1 X203.416 Y383.655 E176.69536
G1 X202.982 Y383.249 E176.75016
G1 X202.503 Y382.902 E176.80469
G1 X201.989 Y382.624 E176.85857
G1 X201.449 Y382.408 E176.91219
G1 X200.876 Y382.261 E176.96673
G1 X200.291 Y382.187 E177.02109
G1 X199.705 Y382.187 E177.07512
G1 X199.12 Y382.261 E177.12948
G1 X198.545 Y382.409 E177.18423
G1 X198.002 Y382.628 E177.23821
G1 X197.493 Y382.906 E177.29168
G1 X197.016 Y383.251 E177.34595
G1 X196.583 Y383.656 E177.40062
G1 X196.21 Y384.112 E177.45493
G1 X195.896 Y384.606 E177.5089
G1 X195.646 Y385.137 E177.56301
G1 X195.463 Y385.697 E177.61733
G1 X195.354 Y386.276 E177.67165
G1 X195.317 Y386.86 E177.7256
G1 X195.352 Y387.444 E177.77954
G1 X195.464 Y388.027 E177.83427
G1 X195.645 Y388.584 E177.88827
G1 X195.895 Y389.117 E177.94255
G1 X196.211 Y389.615 E177.99692
G1 X196.587 Y390.069 E178.05127
G1 X197.017 Y390.473 E178.10567
G1 X197.497 Y390.82 E178.16028
G1 X198.012 Y391.1 E178.21432
G1 X198.553 Y391.315 E178.268
G1 X199.124 Y391.462 E178.32236
G1 X199.709 Y391.536 E178.37672
G1 X200.295 Y391.536 E178.43075
G1 X200.88 Y391.462 E178.48512
G1 X201.454 Y391.315 E178.53974
G1 X201.998 Y391.096 E178.59381
G1 X202.508 Y390.816 E178.64745
G1 X202.984 Y390.471 E178.70165
G1 X203.414 Y390.068 E178.75599
G1 X203.789 Y389.614 E178.81028
G1 X204.105 Y389.117 E178.86458
G1 X204.354 Y388.585 E178.91873
M204 S3000
M205 X10 Y10
G0 F2700 X204.446 Y388.621
G0 X204.685 Y386.273
G0 X203.822 Y384.089
G0 X202.524 Y382.869
G0 X196.158 Y378.571
G0 X145.602 Y378.57
G0 X142.185 Y311.273
G0 X141.321 Y309.087
G0 X140.025 Y307.87
G0 X138.299 Y307.246
G0 X137.205 Y307.188
M204 S1800
M205 X8 Y8
G1 F900 X136.62 Y307.262 E178.9731
G1 X136.046 Y307.409 E179.02773
G1 X135.502 Y307.628 E179.08179
G1 X134.993 Y307.907 E179.13531
G1 X134.516 Y308.251 E179.18953
G1 X134.084 Y308.657 E179.24419
G1 X133.71 Y309.11 E179.29835
G1 X133.396 Y309.606 E179.35247
G1 X133.146 Y310.137 E179.40658
G1 X132.963 Y310.697 E179.4609
G1 X132.854 Y311.276 E179.51522
G1 X132.817 Y311.86 E179.56917
G1 X132.852 Y312.445 E179.6232
G1 X132.964 Y313.028 E179.67794
G1 X133.146 Y313.586 E179.73205
G1 X133.396 Y314.118 E179.78625
G1 X133.711 Y314.615 E179.8405
G1 X134.087 Y315.068 E179.89477
G1 X134.515 Y315.472 E179.94904
G1 X134.996 Y315.82 E180.00377
G1 X135.512 Y316.1 E180.0579
G1 X136.054 Y316.315 E180.11166
G1 X136.627 Y316.463 E180.16622
G1 X137.211 Y316.535 E180.22047
G1 X137.793 Y316.535 E180.27413
G1 X138.377 Y316.463 E180.32838
G1 X138.954 Y316.315 E180.3833
G1 X139.496 Y316.097 E180.43716
G1 X140.009 Y315.816 E180.49109
G1 X140.487 Y315.469 E180.54555
G1 X140.914 Y315.067 E180.59962
G1 X141.289 Y314.615 E180.65377
G1 X141.604 Y314.118 E180.70802
G1 X141.854 Y313.587 E180.76213
G1 X142.037 Y313.027 E180.81645
G1 X142.146 Y312.447 E180.87086
G1 X142.183 Y311.862 E180.9249
G1 X142.146 Y311.277 E180.97894
G1 X142.037 Y310.697 E181.03335
G1 X141.854 Y310.137 E181.08767
G1 X141.604 Y309.606 E181.14178
G1 X141.289 Y309.11 E181.19595
G1 X140.915 Y308.656 E181.25018
G1 X140.484 Y308.251 E181.30471
G1 X140.004 Y307.903 E181.35937
G1 X139.488 Y307.623 E181.4135
G1 X138.947 Y307.409 E181.46714
G1 X138.376 Y307.262 E181.5215
G1 X137.791 Y307.188 E181.57587
G1 X137.205 Y307.188 E181.62989
M204 S3000
M205 X10 Y10
G0 F2700 X137.199 Y307.089
G0 X135.433 Y307.655
G0 X135.23 Y309.117
M204 S1800
M205 X8 Y8
;TYPE:WALL-OUTER
G1 F900 X134.903 Y309.424 E181.67125
G1 X134.619 Y309.769 E181.71245
G1 X134.379 Y310.147 E181.75373
G1 X134.189 Y310.551 E181.79489
G1 X134.05 Y310.976 E181.83611
G1 X133.967 Y311.416 E181.8774
G1 X133.939 Y311.861 E181.91851
G1 X133.966 Y312.305 E181.95952
G1 X134.051 Y312.748 E182.0011
G1 X134.189 Y313.173 E182.0423
G1 X134.379 Y313.577 E182.08346
G1 X134.619 Y313.955 E182.12475
G1 X134.905 Y314.3 E182.16606
G1 X135.231 Y314.607 E182.20735
G1 X135.595 Y314.871 E182.2488
G1 X135.987 Y315.084 E182.28994
G1 X136.401 Y315.248 E182.33099
G1 X136.836 Y315.36 E182.37241
G1 X137.28 Y315.415 E182.41365
G1 X137.724 Y315.415 E182.45459
G1 X138.168 Y315.36 E182.49584
G1 X138.604 Y315.248 E182.53734
G1 X139.017 Y315.082 E182.57838
G1 X139.409 Y314.868 E182.61956
G1 X139.771 Y314.605 E182.66081
G1 X140.096 Y314.299 E182.70196
G1 X140.381 Y313.955 E182.74315
G1 X140.621 Y313.577 E182.78443
G1 X140.811 Y313.173 E182.82559
G1 X140.95 Y312.748 E182.86682
G1 X141.033 Y312.308 E182.9081
G1 X141.061 Y311.862 E182.9493
G1 X141.033 Y311.416 E182.9905
G1 X140.95 Y310.976 E183.03179
G1 X140.811 Y310.551 E183.07301
G1 X140.621 Y310.147 E183.11417
G1 X140.381 Y309.769 E183.15546
G1 X140.096 Y309.423 E183.19678
G1 X139.769 Y309.116 E183.23814
G1 X139.406 Y308.853 E183.27947
G1 X139.013 Y308.64 E183.32068
G1 X138.599 Y308.476 E183.36173
G1 X138.165 Y308.364 E183.40306
G1 X137.721 Y308.308 E183.44432
G1 X137.275 Y308.308 E183.48544
G1 X136.831 Y308.364 E183.5267
G1 X136.396 Y308.476 E183.56811
G1 X135.982 Y308.642 E183.60924
G1 X135.592 Y308.856 E183.65025
G1 X135.23 Y309.117 E183.6914
M204 S3000
M205 X10 Y10
G0 F2700 X134.939 Y309.391
G0 X134.104 Y308.502
G0 X132.925 Y310.688
G0 X132.926 Y313.037
G0 X145.602 Y378.57
G0 X195.223 Y386.784
G0 X196.439 Y386.861
M204 S1800
M205 X8 Y8
G1 F900 X196.466 Y387.304 E183.73231
G1 X196.551 Y387.747 E183.7739
G1 X196.689 Y388.172 E183.8151
G1 X196.879 Y388.577 E183.85634
G1 X197.119 Y388.955 E183.89763
G1 X197.405 Y389.301 E183.93901
G1 X197.732 Y389.608 E183.98037
G1 X198.095 Y389.871 E184.0217
G1 X198.487 Y390.084 E184.06283
G1 X198.901 Y390.248 E184.10388
G1 X199.335 Y390.36 E184.14521
G1 X199.779 Y390.416 E184.18647
G1 X200.225 Y390.416 E184.22759
G1 X200.669 Y390.36 E184.26885
G1 X201.104 Y390.248 E184.31026
G1 X201.518 Y390.082 E184.35138
G1 X201.908 Y389.868 E184.3924
G1 X202.27 Y389.606 E184.4336
G1 X202.596 Y389.3 E184.47482
G1 X202.881 Y388.955 E184.51608
G1 X203.121 Y388.577 E184.55736
G1 X203.311 Y388.172 E184.5986
G1 X203.45 Y387.746 E184.63992
G1 X203.533 Y387.307 E184.68111
G1 X203.561 Y386.862 E184.72222
G1 X203.533 Y386.416 E184.76342
G1 X203.45 Y385.976 E184.8047
G1 X203.311 Y385.551 E184.84593
G1 X203.121 Y385.147 E184.88709
G1 X202.881 Y384.77 E184.92829
G1 X202.596 Y384.422 E184.96976
G1 X202.268 Y384.115 E185.01118
G1 X201.905 Y383.852 E185.05251
G1 X201.513 Y383.64 E185.0936
G1 X201.1 Y383.475 E185.13461
G1 X200.665 Y383.363 E185.17602
G1 X200.221 Y383.307 E185.21728
G1 X199.775 Y383.307 E185.2584
G1 X199.331 Y383.363 E185.29966
G1 X198.896 Y383.475 E185.34107
G1 X198.482 Y383.642 E185.38223
G1 X198.092 Y383.855 E185.4232
G1 X197.73 Y384.117 E185.4644
G1 X197.403 Y384.423 E185.50569
G1 X197.119 Y384.77 E185.54703
G1 X196.879 Y385.147 E185.58824
G1 X196.689 Y385.551 E185.6294
G1 X196.55 Y385.976 E185.67062
G1 X196.467 Y386.416 E185.7119
G1 X196.439 Y386.861 E185.75301
M204 S3000
M205 X10 Y10
G0 F2700 X196.463 Y387.261
G0 X195.246 Y387.333
G0 X195.609 Y385.123
G0 X196.554 Y383.629
G0 X202.622 Y378.572
G0 X254.398 Y378.57
G0 X257.852 Y312.977
G0 X259.051 Y312.748
M204 S1800
M205 X8 Y8
G1 F900 X259.189 Y313.173 E185.79421
G1 X259.379 Y313.577 E185.83537
G1 X259.619 Y313.955 E185.87665
G1 X259.905 Y314.3 E185.91797
G1 X260.231 Y314.607 E185.95926
G1 X260.594 Y314.871 E186.00064
G1 X260.987 Y315.084 E186.04185
G1 X261.401 Y315.248 E186.08291
G1 X261.836 Y315.36 E186.12432
G1 X262.28 Y315.415 E186.16557
G1 X262.724 Y315.415 E186.2065
G1 X263.168 Y315.36 E186.24775
G1 X263.604 Y315.248 E186.28926
G1 X264.018 Y315.082 E186.33038
G1 X264.408 Y314.868 E186.37139
G1 X264.771 Y314.605 E186.41272
G1 X265.096 Y314.299 E186.45388
G1 X265.381 Y313.955 E186.49506
G1 X265.621 Y313.577 E186.53635
G1 X265.811 Y313.173 E186.57751
G1 X265.95 Y312.748 E186.61873
G1 X266.033 Y312.308 E186.66002
G1 X266.061 Y311.862 E186.70122
G1 X266.033 Y311.416 E186.74242
G1 X265.95 Y310.976 E186.7837
G1 X265.811 Y310.551 E186.82493
G1 X265.621 Y310.147 E186.86609
G1 X265.381 Y309.769 E186.90737
G1 X265.096 Y309.423 E186.9487
G1 X264.768 Y309.115 E186.99018
G1 X264.405 Y308.853 E187.03146
G1 X264.013 Y308.64 E187.07259
G1 X263.599 Y308.476 E187.11364
G1 X263.165 Y308.364 E187.15497
G1 X262.721 Y308.308 E187.19623
G1 X262.275 Y308.308 E187.23735
G1 X261.831 Y308.364 E187.27861
