;FLAVOR:Marlin
;TIME:692
;Filament used: 2.58177m
;Layer height: 0.5
;MINX:155.079
;MINY:169.606
;MINZ:0.2
;MAXX:244.569
;MAXY:229.355
;MAXZ:10.2
;Generated with Cura_SteamEngine 4.11.0
M140 S70
M105
M190 S70
M104 S210
M105
M109 S210
M82 ;absolute extrusion mode
M107 ;Start with the fan off
G21 ;Set units to millimeters
G91 ;Change to relative positioning mode for retract filament and nozzle lifting
G1 F200 E-3 ;Retract 3mm filament for a clean start
G92 E0 ;Zero the extruded length
G1 F1000 Z5 ;Lift the nozzle 5mm before homing axes
G90 ;Absolute positioning
M82 ;Set extruder to absolute mode too
G28 X0 Y0 ;First move X/Y to min endstops
G28 Z0 ;Then move Z to min endstops
G1 F1000 Z15 ;After homing lift the nozzle 15mm before start printing

G92 E0
G92 E0
G1 F1200 E-3
;LAYER_COUNT:21
;LAYER:0
M107
M204 S3000
M205 X10 Y10
G1 F600 Z0.275
;MESH:pawl side arm edit outer arm 09.08.2021.stl
G0 F2700 X239.119 Y225.162 Z0.275
M204 S1800
M205 X8 Y8
;TYPE:WALL-INNER
G1 F600 Z0.2
G1 F2700 E0
G1 F900 X238.839 Y226.205 E0.09957
G1 X238.838 Y226.206 E0.0997
G1 X238.695 Y226.746 E0.1512
G1 X238.155 Y226.602 E0.18449
G1 X173.381 Y209.245 E6.36715
G1 X181.001 Y180.807 E9.08154
G1 X181.145 Y180.267 E9.13307
G1 X180.605 Y180.123 E9.16636
G1 X160.881 Y174.838 E11.049
G1 X161.161 Y173.795 E11.14857
G1 X161.162 Y173.794 E11.1487
G1 X161.305 Y173.254 E11.2002
G1 X161.845 Y173.398 E11.23349
G1 X187.982 Y180.402 E13.72827
G1 X180.218 Y209.38 E16.49419
G1 X239.119 Y225.162 E22.11625
M204 S3000
M205 X10 Y10
G0 F2700 X239.033 Y225.211
G0 X238.645 Y226.66
G0 X238.947 Y227.974
M204 S1800
M205 X8 Y8
;TYPE:WALL-OUTER
G1 F900 X172.009 Y210.037 E28.50547
G1 X179.629 Y181.599 E31.21986
G1 X179.773 Y181.059 E31.27139
G1 X179.233 Y180.915 E31.30467
G1 X159.509 Y175.63 E33.18732
G1 X160.369 Y172.422 E33.49353
G1 X160.513 Y171.882 E33.54506
G1 X161.053 Y172.026 E33.57835
G1 X189.354 Y179.61 E36.27968
G1 X181.59 Y208.588 E39.0456
G1 X240.491 Y224.37 E44.66766
G1 X239.631 Y227.578 E44.97387
G1 X239.487 Y228.118 E45.02539
G1 X238.947 Y227.974 E45.05868
M204 S3000
M205 X10 Y10
G0 F2700 X238.561 Y227.871
G0 X238.645 Y226.66
G0 X179.008 Y209.604
M204 S1800
M205 X8 Y8
;TYPE:SKIN
G1 F900 X174.74 Y208.46 E45.46607
G1 X182.355 Y180.043 E48.17847
G1 X186.623 Y181.187 E48.58586
G1 X179.008 Y209.604 E51.29826
M204 S3000
M205 X10 Y10
G0 F2700 X175.595 Y207.274
M204 S1800
M205 X8 Y8
G1 F900 X176.791 Y208.469 E51.45414
M204 S3000
M205 X10 Y10
G0 F2700 X178.689 Y208.783
M204 S1800
M205 X8 Y8
G1 F900 X175.93 Y206.024 E51.81388
M204 S3000
M205 X10 Y10
G0 F2700 X176.265 Y204.776
M204 S1800
M205 X8 Y8
G1 F900 X179.023 Y207.534 E52.17348
M204 S3000
M205 X10 Y10
G0 F2700 X179.359 Y206.285
M204 S1800
M205 X8 Y8
G1 F900 X176.599 Y203.526 E52.53328
M204 S3000
M205 X10 Y10
G0 F2700 X176.934 Y202.277
M204 S1800
M205 X8 Y8
G1 F900 X179.693 Y205.036 E52.89302
M204 S3000
M205 X10 Y10
G0 F2700 X180.027 Y203.786
M204 S1800
M205 X8 Y8
G1 F900 X177.269 Y201.028 E53.25263
M204 S3000
M205 X10 Y10
G0 F2700 X177.604 Y199.778
M204 S1800
M205 X8 Y8
G1 F900 X180.363 Y202.538 E53.61243
M204 S3000
M205 X10 Y10
G0 F2700 X180.697 Y201.288
M204 S1800
M205 X8 Y8
G1 F900 X177.938 Y198.529 E53.97216
M204 S3000
M205 X10 Y10
G0 F2700 X178.273 Y197.28
M204 S1800
M205 X8 Y8
G1 F900 X181.032 Y200.039 E54.3319
M204 S3000
M205 X10 Y10
G0 F2700 X181.367 Y198.79
M204 S1800
M205 X8 Y8
G1 F900 X178.608 Y196.031 E54.69164
M204 S3000
M205 X10 Y10
G0 F2700 X178.943 Y194.782
M204 S1800
M205 X8 Y8
G1 F900 X181.701 Y197.54 E55.05124
M204 S3000
M205 X10 Y10
G0 F2700 X182.036 Y196.292
M204 S1800
M205 X8 Y8
G1 F900 X179.277 Y193.533 E55.41098
M204 S3000
M205 X10 Y10
G0 F2700 X179.612 Y192.283
M204 S1800
M205 X8 Y8
G1 F900 X182.371 Y195.042 E55.77071
M204 S3000
M205 X10 Y10
G0 F2700 X182.706 Y193.793
M204 S1800
M205 X8 Y8
G1 F900 X179.947 Y191.034 E56.13045
M204 S3000
M205 X10 Y10
G0 F2700 X180.281 Y189.785
M204 S1800
M205 X8 Y8
G1 F900 X183.04 Y192.544 E56.49019
M204 S3000
M205 X10 Y10
G0 F2700 X183.375 Y191.295
M204 S1800
M205 X8 Y8
G1 F900 X180.616 Y188.535 E56.84999
M204 S3000
M205 X10 Y10
G0 F2700 X180.951 Y187.287
M204 S1800
M205 X8 Y8
G1 F900 X183.71 Y190.046 E57.20972
M204 S3000
M205 X10 Y10
G0 F2700 X184.045 Y188.796
M204 S1800
M205 X8 Y8
G1 F900 X181.285 Y186.037 E57.56952
M204 S3000
M205 X10 Y10
G0 F2700 X181.62 Y184.788
M204 S1800
M205 X8 Y8
G1 F900 X184.379 Y187.547 E57.92926
M204 S3000
M205 X10 Y10
G0 F2700 X184.714 Y186.298
M204 S1800
M205 X8 Y8
G1 F900 X181.955 Y183.539 E58.289
M204 S3000
M205 X10 Y10
G0 F2700 X182.29 Y182.29
M204 S1800
M205 X8 Y8
G1 F900 X185.049 Y185.049 E58.64873
M204 S3000
M205 X10 Y10
G0 F2700 X185.384 Y183.8
M204 S1800
M205 X8 Y8
G1 F900 X182.625 Y181.041 E59.00847
M204 S3000
M205 X10 Y10
G0 F2700 X184.26 Y181.092
M204 S1800
M205 X8 Y8
G1 F900 X185.718 Y182.55 E59.19857
M204 S3000
M205 X10 Y10
G0 F2700 X181.907 Y179.644
M204 S1800
M205 X8 Y8
;TYPE:SKIN
G1 F900 X181.454 Y179.192 E59.21964
M204 S3000
M205 X10 Y10
G0 F2700 X181.529 Y179.832
M204 S1800
M205 X8 Y8
G1 F900 X180.682 Y178.984 E59.25911
M204 S3000
M205 X10 Y10
G0 F2700 X180.756 Y179.624
M204 S1800
M205 X8 Y8
G1 F900 X179.909 Y178.777 E59.29855
M204 S3000
M205 X10 Y10
G0 F2700 X179.983 Y179.417
M204 S1800
M205 X8 Y8
G1 F900 X179.136 Y178.57 E59.33799
M204 S3000
M205 X10 Y10
G0 F2700 X179.21 Y179.21
M204 S1800
M205 X8 Y8
G1 F900 X178.363 Y178.363 E59.37743
M204 S3000
M205 X10 Y10
G0 F2700 X178.437 Y179.003
M204 S1800
M205 X8 Y8
G1 F900 X177.59 Y178.156 E59.41687
M204 S3000
M205 X10 Y10
G0 F2700 X177.664 Y178.796
M204 S1800
M205 X8 Y8
G1 F900 X176.817 Y177.949 E59.45632
M204 S3000
M205 X10 Y10
G0 F2700 X176.891 Y178.589
M204 S1800
M205 X8 Y8
G1 F900 X176.044 Y177.741 E59.49578
M204 S3000
M205 X10 Y10
G0 F2700 X176.119 Y178.382
M204 S1800
M205 X8 Y8
G1 F900 X175.272 Y177.535 E59.53522
M204 S3000
M205 X10 Y10
G0 F2700 X175.346 Y178.175
M204 S1800
M205 X8 Y8
G1 F900 X174.499 Y177.328 E59.57467
M204 S3000
M205 X10 Y10
G0 F2700 X174.574 Y177.968
M204 S1800
M205 X8 Y8
G1 F900 X173.726 Y177.121 E59.61413
M204 S3000
M205 X10 Y10
G0 F2700 X173.801 Y177.76
M204 S1800
M205 X8 Y8
G1 F900 X172.954 Y176.913 E59.65357
M204 S3000
M205 X10 Y10
G0 F2700 X173.028 Y177.553
M204 S1800
M205 X8 Y8
G1 F900 X172.181 Y176.706 E59.69301
M204 S3000
M205 X10 Y10
G0 F2700 X172.255 Y177.346
M204 S1800
M205 X8 Y8
G1 F900 X171.408 Y176.499 E59.73246
M204 S3000
M205 X10 Y10
G0 F2700 X171.482 Y177.139
M204 S1800
M205 X8 Y8
G1 F900 X170.635 Y176.292 E59.7719
M204 S3000
M205 X10 Y10
G0 F2700 X170.709 Y176.932
M204 S1800
M205 X8 Y8
G1 F900 X169.862 Y176.085 E59.81134
M204 S3000
M205 X10 Y10
G0 F2700 X169.937 Y176.725
M204 S1800
M205 X8 Y8
G1 F900 X169.089 Y175.877 E59.85083
M204 S3000
M205 X10 Y10
G0 F2700 X169.164 Y176.518
M204 S1800
M205 X8 Y8
G1 F900 X168.317 Y175.671 E59.89027
M204 S3000
M205 X10 Y10
G0 F2700 X168.391 Y176.311
M204 S1800
M205 X8 Y8
G1 F900 X167.544 Y175.464 E59.92971
M204 S3000
M205 X10 Y10
G0 F2700 X167.618 Y176.104
M204 S1800
M205 X8 Y8
G1 F900 X166.771 Y175.257 E59.96915
M204 S3000
M205 X10 Y10
G0 F2700 X166.846 Y175.897
M204 S1800
M205 X8 Y8
G1 F900 X165.998 Y175.049 E60.00864
M204 S3000
M205 X10 Y10
G0 F2700 X166.073 Y175.689
M204 S1800
M205 X8 Y8
G1 F900 X165.226 Y174.842 E60.04808
M204 S3000
M205 X10 Y10
G0 F2700 X165.3 Y175.482
M204 S1800
M205 X8 Y8
G1 F900 X164.453 Y174.635 E60.08753
M204 S3000
M205 X10 Y10
G0 F2700 X164.527 Y175.275
M204 S1800
M205 X8 Y8
G1 F900 X163.68 Y174.428 E60.12697
M204 S3000
M205 X10 Y10
G0 F2700 X163.754 Y175.068
M204 S1800
M205 X8 Y8
G1 F900 X162.907 Y174.221 E60.16641
M204 S3000
M205 X10 Y10
G0 F2700 X162.982 Y174.861
M204 S1800
M205 X8 Y8
G1 F900 X162.134 Y174.014 E60.20588
M204 S3000
M205 X10 Y10
G0 F2700 X161.624 Y174.069
M204 S1800
M205 X8 Y8
G1 F900 X162.209 Y174.654 E60.23312
M204 S3000
M205 X10 Y10
G0 F2700 X181.179 Y180.247
G0 X179.833 Y209.814
M204 S1800
M205 X8 Y8
G1 F900 X180.679 Y210.661 E60.27254
M204 S3000
M205 X10 Y10
G0 F2700 X180.606 Y210.022
M204 S1800
M205 X8 Y8
G1 F900 X181.452 Y210.868 E60.31193
M204 S3000
M205 X10 Y10
G0 F2700 X181.379 Y210.229
M204 S1800
M205 X8 Y8
G1 F900 X182.225 Y211.075 E60.35133
M204 S3000
M205 X10 Y10
G0 F2700 X182.152 Y210.436
M204 S1800
M205 X8 Y8
G1 F900 X182.998 Y211.282 E60.39072
M204 S3000
M205 X10 Y10
G0 F2700 X182.924 Y210.643
M204 S1800
M205 X8 Y8
G1 F900 X183.771 Y211.489 E60.43014
M204 S3000
M205 X10 Y10
G0 F2700 X183.697 Y210.85
M204 S1800
M205 X8 Y8
G1 F900 X184.543 Y211.696 E60.46954
M204 S3000
M205 X10 Y10
G0 F2700 X184.47 Y211.057
M204 S1800
M205 X8 Y8
G1 F900 X185.316 Y211.903 E60.50893
M204 S3000
M205 X10 Y10
G0 F2700 X185.242 Y211.264
M204 S1800
M205 X8 Y8
G1 F900 X186.089 Y212.11 E60.54835
M204 S3000
M205 X10 Y10
G0 F2700 X186.015 Y211.471
M204 S1800
M205 X8 Y8
G1 F900 X186.862 Y212.318 E60.58779
M204 S3000
M205 X10 Y10
G0 F2700 X186.788 Y211.678
M204 S1800
M205 X8 Y8
G1 F900 X187.635 Y212.525 E60.62723
M204 S3000
M205 X10 Y10
G0 F2700 X187.561 Y211.885
M204 S1800
M205 X8 Y8
G1 F900 X188.407 Y212.732 E60.66665
M204 S3000
M205 X10 Y10
G0 F2700 X188.333 Y212.092
M204 S1800
M205 X8 Y8
G1 F900 X189.18 Y212.938 E60.70607
M204 S3000
M205 X10 Y10
G0 F2700 X189.106 Y212.299
M204 S1800
M205 X8 Y8
G1 F900 X189.952 Y213.146 E60.74549
M204 S3000
M205 X10 Y10
G0 F2700 X189.879 Y212.506
M204 S1800
M205 X8 Y8
G1 F900 X190.725 Y213.353 E60.78491
M204 S3000
M205 X10 Y10
G0 F2700 X190.652 Y212.713
M204 S1800
M205 X8 Y8
G1 F900 X191.498 Y213.56 E60.82433
M204 S3000
M205 X10 Y10
G0 F2700 X191.425 Y212.921
M204 S1800
M205 X8 Y8
G1 F900 X192.271 Y213.767 E60.86372
M204 S3000
M205 X10 Y10
G0 F2700 X192.197 Y213.128
M204 S1800
M205 X8 Y8
G1 F900 X193.044 Y213.974 E60.90314
M204 S3000
M205 X10 Y10
G0 F2700 X192.97 Y213.335
M204 S1800
M205 X8 Y8
G1 F900 X193.816 Y214.181 E60.94254
M204 S3000
M205 X10 Y10
G0 F2700 X193.743 Y213.542
M204 S1800
M205 X8 Y8
G1 F900 X194.589 Y214.388 E60.98193
M204 S3000
M205 X10 Y10
G0 F2700 X194.515 Y213.749
M204 S1800
M205 X8 Y8
G1 F900 X195.362 Y214.595 E61.02135
M204 S3000
M205 X10 Y10
G0 F2700 X195.288 Y213.956
M204 S1800
M205 X8 Y8
G1 F900 X196.135 Y214.802 E61.06077
M204 S3000
M205 X10 Y10
G0 F2700 X196.061 Y214.163
M204 S1800
M205 X8 Y8
G1 F900 X196.908 Y215.009 E61.10019
M204 S3000
M205 X10 Y10
G0 F2700 X196.834 Y214.37
M204 S1800
M205 X8 Y8
G1 F900 X197.68 Y215.217 E61.13961
M204 S3000
M205 X10 Y10
G0 F2700 X197.607 Y214.577
M204 S1800
M205 X8 Y8
G1 F900 X198.453 Y215.424 E61.17902
M204 S3000
M205 X10 Y10
G0 F2700 X198.379 Y214.784
M204 S1800
M205 X8 Y8
G1 F900 X199.225 Y215.63 E61.21842
M204 S3000
M205 X10 Y10
G0 F2700 X199.152 Y214.991
M204 S1800
M205 X8 Y8
G1 F900 X199.998 Y215.837 E61.25781
M204 S3000
M205 X10 Y10
G0 F2700 X199.925 Y215.198
M204 S1800
M205 X8 Y8
G1 F900 X200.771 Y216.045 E61.29723
M204 S3000
M205 X10 Y10
G0 F2700 X200.698 Y215.405
M204 S1800
M205 X8 Y8
G1 F900 X201.544 Y216.252 E61.33665
M204 S3000
M205 X10 Y10
G0 F2700 X201.47 Y215.613
M204 S1800
M205 X8 Y8
G1 F900 X202.317 Y216.459 E61.37607
M204 S3000
M205 X10 Y10
G0 F2700 X202.243 Y215.82
M204 S1800
M205 X8 Y8
G1 F900 X203.09 Y216.666 E61.41549
M204 S3000
M205 X10 Y10
G0 F2700 X203.016 Y216.026
M204 S1800
M205 X8 Y8
G1 F900 X203.862 Y216.873 E61.45491
M204 S3000
M205 X10 Y10
G0 F2700 X203.788 Y216.233
M204 S1800
M205 X8 Y8
G1 F900 X204.635 Y217.08 E61.49435
M204 S3000
M205 X10 Y10
G0 F2700 X204.561 Y216.441
M204 S1800
M205 X8 Y8
G1 F900 X205.408 Y217.287 E61.53377
M204 S3000
M205 X10 Y10
G0 F2700 X205.334 Y216.648
M204 S1800
M205 X8 Y8
G1 F900 X206.181 Y217.494 E61.57319
M204 S3000
M205 X10 Y10
G0 F2700 X206.107 Y216.855
M204 S1800
M205 X8 Y8
G1 F900 X206.953 Y217.701 E61.61258
M204 S3000
M205 X10 Y10
G0 F2700 X206.88 Y217.062
M204 S1800
M205 X8 Y8
G1 F900 X207.726 Y217.909 E61.652
M204 S3000
M205 X10 Y10
G0 F2700 X207.653 Y217.269
M204 S1800
M205 X8 Y8
G1 F900 X208.498 Y218.115 E61.69137
M204 S3000
M205 X10 Y10
G0 F2700 X208.425 Y217.476
M204 S1800
M205 X8 Y8
G1 F900 X209.271 Y218.322 E61.73077
M204 S3000
M205 X10 Y10
G0 F2700 X209.198 Y217.683
M204 S1800
M205 X8 Y8
G1 F900 X210.044 Y218.529 E61.77016
M204 S3000
M205 X10 Y10
G0 F2700 X209.971 Y217.89
M204 S1800
M205 X8 Y8
G1 F900 X210.817 Y218.737 E61.80958
M204 S3000
M205 X10 Y10
G0 F2700 X210.743 Y218.097
M204 S1800
M205 X8 Y8
G1 F900 X211.59 Y218.944 E61.84902
M204 S3000
M205 X10 Y10
G0 F2700 X211.516 Y218.305
M204 S1800
M205 X8 Y8
G1 F900 X212.363 Y219.151 E61.88844
M204 S3000
M205 X10 Y10
G0 F2700 X212.289 Y218.512
M204 S1800
M205 X8 Y8
G1 F900 X213.136 Y219.358 E61.92786
M204 S3000
M205 X10 Y10
G0 F2700 X213.061 Y218.718
M204 S1800
M205 X8 Y8
G1 F900 X213.908 Y219.565 E61.9673
M204 S3000
M205 X10 Y10
G0 F2700 X213.834 Y218.925
M204 S1800
M205 X8 Y8
G1 F900 X214.681 Y219.772 E62.00674
M204 S3000
M205 X10 Y10
G0 F2700 X214.607 Y219.133
M204 S1800
M205 X8 Y8
G1 F900 X215.454 Y219.979 E62.04616
M204 S3000
M205 X10 Y10
G0 F2700 X215.38 Y219.34
M204 S1800
M205 X8 Y8
G1 F900 X216.226 Y220.186 E62.08556
M204 S3000
M205 X10 Y10
G0 F2700 X216.153 Y219.547
M204 S1800
M205 X8 Y8
G1 F900 X216.999 Y220.393 E62.12495
M204 S3000
M205 X10 Y10
G0 F2700 X216.926 Y219.754
M204 S1800
M205 X8 Y8
G1 F900 X217.772 Y220.601 E62.16437
M204 S3000
M205 X10 Y10
G0 F2700 X217.698 Y219.961
M204 S1800
M205 X8 Y8
G1 F900 X218.544 Y220.807 E62.20377
M204 S3000
M205 X10 Y10
G0 F2700 X218.471 Y220.168
M204 S1800
M205 X8 Y8
G1 F900 X219.317 Y221.014 E62.24316
M204 S3000
M205 X10 Y10
G0 F2700 X219.244 Y220.375
M204 S1800
M205 X8 Y8
G1 F900 X220.09 Y221.221 E62.28256
M204 S3000
M205 X10 Y10
G0 F2700 X220.016 Y220.582
M204 S1800
M205 X8 Y8
G1 F900 X220.863 Y221.429 E62.322
M204 S3000
M205 X10 Y10
G0 F2700 X220.789 Y220.789
M204 S1800
M205 X8 Y8
G1 F900 X221.636 Y221.636 E62.36144
M204 S3000
M205 X10 Y10
G0 F2700 X221.562 Y220.997
M204 S1800
M205 X8 Y8
G1 F900 X222.409 Y221.843 E62.40086
M204 S3000
M205 X10 Y10
G0 F2700 X222.335 Y221.204
M204 S1800
M205 X8 Y8
G1 F900 X223.181 Y222.05 E62.44026
M204 S3000
M205 X10 Y10
G0 F2700 X223.107 Y221.41
M204 S1800
M205 X8 Y8
G1 F900 X223.954 Y222.257 E62.4797
M204 S3000
M205 X10 Y10
G0 F2700 X223.88 Y221.617
M204 S1800
M205 X8 Y8
G1 F900 X224.727 Y222.464 E62.51914
M204 S3000
M205 X10 Y10
G0 F2700 X224.653 Y221.825
M204 S1800
M205 X8 Y8
G1 F900 X225.499 Y222.671 E62.55854
M204 S3000
M205 X10 Y10
G0 F2700 X225.426 Y222.032
M204 S1800
M205 X8 Y8
G1 F900 X226.272 Y222.878 E62.59793
M204 S3000
M205 X10 Y10
G0 F2700 X226.199 Y222.239
M204 S1800
M205 X8 Y8
G1 F900 X227.045 Y223.085 E62.63733
M204 S3000
M205 X10 Y10
G0 F2700 X226.972 Y222.446
M204 S1800
M205 X8 Y8
G1 F900 X227.818 Y223.293 E62.67674
M204 S3000
M205 X10 Y10
G0 F2700 X227.744 Y222.653
M204 S1800
M205 X8 Y8
G1 F900 X228.59 Y223.499 E62.71614
M204 S3000
M205 X10 Y10
G0 F2700 X228.517 Y222.86
M204 S1800
M205 X8 Y8
G1 F900 X229.363 Y223.706 E62.75553
M204 S3000
M205 X10 Y10
G0 F2700 X229.289 Y223.067
M204 S1800
M205 X8 Y8
G1 F900 X230.136 Y223.913 E62.79495
M204 S3000
M205 X10 Y10
G0 F2700 X230.062 Y223.274
M204 S1800
M205 X8 Y8
G1 F900 X230.909 Y224.121 E62.8344
M204 S3000
M205 X10 Y10
G0 F2700 X230.835 Y223.481
M204 S1800
M205 X8 Y8
G1 F900 X231.682 Y224.328 E62.87384
M204 S3000
M205 X10 Y10
G0 F2700 X231.608 Y223.688
M204 S1800
M205 X8 Y8
G1 F900 X232.454 Y224.535 E62.91326
M204 S3000
M205 X10 Y10
G0 F2700 X232.381 Y223.896
M204 S1800
M205 X8 Y8
G1 F900 X233.227 Y224.741 E62.95263
M204 S3000
M205 X10 Y10
G0 F2700 X233.153 Y224.102
M204 S1800
M205 X8 Y8
G1 F900 X234 Y224.949 E62.99207
M204 S3000
M205 X10 Y10
G0 F2700 X233.926 Y224.309
M204 S1800
M205 X8 Y8
G1 F900 X234.772 Y225.156 E63.03149
M204 S3000
M205 X10 Y10
G0 F2700 X234.699 Y224.517
M204 S1800
M205 X8 Y8
G1 F900 X235.545 Y225.363 E63.07088
M204 S3000
M205 X10 Y10
G0 F2700 X235.472 Y224.724
M204 S1800
M205 X8 Y8
G1 F900 X236.318 Y225.57 E63.11028
M204 S3000
M205 X10 Y10
G0 F2700 X236.245 Y224.931
M204 S1800
M205 X8 Y8
G1 F900 X237.091 Y225.777 E63.14967
M204 S3000
M205 X10 Y10
G0 F2700 X237.017 Y225.138
M204 S1800
M205 X8 Y8
G1 F900 X237.864 Y225.984 E63.18909
M204 S3000
M205 X10 Y10
G0 F2700 X238.374 Y225.929
M204 S1800
M205 X8 Y8
