;FLAVOR:Marlin
;TIME:414
;Filament used: 1.47057m
;Layer height: 0.5
;MINX:180.924
;MINY:180.558
;MINZ:0.2
;MAXX:219.076
;MAXY:219.442
;MAXZ:10.2
;Generated with Cura_SteamEngine 4.11.0
M140 S70
M105
M190 S70
M104 S210
M105
M109 S210
M82 ;absolute extrusion mode
M107 ;Start with the fan off
G21 ;Set units to millimeters
G91 ;Change to relative positioning mode for retract filament and nozzle lifting
G1 F200 E-3 ;Retract 3mm filament for a clean start
G92 E0 ;Zero the extruded length
G1 F1000 Z5 ;Lift the nozzle 5mm before homing axes
G90 ;Absolute positioning
M82 ;Set extruder to absolute mode too
G28 X0 Y0 ;First move X/Y to min endstops
G28 Z0 ;Then move Z to min endstops
G1 F1000 Z15 ;After homing lift the nozzle 15mm before start printing

G92 E0
G92 E0
G1 F1200 E-3
;LAYER_COUNT:21
;LAYER:0
M107
M204 S3000
M205 X10 Y10
G1 F600 Z0.275
;MESH:Part_27_Chamber_Stacking_Clip_Small_27.07.2020.stl
G0 F2700 X184.68 Y201.895 Z0.275
M204 S1800
M205 X8 Y8
;TYPE:WALL-INNER
G1 F600 Z0.2
G1 F2700 E0
G1 F900 X193.98 Y185.786 E1.71494
G1 X194.916 Y186.326 E1.81457
G1 X194.917 Y186.327 E1.8147
G1 X195.401 Y186.605 E1.86616
G1 X195.122 Y187.089 E1.89944
G1 X186.38 Y202.231 E3.51144
G1 X186.1 Y202.715 E3.56299
G1 X185.615 Y202.435 E3.61463
G1 X184.68 Y201.895 E3.71418
M204 S3000
M205 X10 Y10
G0 F2700 X186.27 Y203.166
G0 X204.123 Y213.474
G0 X213.899 Y197.286
M204 S1800
M205 X8 Y8
G1 F900 X214.835 Y197.826 E3.8138
G1 X215.32 Y198.105 E3.86539
G1 X215.041 Y198.589 E3.89864
G1 X215.04 Y198.59 E3.89877
G1 X206.3 Y213.729 E5.51045
G1 X206.02 Y214.214 E5.56208
G1 X205.535 Y213.934 E5.59548
G1 X204.6 Y213.394 E5.69503
G1 X213.899 Y197.286 E7.40984
M204 S3000
M205 X10 Y10
G0 F2700 X204.123 Y213.474
G0 X186.27 Y203.166
G0 X195.852 Y186.484
G0 X196.446 Y185.916
M204 S1800
M205 X8 Y8
;TYPE:WALL-OUTER
G1 F900 X196.447 Y185.917 E7.40997
G1 X196.931 Y186.195 E7.46143
G1 X196.652 Y186.679 E7.49471
G1 X187.211 Y203.032 E9.23563
G1 X187.21 Y203.033 E9.23576
G1 X186.931 Y203.516 E9.28719
G1 X187.415 Y203.795 E9.32049
G1 X203.006 Y212.796 E10.98029
G1 X203.007 Y212.797 E10.98042
G1 X203.49 Y213.076 E11.03184
G1 X203.769 Y212.592 E11.06514
G1 X213.489 Y195.756 E12.85749
G1 X216.365 Y197.416 E13.16365
G1 X216.85 Y197.695 E13.21523
G1 X216.571 Y198.179 E13.24849
G1 X216.57 Y198.18 E13.24862
G1 X206.43 Y215.744 E15.11846
G1 X203.07 Y213.805 E15.47612
G1 X202.588 Y213.527 E15.52103
G1 X186.511 Y204.245 E17.23259
G1 X183.635 Y202.585 E17.53874
G1 X183.15 Y202.305 E17.59038
G1 X183.43 Y201.82 E17.62378
G1 X193.57 Y184.256 E19.49361
G1 X196.446 Y185.916 E19.79977
M204 S3000
M205 X10 Y10
G0 F2700 X196.447 Y185.917
G0 X196.793 Y186.115
G0 X195.852 Y186.484
G0 X193.679 Y187.343
M204 S1800
M205 X8 Y8
;TYPE:SKIN
G1 F900 X194.119 Y187.784 E19.85721
M204 S3000
M205 X10 Y10
G0 F2700 X193.54 Y188.788
M204 S1800
M205 X8 Y8
G1 F900 X193.099 Y188.347 E19.91471
M204 S3000
M205 X10 Y10
G0 F2700 X192.519 Y189.351
M204 S1800
M205 X8 Y8
G1 F900 X192.96 Y189.792 E19.97221
M204 S3000
M205 X10 Y10
G0 F2700 X192.381 Y190.797
M204 S1800
M205 X8 Y8
G1 F900 X191.94 Y190.356 E20.02971
M204 S3000
M205 X10 Y10
G0 F2700 X191.36 Y191.36
M204 S1800
M205 X8 Y8
G1 F900 X191.801 Y191.801 E20.08721
M204 S3000
M205 X10 Y10
G0 F2700 X191.221 Y192.805
M204 S1800
M205 X8 Y8
G1 F900 X190.78 Y192.364 E20.14471
M204 S3000
M205 X10 Y10
G0 F2700 X190.201 Y193.368
M204 S1800
M205 X8 Y8
G1 F900 X190.641 Y193.809 E20.20214
M204 S3000
M205 X10 Y10
G0 F2700 X190.061 Y194.813
M204 S1800
M205 X8 Y8
G1 F900 X189.621 Y194.373 E20.25951
M204 S3000
M205 X10 Y10
G0 F2700 X189.041 Y195.377
M204 S1800
M205 X8 Y8
G1 F900 X189.481 Y195.817 E20.31688
M204 S3000
M205 X10 Y10
G0 F2700 X188.902 Y196.821
M204 S1800
M205 X8 Y8
G1 F900 X188.462 Y196.381 E20.37425
M204 S3000
M205 X10 Y10
G0 F2700 X187.882 Y197.386
M204 S1800
M205 X8 Y8
G1 F900 X188.323 Y197.826 E20.43169
M204 S3000
M205 X10 Y10
G0 F2700 X187.743 Y198.83
M204 S1800
M205 X8 Y8
G1 F900 X187.302 Y198.39 E20.48912
M204 S3000
M205 X10 Y10
G0 F2700 X186.722 Y199.394
M204 S1800
M205 X8 Y8
G1 F900 X187.163 Y199.834 E20.54656
M204 S3000
M205 X10 Y10
G0 F2700 X186.583 Y200.838
M204 S1800
M205 X8 Y8
G1 F900 X186.143 Y200.398 E20.60393
M204 S3000
M205 X10 Y10
G0 F2700 X185.563 Y201.402
M204 S1800
M205 X8 Y8
G1 F900 X186.003 Y201.842 E20.6613
M204 S3000
M205 X10 Y10
G0 F2700 X204.123 Y213.474
G0 X206.319 Y212.655
M204 S1800
M205 X8 Y8
G1 F900 X205.879 Y212.215 E20.71867
M204 S3000
M205 X10 Y10
G0 F2700 X206.459 Y211.211
M204 S1800
M205 X8 Y8
G1 F900 X206.899 Y211.651 E20.77604
M204 S3000
M205 X10 Y10
G0 F2700 X207.479 Y210.647
M204 S1800
M205 X8 Y8
G1 F900 X207.039 Y210.207 E20.83341
M204 S3000
M205 X10 Y10
G0 F2700 X207.619 Y209.203
M204 S1800
M205 X8 Y8
G1 F900 X208.058 Y209.642 E20.89065
M204 S3000
M205 X10 Y10
G0 F2700 X208.638 Y208.638
M204 S1800
M205 X8 Y8
G1 F900 X208.199 Y208.199 E20.94789
M204 S3000
M205 X10 Y10
G0 F2700 X208.778 Y207.194
M204 S1800
M205 X8 Y8
G1 F900 X209.218 Y207.634 E21.00526
M204 S3000
M205 X10 Y10
G0 F2700 X209.797 Y206.63
M204 S1800
M205 X8 Y8
G1 F900 X209.358 Y206.19 E21.06256
M204 S3000
M205 X10 Y10
G0 F2700 X209.937 Y205.186
M204 S1800
M205 X8 Y8
G1 F900 X210.377 Y205.625 E21.11987
M204 S3000
M205 X10 Y10
G0 F2700 X210.957 Y204.621
M204 S1800
M205 X8 Y8
G1 F900 X210.517 Y204.182 E21.17717
M204 S3000
M205 X10 Y10
G0 F2700 X211.097 Y203.177
M204 S1800
M205 X8 Y8
G1 F900 X211.536 Y203.617 E21.23448
M204 S3000
M205 X10 Y10
G0 F2700 X212.116 Y202.612
M204 S1800
M205 X8 Y8
G1 F900 X211.676 Y202.173 E21.29178
M204 S3000
M205 X10 Y10
G0 F2700 X212.256 Y201.169
M204 S1800
M205 X8 Y8
G1 F900 X212.696 Y201.608 E21.34909
M204 S3000
M205 X10 Y10
G0 F2700 X213.276 Y200.604
M204 S1800
M205 X8 Y8
G1 F900 X212.836 Y200.164 E21.40646
M204 S3000
M205 X10 Y10
G0 F2700 X213.416 Y199.16
M204 S1800
M205 X8 Y8
G1 F900 X213.855 Y199.6 E21.46376
M204 S3000
M205 X10 Y10
G0 F2700 X214.435 Y198.596
M204 S1800
M205 X8 Y8
G1 F900 X213.995 Y198.156 E21.52113
M204 S3000
M205 X10 Y10
G0 F2700 X214.161 Y198.268
;MESH:NONMESH
G0 F600 X214.161 Y198.268 Z0.7
G0 F2700 X204.123 Y213.474
G0 X186.27 Y203.166
G0 X186.599 Y202.812
;TIME_ELAPSED:28.654428
;LAYER:1
M140 S60
M106 S255
M204 S1800
M205 X8 Y8
;TYPE:WALL-INNER
;MESH:Part_27_Chamber_Stacking_Clip_Small_27.07.2020.stl
G1 F1650 X203.92 Y212.812 E24.81396
G1 X204.266 Y213.012 E24.87975
G1 X204.465 Y212.666 E24.9222
G1 X214.265 Y195.692 E28.14909
G1 X216.172 Y196.792 E28.51154
G1 X216.518 Y196.991 E28.57725
G1 X216.318 Y197.337 E28.61976
G1 X205.654 Y215.808 E32.13121
G1 X183.828 Y203.208 E36.28039
G1 X183.482 Y203.009 E36.3461
G1 X183.682 Y202.663 E36.3886
G1 X194.346 Y184.192 E39.90005
G1 X196.253 Y185.292 E40.26251
G1 X196.599 Y185.491 E40.32822
G1 X196.399 Y185.837 E40.37072
G1 X186.599 Y202.812 E43.59775
M204 S3000
M205 X10 Y10
G0 F4950 X186.503 Y202.837
G0 X183.578 Y202.984
G0 X182.589 Y202.956
M204 S1800
M205 X8 Y8
;TYPE:WALL-OUTER
G1 F1650 X194.053 Y183.099 E47.37267
G1 X197.346 Y184.999 E47.9986
G1 X197.692 Y185.198 E48.06431
G1 X197.492 Y185.544 E48.10682
G1 X187.692 Y202.519 E51.33384
G1 X203.627 Y211.719 E54.36319
G1 X203.973 Y211.919 E54.42899
G1 X204.172 Y211.573 E54.47144
G1 X213.972 Y194.599 E57.69833
G1 X217.265 Y196.499 E58.32425
G1 X217.611 Y196.698 E58.38996
G1 X217.411 Y197.044 E58.43247
G1 X205.947 Y216.901 E62.20739
G1 X182.735 Y203.501 E66.62004
G1 X182.389 Y203.302 E66.68575
G1 X182.589 Y202.956 E66.72826
M204 S3000
M205 X10 Y10
G0 F4950 X182.789 Y202.61
G0 X183.578 Y202.984
G0 X184.561 Y202.72
M204 S1800
M205 X8 Y8
;TYPE:SKIN
G1 F930 X194.635 Y185.271 E70.04542
G1 X195.52 Y185.781 E70.21359
G1 X185.52 Y203.101 E73.50627
G1 X204.555 Y214.091 E77.12497
G1 X214.554 Y196.771 E80.41757
G1 X215.439 Y197.281 E80.58574
G1 X205.365 Y214.729 E83.90276
G1 X184.561 Y202.72 E87.85757
M204 S3000
M205 X10 Y10
G0 F4950 X194.573 Y186.698
M204 S1800
M205 X8 Y8
G1 F930 X193.747 Y187.524 E88.04989
M204 S3000
M205 X10 Y10
G0 F4950 X193.027 Y189.375
M204 S1800
M205 X8 Y8
G1 F930 X192.202 Y190.2 E88.24198
M204 S3000
M205 X10 Y10
G0 F4950 X191.482 Y192.052
M204 S1800
M205 X8 Y8
G1 F930 X190.657 Y192.876 E88.43395
M204 S3000
M205 X10 Y10
G0 F4950 X189.937 Y194.728
M204 S1800
M205 X8 Y8
G1 F930 X189.112 Y195.553 E88.62603
M204 S3000
M205 X10 Y10
G0 F4950 X188.392 Y197.405
M204 S1800
M205 X8 Y8
G1 F930 X187.568 Y198.228 E88.81777
M204 S3000
M205 X10 Y10
G0 F4950 X186.846 Y200.082
M204 S1800
M205 X8 Y8
G1 F930 X186.023 Y200.905 E89.00939
M204 S3000
M205 X10 Y10
G0 F4950 X186.561 Y202.822
G0 X204.276 Y213.05
G0 X205.588 Y213.018
M204 S1800
M205 X8 Y8
G1 F930 X206.413 Y212.193 E89.20148
M204 S3000
M205 X10 Y10
G0 F4950 X207.133 Y210.342
M204 S1800
M205 X8 Y8
G1 F930 X207.958 Y209.517 E89.39357
M204 S3000
M205 X10 Y10
G0 F4950 X208.678 Y207.665
M204 S1800
M205 X8 Y8
G1 F930 X209.503 Y206.84 E89.58565
M204 S3000
M205 X10 Y10
G0 F4950 X210.223 Y204.989
M204 S1800
M205 X8 Y8
G1 F930 X211.048 Y204.164 E89.77774
M204 S3000
M205 X10 Y10
G0 F4950 X211.767 Y202.313
M204 S1800
M205 X8 Y8
G1 F930 X212.593 Y201.487 E89.97006
M204 S3000
M205 X10 Y10
G0 F4950 X213.312 Y199.637
M204 S1800
M205 X8 Y8
G1 F930 X214.138 Y198.811 E90.16238
M204 S3000
M205 X10 Y10
;MESH:NONMESH
G0 F600 X214.138 Y198.811 Z1.2
G0 F4950 X204.276 Y213.05
G0 X186.561 Y202.822
G0 X194.371 Y184.288
G0 X194.772 Y183.454
;TIME_ELAPSED:50.216328
;LAYER:2
M204 S1800
M205 X8 Y8
;TYPE:WALL-INNER
;MESH:Part_27_Chamber_Stacking_Clip_Small_27.07.2020.stl
G1 F2400 X196.679 Y184.554 E90.52483
G1 X197.025 Y184.753 E90.59055
G1 X196.825 Y185.099 E90.63305
G1 X187.225 Y201.727 E93.79414
G1 X187.025 Y202.073 E93.85993
G1 X187.371 Y202.273 E93.90244
G1 X204.346 Y212.073 E97.12947
G1 X204.692 Y212.273 E97.19526
G1 X204.892 Y211.927 E97.23777
G1 X214.691 Y194.954 E100.46443
G1 X216.598 Y196.054 E100.82688
G1 X216.944 Y196.253 E100.89259
G1 X216.744 Y196.599 E100.9351
G1 X205.228 Y216.546 E104.72713
G1 X183.402 Y203.946 E108.87631
G1 X183.056 Y203.747 E108.94202
G1 X183.256 Y203.401 E108.98453
G1 X194.772 Y183.454 E112.77656
M204 S3000
M205 X10 Y10
G0 F7200 X194.797 Y183.55
G0 X183.152 Y203.722
G0 X182.163 Y203.694
M204 S1800
M205 X8 Y8
;TYPE:WALL-OUTER
G1 F2400 X194.479 Y182.361 E116.83207
G1 X197.772 Y184.261 E117.45799
G1 X198.118 Y184.46 E117.5237
G1 X197.918 Y184.806 E117.56621
G1 X188.318 Y201.434 E120.7273
G1 X188.118 Y201.78 E120.79309
G1 X188.464 Y201.98 E120.8356
G1 X204.053 Y210.98 E123.79915
G1 X204.399 Y211.18 E123.86495
G1 X204.599 Y210.834 E123.90745
G1 X214.398 Y193.861 E127.13411
G1 X217.691 Y195.761 E127.76004
G1 X218.037 Y195.96 E127.82575
G1 X217.837 Y196.306 E127.86825
G1 X205.521 Y217.639 E131.92376
G1 X182.309 Y204.239 E136.33641
G1 X181.963 Y204.04 E136.40212
G1 X182.163 Y203.694 E136.44463
M204 S3000
M205 X10 Y10
G0 F7200 X182.363 Y203.348
G0 X183.152 Y203.722
G0 X184.135 Y203.458
M204 S1800
M205 X8 Y8
;TYPE:SKIN
G1 F960 X195.061 Y184.533 E140.04238
G1 X195.946 Y185.043 E140.21054
G1 X185.946 Y202.362 E143.50308
G1 X204.981 Y213.352 E147.12178
G1 X214.98 Y196.033 E150.41424
G1 X215.865 Y196.543 E150.58241
G1 X204.939 Y215.467 E154.18001
G1 X184.135 Y203.458 E158.13482
M204 S3000
M205 X10 Y10
G0 F7200 X184.844 Y202.946
M204 S1800
M205 X8 Y8
G1 F960 X186.04 Y204.142 E158.41329
G1 X186.181 Y204.283
M204 S3000
M205 X10 Y10
G0 F7200 X185.612 Y202.583
M204 S1800
M205 X8 Y8
G1 F960 X188.716 Y205.687 E159.136
G1 X188.857 Y205.828
M204 S3000
M205 X10 Y10
G0 F7200 X188.289 Y204.128
M204 S1800
M205 X8 Y8
G1 F960 X191.392 Y207.231 E159.85848
G1 X191.533 Y207.372
M204 S3000
M205 X10 Y10
G0 F7200 X190.966 Y205.674
M204 S1800
M205 X8 Y8
G1 F960 X194.068 Y208.776 E160.58073
G1 X194.209 Y208.917
M204 S3000
M205 X10 Y10
G0 F7200 X193.644 Y207.22
M204 S1800
M205 X8 Y8
G1 F960 X196.743 Y210.32 E161.3024
G1 X196.884 Y210.461
M204 S3000
M205 X10 Y10
G0 F7200 X196.321 Y208.766
M204 S1800
M205 X8 Y8
G1 F960 X199.419 Y211.864 E162.02371
G1 X199.56 Y212.005
M204 S3000
M205 X10 Y10
G0 F7200 X198.998 Y210.311
M204 S1800
M205 X8 Y8
G1 F960 X202.095 Y213.409 E162.74491
G1 X202.236 Y213.55
M204 S3000
M205 X10 Y10
G0 F7200 X201.675 Y211.857
M204 S1800
M205 X8 Y8
G1 F960 X204.771 Y214.953 E163.46576
M204 S3000
M205 X10 Y10
G0 F7200 X205.217 Y214.268
M204 S1800
M205 X8 Y8
G1 F960 X204.352 Y213.403 E163.66716
M204 S3000
M205 X10 Y10
G0 F7200 X205.408 Y213.327
M204 S1800
M205 X8 Y8
G1 F960 X205.631 Y213.551 E163.7192
M204 S3000
M205 X10 Y10
G0 F7200 X206.045 Y212.833
M204 S1800
M205 X8 Y8
G1 F960 X205.822 Y212.61 E163.77112
M204 S3000
M205 X10 Y10
G0 F7200 X206.459 Y212.116
M204 S1800
M205 X8 Y8
G1 F960 X206.236 Y211.893 E163.82305
M204 S3000
M205 X10 Y10
G0 F7200 X206.873 Y211.398
M204 S1800
M205 X8 Y8
G1 F960 X206.65 Y211.176 E163.87485
M204 S3000
M205 X10 Y10
G0 F7200 X207.287 Y210.681
M204 S1800
M205 X8 Y8
G1 F960 X207.064 Y210.458 E163.92677
M204 S3000
M205 X10 Y10
G0 F7200 X207.701 Y209.964
M204 S1800
M205 X8 Y8
G1 F960 X207.478 Y209.741 E163.97869
M204 S3000
M205 X10 Y10
G0 F7200 X208.115 Y209.247
M204 S1800
M205 X8 Y8
G1 F960 X207.892 Y209.024 E164.03062
M204 S3000
M205 X10 Y10
G0 F7200 X208.529 Y208.529
M204 S1800
M205 X8 Y8
G1 F960 X208.306 Y208.306 E164.08254
M204 S3000
M205 X10 Y10
G0 F7200 X208.943 Y207.812
M204 S1800
M205 X8 Y8
G1 F960 X208.72 Y207.589 E164.13446
M204 S3000
M205 X10 Y10
G0 F7200 X209.358 Y207.095
M204 S1800
M205 X8 Y8
G1 F960 X209.135 Y206.872 E164.18638
M204 S3000
M205 X10 Y10
G0 F7200 X209.771 Y206.377
M204 S1800
M205 X8 Y8
G1 F960 X209.548 Y206.154 E164.2383
M204 S3000
M205 X10 Y10
G0 F7200 X210.186 Y205.66
M204 S1800
M205 X8 Y8
G1 F960 X209.963 Y205.437 E164.29022
M204 S3000
M205 X10 Y10
G0 F7200 X210.599 Y204.942
M204 S1800
M205 X8 Y8
G1 F960 X210.376 Y204.72 E164.34203
M204 S3000
M205 X10 Y10
G0 F7200 X211.014 Y204.225
M204 S1800
M205 X8 Y8
G1 F960 X210.791 Y204.003 E164.39384
M204 S3000
M205 X10 Y10
G0 F7200 X211.427 Y203.508
M204 S1800
M205 X8 Y8
G1 F960 X211.205 Y203.286 E164.44552
M204 S3000
M205 X10 Y10
G0 F7200 X211.842 Y202.791
M204 S1800
M205 X8 Y8
G1 F960 X211.619 Y202.568 E164.49745
M204 S3000
M205 X10 Y10
G0 F7200 X212.255 Y202.073
M204 S1800
M205 X8 Y8
G1 F960 X212.033 Y201.851 E164.54913
M204 S3000
M205 X10 Y10
G0 F7200 X212.67 Y201.356
M204 S1800
M205 X8 Y8
G1 F960 X212.447 Y201.133 E164.60106
M204 S3000
M205 X10 Y10
G0 F7200 X213.084 Y200.639
M204 S1800
M205 X8 Y8
G1 F960 X212.861 Y200.416 E164.65298
M204 S3000
M205 X10 Y10
G0 F7200 X213.498 Y199.921
M204 S1800
M205 X8 Y8
G1 F960 X213.276 Y199.699 E164.70467
M204 S3000
M205 X10 Y10
G0 F7200 X213.912 Y199.204
M204 S1800
M205 X8 Y8
G1 F960 X213.689 Y198.981 E164.75659
M204 S3000
M205 X10 Y10
G0 F7200 X214.326 Y198.486
M204 S1800
M205 X8 Y8
G1 F960 X214.104 Y198.264 E164.80828
M204 S3000
M205 X10 Y10
G0 F7200 X214.74 Y197.769
M204 S1800
M205 X8 Y8
G1 F960 X214.518 Y197.547 E164.85997
M204 S3000
M205 X10 Y10
G0 F7200 X215.154 Y197.052
M204 S1800
M205 X8 Y8
G1 F960 X214.932 Y196.83 E164.91166
M204 S3000
M205 X10 Y10
G0 F7200 X204.702 Y212.311
G0 X186.987 Y202.083
G0 X195.418 Y185.236
M204 S1800
M205 X8 Y8
G1 F960 X195.227 Y185.045 E164.95613
M204 S3000
M205 X10 Y10
G0 F7200 X194.782 Y185.731
M204 S1800
M205 X8 Y8
G1 F960 X195.004 Y185.953 E165.00782
M204 S3000
M205 X10 Y10
G0 F7200 X194.368 Y186.448
M204 S1800
M205 X8 Y8
G1 F960 X194.59 Y186.67 E165.0595
M204 S3000
M205 X10 Y10
G0 F7200 X193.954 Y187.166
M204 S1800
M205 X8 Y8
G1 F960 X194.176 Y187.388 E165.11119
M204 S3000
M205 X10 Y10
G0 F7200 X193.54 Y187.883
M204 S1800
M205 X8 Y8
G1 F960 X193.762 Y188.105 E165.16288
M204 S3000
M205 X10 Y10
G0 F7200 X193.126 Y188.6
M204 S1800
M205 X8 Y8
G1 F960 X193.347 Y188.822 E165.21445
M204 S3000
M205 X10 Y10
G0 F7200 X192.712 Y189.317
M204 S1800
M205 X8 Y8
G1 F960 X192.934 Y189.539 E165.26614
M204 S3000
M205 X10 Y10
G0 F7200 X192.298 Y190.035
M204 S1800
M205 X8 Y8
G1 F960 X192.519 Y190.256 E165.3176
M204 S3000
M205 X10 Y10
G0 F7200 X191.884 Y190.752
M204 S1800
M205 X8 Y8
G1 F960 X192.105 Y190.973 E165.36906
M204 S3000
M205 X10 Y10
G0 F7200 X191.469 Y191.469
M204 S1800
M205 X8 Y8
G1 F960 X191.691 Y191.691 E165.42074
M204 S3000
M205 X10 Y10
G0 F7200 X191.056 Y192.187
M204 S1800
M205 X8 Y8
