;FLAVOR:Marlin
;TIME:14135
;Filament used: 51.6892m
;Layer height: 0.5
;MINX:96.986
;MINY:48.417
;MINZ:0.2
;MAXX:302.997
;MAXY:353.11
;MAXZ:35.2
;Generated with Cura_SteamEngine 4.11.0
M140 S70
M105
M190 S70
M104 S210
M105
M109 S210
M82 ;absolute extrusion mode
M107 ;Start with the fan off
G21 ;Set units to millimeters
G91 ;Change to relative positioning mode for retract filament and nozzle lifting
G1 F200 E-3 ;Retract 3mm filament for a clean start
G92 E0 ;Zero the extruded length
G1 F1000 Z5 ;Lift the nozzle 5mm before homing axes
G90 ;Absolute positioning
M82 ;Set extruder to absolute mode too
G28 X0 Y0 ;First move X/Y to min endstops
G28 Z0 ;Then move Z to min endstops
G1 F1000 Z15 ;After homing lift the nozzle 15mm before start printing

G92 E0
G92 E0
G1 F1200 E-3
;LAYER_COUNT:71
;LAYER:0
M107
M204 S3000
M205 X10 Y10
G1 F600 Z0.275
G0 F2700 X122.203 Y51.942 Z0.275
M204 S1800
M205 X8 Y8
;TYPE:SKIRT
G1 F600 Z0.2
G1 F2700 E0
G1 F2400 X122.485 Y51.338 E0.06146
G1 X122.837 Y50.772 E0.12291
G1 X123.254 Y50.252 E0.18436
G1 X123.731 Y49.786 E0.24584
G1 X124.26 Y49.38 E0.30733
G1 X124.834 Y49.04 E0.36883
G1 X125.444 Y48.772 E0.43026
G1 X126.082 Y48.578 E0.49174
G1 X126.738 Y48.462 E0.55316
G1 X127.536 Y48.419 E0.62684
G1 X127.693 Y48.417 E0.64132
G1 X271.93 Y48.417 E13.93955
G1 X272.708 Y48.428 E14.01129
G1 X273.372 Y48.477 E14.07267
G1 X274.027 Y48.606 E14.13422
G1 X274.661 Y48.812 E14.19568
G1 X275.265 Y49.092 E14.25706
G1 X275.832 Y49.443 E14.31855
G1 X276.353 Y49.859 E14.38001
G1 X276.82 Y50.335 E14.44149
G1 X277.227 Y50.863 E14.50296
G1 X277.568 Y51.436 E14.56443
G1 X277.838 Y52.045 E14.62585
G1 X278.033 Y52.683 E14.68736
G1 X278.15 Y53.339 E14.7488
G1 X278.195 Y54.151 E14.82378
G1 X278.197 Y54.307 E14.83816
G1 X278.197 Y68.825 E16.17668
G1 X278.235 Y71.486 E16.42204
G1 X278.287 Y72.885 E16.55111
G1 X278.31 Y74.239 E16.67596
G1 X278.31 Y100.137 E19.06368
G1 X278.348 Y102.792 E19.30849
G1 X278.462 Y105.48 E19.55654
G1 X278.651 Y108.15 E19.80332
G1 X278.828 Y110.009 E19.97549
G1 X302.794 Y338.038 E41.1149
G1 X302.854 Y338.704 E41.17655
G1 X302.873 Y339.023 E41.20601
G1 X302.901 Y339.905 E41.28737
G1 X302.988 Y344.686 E41.72824
G1 X302.988 Y344.896 E41.7476
G1 X302.997 Y345.582 E41.81086
G1 X302.965 Y346.248 E41.87233
G1 X302.855 Y346.905 E41.93375
G1 X302.666 Y347.545 E41.99527
G1 X302.402 Y348.157 E42.05672
G1 X302.067 Y348.733 E42.11816
G1 X301.665 Y349.265 E42.17963
G1 X301.203 Y349.745 E42.24106
G1 X300.686 Y350.167 E42.30259
G1 X300.123 Y350.523 E42.364
G1 X299.521 Y350.81 E42.42549
G1 X298.889 Y351.022 E42.48695
G1 X298.188 Y351.164 E42.55289
G1 X297.512 Y351.246 E42.61567
G1 X280.646 Y353.02 E44.17924
G1 X279.89 Y353.089 E44.24924
G1 X279.224 Y353.11 E44.31067
G1 X278.56 Y353.05 E44.37214
G1 X277.908 Y352.912 E44.43358
G1 X277.277 Y352.697 E44.49504
G1 X276.676 Y352.408 E44.55653
G1 X276.115 Y352.049 E44.61793
G1 X275.6 Y351.625 E44.67944
G1 X275.03 Y351.009 E44.75681
G1 X274.591 Y350.455 E44.82198
G1 X273.71 Y349.311 E44.95511
G1 X272.043 Y347.27 E45.19807
G1 X270.29 Y345.246 E45.44494
G1 X268.466 Y343.253 E45.69402
G1 X266.625 Y341.353 E45.93794
G1 X264.704 Y339.48 E46.18531
G1 X262.75 Y337.679 E46.43031
G1 X260.728 Y335.919 E46.67746
G1 X258.675 Y334.234 E46.92233
G1 X256.567 Y332.599 E47.16829
G1 X254.383 Y331.002 E47.41774
G1 X252.21 Y329.505 E47.66102
G1 X249.939 Y328.034 E47.91049
G1 X247.662 Y326.65 E48.15616
G1 X245.368 Y325.342 E48.39962
G1 X242.991 Y324.074 E48.64801
G1 X240.63 Y322.899 E48.89115
G1 X238.16 Y321.757 E49.14204
G1 X235.734 Y320.717 E49.3854
G1 X233.249 Y319.734 E49.63178
G1 X230.707 Y318.81 E49.88115
G1 X228.216 Y317.984 E50.12311
G1 X225.637 Y317.209 E50.37139
G1 X223.057 Y316.513 E50.61776
G1 X220.426 Y315.88 E50.86725
G1 X217.849 Y315.341 E51.10999
G1 X215.223 Y314.867 E51.35601
G1 X212.604 Y314.47 E51.60023
G1 X209.925 Y314.14 E51.84909
G1 X207.253 Y313.889 E52.09653
G1 X204.595 Y313.714 E52.34212
G1 X201.948 Y313.615 E52.58634
G1 X199.256 Y313.591 E52.83454
G1 X196.599 Y313.642 E53.07955
G1 X193.915 Y313.77 E53.32729
G1 X191.266 Y313.971 E53.57222
G1 X188.584 Y314.251 E53.82084
G1 X185.967 Y314.599 E54.06424
G1 X183.316 Y315.029 E54.31185
G1 X180.707 Y315.528 E54.55675
G1 X178.106 Y316.103 E54.80235
G1 X175.509 Y316.752 E55.04915
G1 X172.93 Y317.477 E55.29614
G1 X170.367 Y318.275 E55.54363
G1 X167.849 Y319.139 E55.78907
G1 X165.355 Y320.073 E56.0346
G1 X162.859 Y321.09 E56.2831
G1 X160.446 Y322.155 E56.52627
G1 X158.001 Y323.315 E56.77578
G1 X155.632 Y324.525 E57.02104
G1 X153.309 Y325.793 E57.26504
G1 X150.977 Y327.156 E57.51407
G1 X148.711 Y328.565 E57.76009
G1 X146.495 Y330.032 E58.00511
G1 X144.292 Y331.582 E58.25345
G1 X142.175 Y333.164 E58.49711
G1 X140.1 Y334.807 E58.74113
G1 X138.019 Y336.553 E58.99158
G1 X136.019 Y338.331 E59.2383
G1 X134.087 Y340.146 E59.4827
G1 X132.2 Y342.024 E59.72816
G1 X130.334 Y343.987 E59.97786
G1 X128.585 Y345.938 E60.21943
G1 X126.846 Y347.99 E60.46742
G1 X125.286 Y349.95 E60.69838
G1 X124.956 Y350.359 E60.74683
G1 X124.507 Y350.852 E60.80831
G1 X124.002 Y351.288 E60.86982
G1 X123.449 Y351.66 E60.93127
G1 X122.856 Y351.963 E60.99267
G1 X122.23 Y352.193 E61.05415
G1 X121.581 Y352.346 E61.11563
G1 X120.851 Y352.424 E61.18332
G1 X120.623 Y352.431 E61.20435
G1 X120.06 Y352.438 E61.25626
G1 X103.159 Y352.437 E62.81448
G1 X102.466 Y352.427 E62.87838
G1 X101.801 Y352.378 E62.93986
G1 X101.147 Y352.249 E63.00132
G1 X100.513 Y352.043 E63.06278
G1 X99.908 Y351.762 E63.12428
G1 X99.341 Y351.412 E63.18571
G1 X98.821 Y350.995 E63.24717
G1 X98.353 Y350.52 E63.30865
G1 X97.947 Y349.992 E63.37005
G1 X97.606 Y349.419 E63.43153
G1 X97.336 Y348.809 E63.49303
G1 X97.141 Y348.172 E63.55445
G1 X97.024 Y347.516 E63.61589
G1 X96.986 Y346.855 E63.67693
G1 X96.989 Y345.888 E63.76609
G1 X97.104 Y339.705 E64.33624
G1 X97.126 Y339.042 E64.3974
G1 X97.145 Y338.726 E64.42659
G1 X97.223 Y337.869 E64.50593
G1 X121.272 Y109.058 E85.71784
G1 X121.514 Y106.397 E85.96419
G1 X121.679 Y103.746 E86.20907
G1 X121.771 Y101.053 E86.45751
G1 X121.79 Y99.13 E86.63481
G1 X121.79 Y74.031 E88.94886
G1 X121.803 Y72.405 E89.09878
G1 X121.804 Y54.559 E90.74413
G1 X121.815 Y53.894 E90.80545
G1 X121.866 Y53.229 E90.86694
G1 X121.996 Y52.576 E90.92833
G1 X122.203 Y51.942 E90.98982
M204 S3000
M205 X10 Y10
G1 F1200 E87.98982
;MESH:Trial4 folding float arms 80deg 25.08.2021.stl
G0 F2700 X126.698 Y55.671
G0 X129.057 Y55.671
G0 X196.954 Y67.666
G1 F2700 E90.98982
G0 X197.017 Y67.589
M204 S1800
M205 X8 Y8
;TYPE:WALL-INNER
G1 F900 X197.494 Y67.934 E91.04409
G1 X198.01 Y68.217 E91.09835
G1 X198.559 Y68.433 E91.15274
G1 X199.125 Y68.577 E91.20659
G1 X199.704 Y68.651 E91.26041
G1 X200.293 Y68.652 E91.31471
G1 X200.877 Y68.577 E91.369
G1 X201.445 Y68.433 E91.42302
G1 X201.994 Y68.217 E91.47741
G1 X202.51 Y67.932 E91.53176
G1 X202.984 Y67.588 E91.58576
G1 X203.414 Y67.184 E91.64016
G1 X203.789 Y66.73 E91.69445
G1 X204.104 Y66.234 E91.74862
G1 X204.354 Y65.703 E91.80273
G1 X204.537 Y65.143 E91.85705
G1 X204.646 Y64.564 E91.91137
G1 X204.683 Y63.98 E91.96532
G1 X204.648 Y63.395 E92.01935
G1 X204.536 Y62.812 E92.07408
G1 X204.354 Y62.254 E92.1282
G1 X204.104 Y61.722 E92.18239
G1 X203.789 Y61.226 E92.23656
G1 X203.414 Y60.772 E92.29085
G1 X202.984 Y60.368 E92.34525
G1 X202.51 Y60.024 E92.39925
G1 X201.994 Y59.739 E92.4536
G1 X201.446 Y59.523 E92.5079
G1 X200.877 Y59.378 E92.56204
G1 X200.293 Y59.304 E92.61631
G1 X199.705 Y59.304 E92.67053
G1 X199.121 Y59.378 E92.7248
G1 X198.554 Y59.523 E92.77876
G1 X198.005 Y59.739 E92.83315
G1 X197.488 Y60.027 E92.88771
G1 X197.016 Y60.368 E92.9414
G1 X196.585 Y60.773 E92.99593
G1 X196.21 Y61.227 E93.05022
G1 X195.893 Y61.726 E93.10472
G1 X195.646 Y62.257 E93.15872
G1 X195.463 Y62.815 E93.21286
G1 X195.354 Y63.395 E93.26727
G1 X195.317 Y63.98 E93.32131
G1 X195.354 Y64.566 E93.37545
G1 X195.464 Y65.149 E93.43015
G1 X195.649 Y65.706 E93.48426
G1 X195.896 Y66.234 E93.538
G1 X196.212 Y66.731 E93.5923
G1 X196.587 Y67.185 E93.64659
G1 X197.017 Y67.589 E93.70099
M204 S3000
M205 X10 Y10
G0 F2700 X196.954 Y67.666
G0 X145.642 Y72.269
G0 X125.702 Y209.205
G0 X125.708 Y209.304
M204 S1800
M205 X8 Y8
G1 F900 X125.122 Y209.376 E93.75542
G1 X124.553 Y209.524 E93.80963
G1 X124.005 Y209.739 E93.8639
G1 X123.488 Y210.027 E93.91846
G1 X123.016 Y210.368 E93.97215
G1 X122.584 Y210.774 E94.02681
G1 X122.21 Y211.228 E94.08104
G1 X121.895 Y211.723 E94.13513
G1 X121.646 Y212.255 E94.18929
G1 X121.463 Y212.815 E94.24361
G1 X121.354 Y213.393 E94.29784
G1 X121.317 Y213.979 E94.35197
G1 X121.354 Y214.564 E94.40601
G1 X121.463 Y215.145 E94.46051
G1 X121.648 Y215.706 E94.51498
G1 X121.898 Y216.236 E94.56901
G1 X122.212 Y216.731 E94.62305
G1 X122.587 Y217.186 E94.67741
G1 X123.017 Y217.588 E94.73168
G1 X123.494 Y217.934 E94.78601
G1 X124.01 Y218.216 E94.84023
G1 X124.552 Y218.431 E94.89399
G1 X125.124 Y218.579 E94.94846
G1 X125.706 Y218.651 E95.00253
G1 X126.291 Y218.652 E95.05646
G1 X126.878 Y218.578 E95.11101
G1 X127.448 Y218.431 E95.16528
G1 X127.993 Y218.216 E95.2193
G1 X128.51 Y217.932 E95.27368
G1 X128.984 Y217.587 E95.32773
G1 X129.414 Y217.185 E95.38201
G1 X129.789 Y216.73 E95.43637
G1 X130.104 Y216.234 E95.49054
G1 X130.354 Y215.703 E95.54465
G1 X130.537 Y215.143 E95.59897
G1 X130.646 Y214.564 E95.65329
G1 X130.683 Y213.98 E95.70724
G1 X130.648 Y213.394 E95.76136
G1 X130.536 Y212.812 E95.81601
G1 X130.355 Y212.255 E95.87
G1 X130.104 Y211.72 E95.92449
G1 X129.788 Y211.225 E95.97863
G1 X129.414 Y210.772 E96.03279
G1 X128.984 Y210.368 E96.08719
G1 X128.51 Y210.024 E96.14119
G1 X127.993 Y209.739 E96.19561
G1 X127.448 Y209.525 E96.2496
G1 X126.878 Y209.377 E96.30389
G1 X126.291 Y209.304 E96.35843
G1 X125.708 Y209.304 E96.41218
M204 S3000
M205 X10 Y10
G0 F2700 X125.702 Y209.205
G0 X145.642 Y72.269
G0 X254.458 Y72.269
G0 X265.912 Y215.202
G0 X271.994 Y218.252
G0 X274.293 Y218.691
G0 X276.531 Y217.965
G0 X277.837 Y216.669
G0 X278.354 Y215.703
M204 S1800
M205 X8 Y8
G1 F900 X278.537 Y215.143 E96.4665
G1 X278.646 Y214.564 E96.52082
G1 X278.683 Y213.98 E96.57477
G1 X278.648 Y213.394 E96.62889
G1 X278.536 Y212.812 E96.68353
G1 X278.355 Y212.255 E96.73753
G1 X278.104 Y211.72 E96.79202
G1 X277.788 Y211.225 E96.84616
G1 X277.414 Y210.772 E96.90032
G1 X276.984 Y210.368 E96.95472
G1 X276.51 Y210.024 E97.00871
G1 X275.993 Y209.739 E97.06314
G1 X275.448 Y209.525 E97.11713
G1 X274.878 Y209.377 E97.17142
G1 X274.291 Y209.304 E97.22596
G1 X273.708 Y209.304 E97.27971
G1 X273.122 Y209.376 E97.33414
G1 X272.553 Y209.524 E97.38835
G1 X272.005 Y209.739 E97.44262
G1 X271.488 Y210.027 E97.49718
G1 X271.016 Y210.368 E97.55087
G1 X270.584 Y210.774 E97.60553
G1 X270.21 Y211.228 E97.65976
G1 X269.895 Y211.723 E97.71385
G1 X269.646 Y212.255 E97.76801
G1 X269.463 Y212.815 E97.82233
G1 X269.354 Y213.393 E97.87656
G1 X269.317 Y213.979 E97.93069
G1 X269.354 Y214.564 E97.98473
G1 X269.463 Y215.145 E98.03923
G1 X269.648 Y215.706 E98.0937
G1 X269.898 Y216.236 E98.14772
G1 X270.212 Y216.731 E98.20177
G1 X270.587 Y217.186 E98.25613
G1 X271.017 Y217.588 E98.3104
G1 X271.494 Y217.934 E98.36473
G1 X272.01 Y218.216 E98.41895
G1 X272.552 Y218.431 E98.47271
G1 X273.124 Y218.579 E98.52718
G1 X273.706 Y218.651 E98.58125
G1 X274.291 Y218.652 E98.63518
G1 X274.878 Y218.578 E98.68973
G1 X275.448 Y218.431 E98.744
G1 X275.993 Y218.216 E98.79802
G1 X276.51 Y217.932 E98.8524
G1 X276.984 Y217.587 E98.90645
G1 X277.414 Y217.185 E98.96073
G1 X277.789 Y216.73 E99.01509
G1 X278.104 Y216.234 E99.06926
G1 X278.354 Y215.703 E99.12337
M204 S3000
M205 X10 Y10
G0 F2700 X278.446 Y215.739
G0 X295.663 Y344.087
G0 X295.737 Y344.153
M204 S1800
M205 X8 Y8
G1 F900 X281.634 Y345.637 E100.4308
G1 X281.028 Y345.7 E100.48698
G1 X281.017 Y345.091 E100.52246
G1 X280.12 Y295.923 E105.05636
G1 X280.109 Y295.318 E105.11214
G1 X279.506 Y295.377 E105.14748
G1 X274.353 Y295.887 E105.6249
G1 X256.04 Y121.651 E121.77744
G1 X255.997 Y121.652 E121.7814
G1 X254.43 Y106.745 E123.16336
G1 X254.43 Y72.297 E126.33936
G1 X145.67 Y72.297 E136.36672
G1 X145.67 Y105.792 E139.45486
G1 X143.995 Y121.723 E140.93175
G1 X143.953 Y121.724 E140.93562
G1 X125.647 Y295.886 E157.08131
G1 X120.503 Y295.379 E157.55787
G1 X119.904 Y295.321 E157.61335
G1 X119.891 Y295.922 E157.64846
G1 X119.89 Y295.923 E157.64859
G1 X119.853 Y297.381 E157.78306
G1 X118.981 Y345.198 E162.19238
G1 X104.814 Y345.198 E163.49854
G1 X104.813 Y345.198 E163.49863
G1 X104.244 Y345.198 E163.55109
G1 X104.254 Y344.629 E163.58486
G1 X104.353 Y339.293 E164.07691
G1 X129.03 Y104.514 E185.84209
G1 X129.03 Y75.048 E188.55877
G1 X129.043 Y75.048 E188.55997
G1 X129.043 Y55.657 E190.34776
G1 X270.957 Y55.657 E203.43182
G1 X270.957 Y75.032 E205.21814
G1 X271.07 Y75.033 E205.22856
G1 X271.07 Y105.464 E208.03421
G1 X295.649 Y339.326 E229.71436
G1 X295.737 Y344.153 E230.15947
M204 S3000
M205 X10 Y10
G0 F2700 X295.663 Y344.087
G0 X276.103 Y218.269
G0 X275.516 Y217.2
M204 S1800
M205 X8 Y8
;TYPE:WALL-OUTER
G1 F900 X275.908 Y216.985 E230.20069
G1 X276.269 Y216.722 E230.24187
G1 X276.596 Y216.416 E230.28316
G1 X276.881 Y216.071 E230.32442
G1 X277.121 Y215.693 E230.3657
G1 X277.311 Y215.289 E230.40686
G1 X277.45 Y214.864 E230.44809
G1 X277.533 Y214.424 E230.48937
G1 X277.561 Y213.979 E230.53048
G1 X277.534 Y213.534 E230.57158
G1 X277.449 Y213.092 E230.61308
G1 X277.311 Y212.667 E230.65428
G1 X277.121 Y212.261 E230.69561
G1 X276.881 Y211.885 E230.73673
G1 X276.596 Y211.54 E230.77799
G1 X276.269 Y211.233 E230.81934
G1 X275.908 Y210.971 E230.86047
G1 X275.516 Y210.755 E230.90173
G1 X275.101 Y210.592 E230.94284
G1 X274.667 Y210.479 E230.98419
G1 X274.222 Y210.424 E231.02553
G1 X273.777 Y210.424 E231.06656
G1 X273.332 Y210.479 E231.1079
G1 X272.899 Y210.591 E231.14913
G1 X272.484 Y210.754 E231.19024
G1 X272.091 Y210.973 E231.23172
G1 X271.73 Y211.234 E231.27279
G1 X271.403 Y211.541 E231.31414
G1 X271.118 Y211.887 E231.35547
G1 X270.879 Y212.263 E231.39655
G1 X270.689 Y212.668 E231.43779
G1 X270.55 Y213.094 E231.47911
G1 X270.467 Y213.533 E231.5203
G1 X270.439 Y213.979 E231.5615
G1 X270.467 Y214.425 E231.6027
G1 X270.55 Y214.865 E231.64398
G1 X270.69 Y215.29 E231.68524
G1 X270.881 Y215.695 E231.72652
G1 X271.12 Y216.072 E231.76767
G1 X271.405 Y216.417 E231.80893
G1 X271.732 Y216.723 E231.85022
G1 X272.094 Y216.986 E231.89148
G1 X272.486 Y217.2 E231.93265
G1 X272.9 Y217.364 E231.97371
G1 X273.334 Y217.476 E232.01503
G1 X273.777 Y217.531 E232.05619
G1 X274.222 Y217.532 E232.09722
G1 X274.667 Y217.476 E232.13857
G1 X275.101 Y217.364 E232.17989
G1 X275.516 Y217.2 E232.22103
M204 S3000
M205 X10 Y10
G0 F2700 X275.866 Y217.008
G0 X276.453 Y218.077
G0 X274.293 Y218.691
G0 X266.169 Y217.645
G0 X254.458 Y72.269
G0 X145.642 Y72.269
G0 X121.851 Y211.608
G0 X122.879 Y212.263
M204 S1800
M205 X8 Y8
G1 F900 X122.689 Y212.668 E232.26228
G1 X122.55 Y213.094 E232.30359
G1 X122.467 Y213.533 E232.34478
G1 X122.439 Y213.979 E232.38598
G1 X122.467 Y214.425 E232.42719
G1 X122.55 Y214.865 E232.46847
G1 X122.69 Y215.29 E232.50972
G1 X122.881 Y215.695 E232.55101
G1 X123.12 Y216.072 E232.59216
G1 X123.405 Y216.417 E232.63342
G1 X123.732 Y216.723 E232.67471
G1 X124.094 Y216.986 E232.71596
G1 X124.486 Y217.2 E232.75714
G1 X124.9 Y217.364 E232.79819
G1 X125.334 Y217.476 E232.83952
G1 X125.777 Y217.531 E232.88067
G1 X126.222 Y217.532 E232.9217
G1 X126.667 Y217.476 E232.96305
G1 X127.101 Y217.364 E233.00438
G1 X127.516 Y217.2 E233.04552
G1 X127.908 Y216.985 E233.08674
G1 X128.269 Y216.722 E233.12792
G1 X128.596 Y216.416 E233.16921
G1 X128.881 Y216.071 E233.21047
G1 X129.121 Y215.693 E233.25175
G1 X129.311 Y215.289 E233.29291
G1 X129.45 Y214.864 E233.33414
G1 X129.533 Y214.424 E233.37542
G1 X129.561 Y213.979 E233.41653
G1 X129.534 Y213.534 E233.45763
G1 X129.449 Y213.092 E233.49913
G1 X129.311 Y212.667 E233.54033
G1 X129.121 Y212.261 E233.58165
G1 X128.881 Y211.885 E233.62278
G1 X128.596 Y211.54 E233.66404
G1 X128.269 Y211.233 E233.70539
G1 X127.908 Y210.971 E233.74652
G1 X127.516 Y210.755 E233.78778
G1 X127.101 Y210.592 E233.82889
G1 X126.667 Y210.479 E233.87023
G1 X126.222 Y210.424 E233.91157
G1 X125.777 Y210.424 E233.9526
G1 X125.332 Y210.479 E233.99394
