;FLAVOR:Marlin
;TIME:739
;Filament used: 3.40657m
;Layer height: 0.5
;MINX:174.32
;MINY:162.07
;MINZ:0.2
;MAXX:225.68
;MAXY:237.93
;MAXZ:20.2
;Generated with Cura_SteamEngine 4.11.0
M140 S70
M105
M190 S70
M104 S210
M105
M109 S210
M82 ;absolute extrusion mode
M107 ;Start with the fan off
G21 ;Set units to millimeters
G91 ;Change to relative positioning mode for retract filament and nozzle lifting
G1 F200 E-3 ;Retract 3mm filament for a clean start
G92 E0 ;Zero the extruded length
G1 F1000 Z5 ;Lift the nozzle 5mm before homing axes
G90 ;Absolute positioning
M82 ;Set extruder to absolute mode too
G28 X0 Y0 ;First move X/Y to min endstops
G28 Z0 ;Then move Z to min endstops
G1 F1000 Z15 ;After homing lift the nozzle 15mm before start printing

G92 E0
G92 E0
G1 F1200 E-3
;LAYER_COUNT:41
;LAYER:0
M107
M204 S3000
M205 X10 Y10
G1 F600 Z0.275
G0 F2700 X176.259 Y164.063 Z0.275
M204 S1800
M205 X8 Y8
;TYPE:SKIRT
G1 F600 Z0.2
G1 F2700 E0
G1 F2400 X176.8 Y163.572 E0.06736
G1 X177.392 Y163.143 E0.13476
G1 X178.027 Y162.782 E0.20211
G1 X178.698 Y162.492 E0.2695
G1 X179.396 Y162.277 E0.33684
G1 X180.114 Y162.139 E0.40425
G1 X180.822 Y162.082 E0.46974
G1 X181.33 Y162.07 E0.51659
G1 X185.293 Y162.07 E0.88196
G1 X186.087 Y162.081 E0.95517
G1 X186.816 Y162.131 E1.02254
G1 X187.535 Y162.261 E1.08991
G1 X188.236 Y162.468 E1.1573
G1 X188.909 Y162.751 E1.22461
G1 X189.548 Y163.106 E1.292
G1 X190.145 Y163.528 E1.35941
G1 X190.691 Y164.013 E1.42674
G1 X191.181 Y164.555 E1.4941
G1 X191.61 Y165.147 E1.56151
G1 X191.971 Y165.783 E1.62893
G1 X192.26 Y166.454 E1.69629
G1 X192.539 Y167.436 E1.79041
G1 X192.798 Y168.722 E1.91136
G1 X192.849 Y168.996 E1.93706
G1 X193.405 Y171.564 E2.1793
G1 X194.034 Y174.121 E2.42208
G1 X194.744 Y176.69 E2.66781
G1 X195.515 Y179.199 E2.90981
G1 X196.359 Y181.692 E3.15247
G1 X197.281 Y184.185 E3.39754
G1 X198.27 Y186.64 E3.64156
G1 X199.32 Y189.048 E3.88375
G1 X200.437 Y191.424 E4.12582
G1 X201.629 Y193.782 E4.36941
G1 X202.892 Y196.117 E4.61417
G1 X204.212 Y198.401 E4.85739
G1 X205.6 Y200.652 E5.1012
G1 X207.037 Y202.843 E5.34278
G1 X208.544 Y205.001 E5.58545
G1 X210.139 Y207.155 E5.83256
G1 X211.74 Y209.193 E6.07151
G1 X213.438 Y211.234 E6.31629
G1 X215.205 Y213.238 E6.56262
G1 X216.983 Y215.147 E6.80313
G1 X218.841 Y217.03 E7.04703
G1 X220.754 Y218.861 E7.29117
G1 X222.721 Y220.64 E7.53569
G1 X223.405 Y221.242 E7.6197
G1 X223.926 Y221.754 E7.68705
G1 X224.388 Y222.321 E7.75448
G1 X224.786 Y222.934 E7.82186
G1 X225.114 Y223.587 E7.88924
G1 X225.369 Y224.272 E7.95662
G1 X225.547 Y224.98 E8.02393
G1 X225.667 Y226.05 E8.1232
G1 X225.68 Y226.58 E8.17208
G1 X225.679 Y230.597 E8.54244
G1 X225.67 Y231.324 E8.60947
G1 X225.621 Y232.053 E8.67683
G1 X225.493 Y232.772 E8.74416
G1 X225.287 Y233.473 E8.81153
G1 X225.005 Y234.148 E8.87897
G1 X224.652 Y234.787 E8.94628
G1 X224.231 Y235.384 E9.01363
G1 X223.747 Y235.932 E9.08104
G1 X223.206 Y236.423 E9.1484
G1 X222.615 Y236.853 E9.21578
G1 X221.98 Y237.215 E9.28317
G1 X221.31 Y237.506 E9.35052
G1 X220.611 Y237.721 E9.41794
G1 X219.894 Y237.86 E9.48528
G1 X219.178 Y237.918 E9.55151
G1 X218.67 Y237.93 E9.59836
G1 X181.621 Y237.929 E13.01417
G1 X180.923 Y237.92 E13.07853
G1 X180.194 Y237.871 E13.14589
G1 X179.474 Y237.742 E13.21333
G1 X178.774 Y237.536 E13.2806
G1 X178.099 Y237.254 E13.34805
G1 X177.46 Y236.9 E13.4154
G1 X176.863 Y236.479 E13.48275
G1 X176.316 Y235.994 E13.55015
G1 X175.825 Y235.453 E13.61751
G1 X175.395 Y234.862 E13.68489
G1 X175.034 Y234.227 E13.75224
G1 X174.743 Y233.556 E13.81967
G1 X174.528 Y232.858 E13.88701
G1 X174.39 Y232.141 E13.95433
G1 X174.331 Y231.421 E14.02093
G1 X174.32 Y230.908 E14.06824
G1 X174.321 Y169.334 E19.74518
G1 X174.33 Y168.669 E19.8065
G1 X174.379 Y167.94 E19.87386
G1 X174.509 Y167.22 E19.94132
G1 X174.716 Y166.519 E20.00871
G1 X174.998 Y165.845 E20.07607
G1 X175.352 Y165.206 E20.14342
G1 X175.774 Y164.61 E20.21075
G1 X176.259 Y164.063 E20.27815
M204 S3000
M205 X10 Y10
G0 F2700 X176.878 Y165.037
M204 S1800
M205 X8 Y8
G1 F2400 X177.353 Y164.57 E20.33956
G1 X177.881 Y164.162 E20.40108
G1 X178.454 Y163.821 E20.46256
G1 X179.063 Y163.551 E20.52398
G1 X179.7 Y163.355 E20.58542
G1 X180.357 Y163.237 E20.64697
G1 X181.174 Y163.192 E20.72241
G1 X181.33 Y163.19 E20.73679
G1 X185.293 Y163.19 E21.10217
G1 X186.071 Y163.201 E21.1739
G1 X186.735 Y163.25 E21.23529
G1 X187.39 Y163.379 E21.29684
G1 X188.024 Y163.585 E21.3583
G1 X188.628 Y163.865 E21.41968
G1 X189.195 Y164.216 E21.48116
G1 X189.716 Y164.632 E21.54263
G1 X190.183 Y165.108 E21.60411
G1 X190.59 Y165.636 E21.66557
G1 X190.931 Y166.209 E21.72705
G1 X191.201 Y166.818 E21.78847
G1 X191.441 Y167.658 E21.86901
G1 X191.697 Y168.928 E21.98846
G1 X191.753 Y169.226 E22.01641
G1 X192.315 Y171.822 E22.2613
G1 X192.948 Y174.399 E22.50596
G1 X193.66 Y176.973 E22.75218
G1 X194.457 Y179.565 E23.0022
G1 X195.309 Y182.086 E23.24754
G1 X196.231 Y184.577 E23.49243
G1 X197.227 Y187.048 E23.73806
G1 X198.297 Y189.501 E23.9848
G1 X199.447 Y191.947 E24.234
G1 X200.631 Y194.291 E24.47611
G1 X201.916 Y196.666 E24.72508
G1 X203.252 Y198.977 E24.97119
G1 X204.642 Y201.232 E25.21542
G1 X206.114 Y203.477 E25.46292
G1 X207.651 Y205.678 E25.71043
G1 X209.232 Y207.813 E25.95537
G1 X210.887 Y209.919 E26.20231
G1 X212.596 Y211.974 E26.44874
G1 X214.354 Y213.968 E26.69382
G1 X216.176 Y215.924 E26.94028
G1 X218.061 Y217.834 E27.18769
G1 X219.983 Y219.673 E27.43294
G1 X221.987 Y221.486 E27.6821
G1 X222.665 Y222.083 E27.76539
G1 X223.138 Y222.552 E27.8268
G1 X223.551 Y223.076 E27.88831
G1 X223.899 Y223.644 E27.94973
G1 X224.176 Y224.251 E28.01124
G1 X224.379 Y224.886 E28.07271
G1 X224.504 Y225.54 E28.13409
G1 X224.547 Y226.084 E28.18441
G1 X224.56 Y226.58 E28.23015
G1 X224.56 Y230.583 E28.59922
G1 X224.551 Y231.31 E28.66625
G1 X224.502 Y231.975 E28.72773
G1 X224.375 Y232.629 E28.78915
G1 X224.17 Y233.263 E28.85058
G1 X223.891 Y233.869 E28.91209
G1 X223.541 Y234.436 E28.97352
G1 X223.126 Y234.958 E29.03501
G1 X222.651 Y235.426 E29.09649
G1 X222.124 Y235.834 E29.15793
G1 X221.552 Y236.176 E29.21938
G1 X220.943 Y236.447 E29.28083
G1 X220.306 Y236.643 E29.34228
G1 X219.65 Y236.762 E29.40375
G1 X219.147 Y236.799 E29.45025
G1 X218.67 Y236.81 E29.49424
G1 X181.635 Y236.81 E32.90876
G1 X180.937 Y236.801 E32.97312
G1 X180.272 Y236.752 E33.03459
G1 X179.618 Y236.624 E33.09604
G1 X178.984 Y236.419 E33.15747
G1 X178.379 Y236.139 E33.21893
G1 X177.811 Y235.789 E33.28044
G1 X177.29 Y235.374 E33.34185
G1 X176.822 Y234.899 E33.40333
G1 X176.414 Y234.372 E33.46478
G1 X176.073 Y233.799 E33.52626
G1 X175.802 Y233.19 E33.58771
G1 X175.606 Y232.553 E33.64916
G1 X175.488 Y231.897 E33.71061
G1 X175.451 Y231.391 E33.75739
G1 X175.44 Y230.908 E33.80193
G1 X175.441 Y169.349 E39.47749
G1 X175.45 Y168.684 E39.53881
G1 X175.498 Y168.019 E39.60028
G1 X175.627 Y167.365 E39.66174
G1 X175.832 Y166.731 E39.72317
G1 X176.112 Y166.126 E39.78463
G1 X176.463 Y165.558 E39.84619
G1 X176.878 Y165.037 E39.9076
M204 S3000
M205 X10 Y10
G1 F1200 E36.9076
;MESH:pawl guide for motor casing 15 21.08.2022.stl
G0 F2700 X180.335 Y170.444
G0 X182.694 Y170.444
G0 X184.25 Y170.5
G1 F2700 E39.9076
G0 X184.32 Y170.43
M204 S1800
M205 X8 Y8
;TYPE:WALL-INNER
G1 F900 X184.32 Y227.93 E45.20894
G1 X217.32 Y227.93 E48.25144
G1 X217.32 Y229.57 E48.40264
G1 X182.68 Y229.57 E51.59635
G1 X182.68 Y170.43 E57.04889
G1 X184.32 Y170.43 E57.20009
M204 S3000
M205 X10 Y10
G0 F2700 X184.25 Y170.5
G0 X181.56 Y169.31
M204 S1800
M205 X8 Y8
;TYPE:WALL-OUTER
G1 F900 X185.44 Y169.31 E57.55782
G1 X185.44 Y226.81 E62.85915
G1 X218.44 Y226.81 E65.90165
G1 X218.44 Y230.69 E66.25938
G1 X181.56 Y230.69 E69.65961
G1 X181.56 Y169.31 E75.31866
M204 S3000
M205 X10 Y10
G0 F2700 X181.96 Y169.31
G0 X182.75 Y170.5
G0 X183.799 Y171.128
M204 S1800
M205 X8 Y8
;TYPE:SKIN
G1 F900 X183.621 Y170.95 E75.34187
M204 S3000
M205 X10 Y10
G0 F2700 X183.199 Y172.111
M204 S1800
M205 X8 Y8
G1 F900 X183.799 Y172.712 E75.42017
M204 S3000
M205 X10 Y10
G0 F2700 X183.199 Y173.695
M204 S1800
M205 X8 Y8
G1 F900 X183.799 Y174.296 E75.49847
M204 S3000
M205 X10 Y10
G0 F2700 X183.199 Y175.279
M204 S1800
M205 X8 Y8
G1 F900 X183.799 Y175.88 E75.57676
M204 S3000
M205 X10 Y10
G0 F2700 X183.199 Y176.863
M204 S1800
M205 X8 Y8
G1 F900 X183.799 Y177.464 E75.65506
M204 S3000
M205 X10 Y10
G0 F2700 X183.199 Y178.447
M204 S1800
M205 X8 Y8
G1 F900 X183.799 Y179.047 E75.73329
M204 S3000
M205 X10 Y10
G0 F2700 X183.199 Y180.031
M204 S1800
M205 X8 Y8
G1 F900 X183.799 Y180.631 E75.81153
M204 S3000
M205 X10 Y10
G0 F2700 X183.199 Y181.615
M204 S1800
M205 X8 Y8
G1 F900 X183.799 Y182.215 E75.88976
M204 S3000
M205 X10 Y10
G0 F2700 X183.199 Y183.199
M204 S1800
M205 X8 Y8
G1 F900 X183.799 Y183.799 E75.96799
M204 S3000
M205 X10 Y10
G0 F2700 X183.199 Y184.783
M204 S1800
M205 X8 Y8
G1 F900 X183.799 Y185.383 E76.04622
M204 S3000
M205 X10 Y10
G0 F2700 X183.199 Y186.367
M204 S1800
M205 X8 Y8
G1 F900 X183.799 Y186.967 E76.12445
M204 S3000
M205 X10 Y10
G0 F2700 X183.199 Y187.951
M204 S1800
M205 X8 Y8
G1 F900 X183.799 Y188.551 E76.20268
M204 S3000
M205 X10 Y10
G0 F2700 X183.199 Y189.535
M204 S1800
M205 X8 Y8
G1 F900 X183.799 Y190.135 E76.28092
M204 S3000
M205 X10 Y10
G0 F2700 X183.199 Y191.118
M204 S1800
M205 X8 Y8
G1 F900 X183.799 Y191.719 E76.35921
M204 S3000
M205 X10 Y10
G0 F2700 X183.199 Y192.702
M204 S1800
M205 X8 Y8
G1 F900 X183.799 Y193.303 E76.43751
M204 S3000
M205 X10 Y10
G0 F2700 X183.199 Y194.286
M204 S1800
M205 X8 Y8
G1 F900 X183.799 Y194.887 E76.51581
M204 S3000
M205 X10 Y10
G0 F2700 X183.199 Y195.87
M204 S1800
M205 X8 Y8
G1 F900 X183.799 Y196.471 E76.5941
M204 S3000
M205 X10 Y10
G0 F2700 X183.199 Y197.454
M204 S1800
M205 X8 Y8
G1 F900 X183.799 Y198.054 E76.67234
M204 S3000
M205 X10 Y10
G0 F2700 X183.199 Y199.038
M204 S1800
M205 X8 Y8
G1 F900 X183.799 Y199.638 E76.75057
M204 S3000
M205 X10 Y10
G0 F2700 X183.199 Y200.622
M204 S1800
M205 X8 Y8
G1 F900 X183.799 Y201.222 E76.8288
M204 S3000
M205 X10 Y10
G0 F2700 X183.199 Y202.206
M204 S1800
M205 X8 Y8
G1 F900 X183.799 Y202.806 E76.90703
M204 S3000
M205 X10 Y10
G0 F2700 X183.199 Y203.79
M204 S1800
M205 X8 Y8
G1 F900 X183.799 Y204.39 E76.98526
M204 S3000
M205 X10 Y10
G0 F2700 X183.199 Y205.374
M204 S1800
M205 X8 Y8
G1 F900 X183.799 Y205.974 E77.0635
M204 S3000
M205 X10 Y10
G0 F2700 X183.199 Y206.958
M204 S1800
M205 X8 Y8
G1 F900 X183.799 Y207.558 E77.14173
M204 S3000
M205 X10 Y10
G0 F2700 X183.199 Y208.542
M204 S1800
M205 X8 Y8
G1 F900 X183.799 Y209.142 E77.21996
M204 S3000
M205 X10 Y10
G0 F2700 X183.199 Y210.125
M204 S1800
M205 X8 Y8
G1 F900 X183.799 Y210.726 E77.29826
M204 S3000
M205 X10 Y10
G0 F2700 X183.199 Y211.709
M204 S1800
M205 X8 Y8
G1 F900 X183.799 Y212.31 E77.37655
M204 S3000
M205 X10 Y10
G0 F2700 X183.199 Y213.293
M204 S1800
M205 X8 Y8
G1 F900 X183.799 Y213.894 E77.45485
M204 S3000
M205 X10 Y10
G0 F2700 X183.199 Y214.877
M204 S1800
M205 X8 Y8
G1 F900 X183.799 Y215.478 E77.53315
M204 S3000
M205 X10 Y10
G0 F2700 X183.199 Y216.461
M204 S1800
M205 X8 Y8
G1 F900 X183.799 Y217.061 E77.61138
M204 S3000
M205 X10 Y10
G0 F2700 X183.199 Y218.045
M204 S1800
M205 X8 Y8
G1 F900 X183.799 Y218.645 E77.68961
M204 S3000
M205 X10 Y10
G0 F2700 X183.199 Y219.629
M204 S1800
M205 X8 Y8
G1 F900 X183.799 Y220.229 E77.76784
M204 S3000
M205 X10 Y10
G0 F2700 X183.199 Y221.213
M204 S1800
M205 X8 Y8
G1 F900 X183.799 Y221.813 E77.84607
M204 S3000
M205 X10 Y10
G0 F2700 X183.199 Y222.797
M204 S1800
M205 X8 Y8
G1 F900 X183.799 Y223.397 E77.92431
M204 S3000
M205 X10 Y10
G0 F2700 X183.199 Y224.381
M204 S1800
M205 X8 Y8
G1 F900 X183.799 Y224.981 E78.00254
M204 S3000
M205 X10 Y10
G0 F2700 X183.199 Y225.965
M204 S1800
M205 X8 Y8
G1 F900 X183.799 Y226.565 E78.08077
M204 S3000
M205 X10 Y10
G0 F2700 X183.199 Y227.549
M204 S1800
M205 X8 Y8
G1 F900 X183.799 Y228.149 E78.159
M204 S3000
M205 X10 Y10
G0 F2700 X184.099 Y228.449
M204 S1800
M205 X8 Y8
G1 F900 X184.699 Y229.048 E78.23717
M204 S3000
M205 X10 Y10
G0 F2700 X185.683 Y228.449
M204 S1800
M205 X8 Y8
G1 F900 X186.283 Y229.048 E78.31534
M204 S3000
M205 X10 Y10
G0 F2700 X187.267 Y228.449
M204 S1800
M205 X8 Y8
G1 F900 X187.866 Y229.048 E78.39344
M204 S3000
M205 X10 Y10
G0 F2700 X188.851 Y228.449
M204 S1800
M205 X8 Y8
G1 F900 X189.45 Y229.048 E78.47154
M204 S3000
M205 X10 Y10
G0 F2700 X190.435 Y228.449
M204 S1800
M205 X8 Y8
G1 F900 X191.034 Y229.048 E78.54964
M204 S3000
M205 X10 Y10
G0 F2700 X192.019 Y228.449
M204 S1800
M205 X8 Y8
G1 F900 X192.618 Y229.048 E78.62774
M204 S3000
M205 X10 Y10
G0 F2700 X193.603 Y228.449
M204 S1800
M205 X8 Y8
G1 F900 X194.202 Y229.048 E78.70584
M204 S3000
M205 X10 Y10
G0 F2700 X195.186 Y228.449
M204 S1800
M205 X8 Y8
G1 F900 X195.786 Y229.048 E78.78401
M204 S3000
M205 X10 Y10
G0 F2700 X196.77 Y228.449
M204 S1800
M205 X8 Y8
G1 F900 X197.37 Y229.048 E78.86218
M204 S3000
M205 X10 Y10
G0 F2700 X198.354 Y228.449
M204 S1800
M205 X8 Y8
G1 F900 X198.954 Y229.048 E78.94034
M204 S3000
M205 X10 Y10
G0 F2700 X199.938 Y228.449
M204 S1800
M205 X8 Y8
G1 F900 X200.538 Y229.048 E79.01851
M204 S3000
M205 X10 Y10
G0 F2700 X201.522 Y228.449
M204 S1800
M205 X8 Y8
G1 F900 X202.122 Y229.048 E79.09668
M204 S3000
M205 X10 Y10
G0 F2700 X203.106 Y228.449
M204 S1800
M205 X8 Y8
G1 F900 X203.706 Y229.048 E79.17484
M204 S3000
M205 X10 Y10
G0 F2700 X204.69 Y228.449
M204 S1800
M205 X8 Y8
G1 F900 X205.29 Y229.048 E79.25301
M204 S3000
M205 X10 Y10
G0 F2700 X206.274 Y228.449
M204 S1800
M205 X8 Y8
G1 F900 X206.873 Y229.048 E79.33111
M204 S3000
M205 X10 Y10
G0 F2700 X207.858 Y228.449
M204 S1800
M205 X8 Y8
G1 F900 X208.457 Y229.048 E79.40921
M204 S3000
M205 X10 Y10
G0 F2700 X209.442 Y228.449
M204 S1800
M205 X8 Y8
G1 F900 X210.041 Y229.048 E79.48731
M204 S3000
M205 X10 Y10
G0 F2700 X211.026 Y228.449
M204 S1800
M205 X8 Y8
G1 F900 X211.625 Y229.048 E79.56541
M204 S3000
M205 X10 Y10
G0 F2700 X212.61 Y228.449
M204 S1800
M205 X8 Y8
G1 F900 X213.209 Y229.048 E79.64352
M204 S3000
M205 X10 Y10
G0 F2700 X214.193 Y228.449
M204 S1800
M205 X8 Y8
G1 F900 X214.793 Y229.048 E79.72168
M204 S3000
M205 X10 Y10
G0 F2700 X215.777 Y228.449
M204 S1800
M205 X8 Y8
G1 F900 X216.377 Y229.048 E79.79985
M204 S3000
M205 X10 Y10
G0 F2700 X216.377 Y229.05
;MESH:NONMESH
G0 F600 X216.377 Y229.05 Z0.7
G0 F2700 X184.292 Y227.958
G0 X184.25 Y170.5
G0 X184.8 Y169.95
;TIME_ELAPSED:51.925215
;LAYER:1
M140 S60
M106 S255
M204 S1800
M205 X8 Y8
;TYPE:WALL-INNER
;MESH:pawl guide for motor casing 15 21.08.2022.stl
G1 F1650 X184.8 Y227.45 E89.26652
G1 X217.8 Y227.45 E94.69956
G1 X217.8 Y230.05 E95.12762
G1 X182.2 Y230.05 E100.98872
G1 X182.2 Y169.95 E110.88344
G1 X184.8 Y169.95 E111.3115
M204 S3000
M205 X10 Y10
G0 F4950 X184.73 Y170.02
G0 X182.27 Y170.02
G0 X181.4 Y169.15
M204 S1800
M205 X8 Y8
;TYPE:WALL-OUTER
G1 F1650 X185.6 Y169.15 E112.00298
G1 X185.6 Y226.65 E121.46964
G1 X218.6 Y226.65 E126.90269
G1 X218.6 Y230.85 E127.59416
G1 X181.4 Y230.85 E133.71869
G1 X181.4 Y169.15 E143.87683
M204 S3000
M205 X10 Y10
G0 F4950 X181.8 Y169.15
G0 X182.27 Y170.02
G0 X182.99 Y170.74
M204 S1800
M205 X8 Y8
;TYPE:SKIN
G1 F930 X184.01 Y170.74 E144.04476
G1 X184.01 Y228.24 E153.51143
G1 X217.01 Y228.24 E158.94447
G1 X217.01 Y229.26 E159.1124
G1 X182.99 Y229.26 E164.71337
G1 X182.99 Y170.74 E174.34797
M204 S3000
M205 X10 Y10
G0 F4950 X183.649 Y171.6
M204 S1800
M205 X8 Y8
G1 F930 X183.349 Y171.9 E174.41782
M204 S3000
M205 X10 Y10
G0 F4950 X183.649 Y172.732
M204 S1800
M205 X8 Y8
G1 F930 X183.349 Y173.031 E174.48755
M204 S3000
M205 X10 Y10
G0 F4950 X183.649 Y173.863
M204 S1800
M205 X8 Y8
G1 F930 X183.349 Y174.163 E174.5574
M204 S3000
M205 X10 Y10
G0 F4950 X183.649 Y174.994
M204 S1800
M205 X8 Y8
G1 F930 X183.349 Y175.294 E174.62725
M204 S3000
M205 X10 Y10
G0 F4950 X183.649 Y176.126
M204 S1800
M205 X8 Y8
G1 F930 X183.349 Y176.425 E174.69699
M204 S3000
M205 X10 Y10
G0 F4950 X183.649 Y177.257
M204 S1800
M205 X8 Y8
G1 F930 X183.349 Y177.557 E174.76684
M204 S3000
M205 X10 Y10
G0 F4950 X183.649 Y178.388
M204 S1800
M205 X8 Y8
G1 F930 X183.349 Y178.688 E174.83669
M204 S3000
M205 X10 Y10
G0 F4950 X183.649 Y179.52
M204 S1800
M205 X8 Y8
G1 F930 X183.349 Y179.82 E174.90654
M204 S3000
M205 X10 Y10
G0 F4950 X183.649 Y180.651
M204 S1800
M205 X8 Y8
