;FLAVOR:Marlin
;TIME:683
;Filament used: 2.55611m
;Layer height: 0.5
;MINX:150.402
;MINY:181.847
;MINZ:0.2
;MAXX:249.598
;MAXY:217.1
;MAXZ:10.2
;Generated with Cura_SteamEngine 4.11.0
M140 S70
M105
M190 S70
M104 S210
M105
M109 S210
M82 ;absolute extrusion mode
M107 ;Start with the fan off
G21 ;Set units to millimeters
G91 ;Change to relative positioning mode for retract filament and nozzle lifting
G1 F200 E-3 ;Retract 3mm filament for a clean start
G92 E0 ;Zero the extruded length
G1 F1000 Z5 ;Lift the nozzle 5mm before homing axes
G90 ;Absolute positioning
M82 ;Set extruder to absolute mode too
G28 X0 Y0 ;First move X/Y to min endstops
G28 Z0 ;Then move Z to min endstops
G1 F1000 Z15 ;After homing lift the nozzle 15mm before start printing

G92 E0
G92 E0
G1 F1200 E-3
;LAYER_COUNT:21
;LAYER:0
M107
M204 S3000
M205 X10 Y10
G1 F600 Z0.275
;MESH:Part_23_Lid_Arm_Servo_Side_1_09.08.2021.stl
G0 F2700 X196.68 Y215.82 Z0.275
M204 S1800
M205 X8 Y8
;TYPE:WALL-INNER
G1 F600 Z0.2
G1 F2700 E0
G1 F900 X196.68 Y185.82 E2.76591
G1 X155.7 Y185.82 E6.54415
G1 X155.7 Y184.18 E6.69535
G1 X203.32 Y184.18 E11.08578
G1 X203.32 Y214.18 E13.85169
G1 X244.3 Y214.18 E17.62993
G1 X244.3 Y215.82 E17.78113
G1 X196.68 Y215.82 E22.17156
M204 S3000
M205 X10 Y10
G0 F2700 X196.75 Y215.75
G0 X196.708 Y185.792
G0 X155.77 Y184.25
G0 X154.58 Y183.06
M204 S1800
M205 X8 Y8
;TYPE:WALL-OUTER
G1 F900 X204.44 Y183.06 E26.7685
G1 X204.44 Y213.06 E29.53442
G1 X245.42 Y213.06 E33.31265
G1 X245.42 Y216.94 E33.67038
G1 X195.56 Y216.94 E38.26733
G1 X195.56 Y186.94 E41.03324
G1 X154.58 Y186.94 E44.81148
G1 X154.58 Y183.06 E45.1692
M204 S3000
M205 X10 Y10
G0 F2700 X154.98 Y183.06
G0 X155.77 Y184.25
G0 X197.79 Y185.29
M204 S1800
M205 X8 Y8
;TYPE:SKIN
G1 F900 X202.21 Y185.29 E45.57671
G1 X202.21 Y214.71 E48.28915
G1 X197.79 Y214.71 E48.69666
G1 X197.79 Y185.29 E51.4091
M204 S3000
M205 X10 Y10
G0 F2700 X201.689 Y187.434
M204 S1800
M205 X8 Y8
G1 F900 X200.065 Y185.809 E51.62091
M204 S3000
M205 X10 Y10
G0 F2700 X198.481 Y185.809
M204 S1800
M205 X8 Y8
G1 F900 X201.689 Y189.018 E52.03926
M204 S3000
M205 X10 Y10
G0 F2700 X201.689 Y190.602
M204 S1800
M205 X8 Y8
G1 F900 X198.308 Y187.221 E52.48009
M204 S3000
M205 X10 Y10
G0 F2700 X198.308 Y188.805
M204 S1800
M205 X8 Y8
G1 F900 X201.689 Y192.185 E52.92086
M204 S3000
M205 X10 Y10
G0 F2700 X201.689 Y193.769
M204 S1800
M205 X8 Y8
G1 F900 X198.308 Y190.389 E53.36164
M204 S3000
M205 X10 Y10
G0 F2700 X198.308 Y191.973
M204 S1800
M205 X8 Y8
G1 F900 X201.689 Y195.353 E53.80241
M204 S3000
M205 X10 Y10
G0 F2700 X201.689 Y196.937
M204 S1800
M205 X8 Y8
G1 F900 X198.308 Y193.557 E54.24318
M204 S3000
M205 X10 Y10
G0 F2700 X198.308 Y195.14
M204 S1800
M205 X8 Y8
G1 F900 X201.689 Y198.521 E54.68401
M204 S3000
M205 X10 Y10
G0 F2700 X201.69 Y200.106
M204 S1800
M205 X8 Y8
G1 F900 X198.308 Y196.724 E55.12498
M204 S3000
M205 X10 Y10
G0 F2700 X198.308 Y198.308
M204 S1800
M205 X8 Y8
G1 F900 X201.69 Y201.69 E55.56595
M204 S3000
M205 X10 Y10
G0 F2700 X201.69 Y203.274
M204 S1800
M205 X8 Y8
G1 F900 X198.308 Y199.892 E56.00691
M204 S3000
M205 X10 Y10
G0 F2700 X198.309 Y201.477
M204 S1800
M205 X8 Y8
G1 F900 X201.69 Y204.858 E56.44775
M204 S3000
M205 X10 Y10
G0 F2700 X201.69 Y206.441
M204 S1800
M205 X8 Y8
G1 F900 X198.309 Y203.061 E56.88852
M204 S3000
M205 X10 Y10
G0 F2700 X198.309 Y204.645
M204 S1800
M205 X8 Y8
G1 F900 X201.69 Y208.025 E57.32929
M204 S3000
M205 X10 Y10
G0 F2700 X201.69 Y209.609
M204 S1800
M205 X8 Y8
G1 F900 X198.309 Y206.229 E57.77006
M204 S3000
M205 X10 Y10
G0 F2700 X198.309 Y207.813
M204 S1800
M205 X8 Y8
G1 F900 X201.69 Y211.193 E58.21084
M204 S3000
M205 X10 Y10
G0 F2700 X201.69 Y212.777
M204 S1800
M205 X8 Y8
G1 F900 X198.309 Y209.396 E58.65167
M204 S3000
M205 X10 Y10
G0 F2700 X198.309 Y210.98
M204 S1800
M205 X8 Y8
G1 F900 X201.517 Y214.189 E59.07002
M204 S3000
M205 X10 Y10
G0 F2700 X199.933 Y214.189
M204 S1800
M205 X8 Y8
G1 F900 X198.309 Y212.564 E59.28183
G1 X198.168 Y212.423
M204 S3000
M205 X10 Y10
G0 F2700 X202.82 Y214.7
M204 S1800
M205 X8 Y8
;TYPE:SKIN
G1 F900 X203.419 Y215.299 E59.30972
M204 S3000
M205 X10 Y10
G0 F2700 X202.854 Y215.299
M204 S1800
M205 X8 Y8
G1 F900 X202.745 Y215.19 E59.3148
M204 S3000
M205 X10 Y10
G0 F2700 X203.386 Y214.7
M204 S1800
M205 X8 Y8
G1 F900 X203.985 Y215.299 E59.34269
M204 S3000
M205 X10 Y10
G0 F2700 X204.551 Y215.299
M204 S1800
M205 X8 Y8
G1 F900 X203.952 Y214.7 E59.37059
M204 S3000
M205 X10 Y10
G0 F2700 X204.517 Y214.7
M204 S1800
M205 X8 Y8
G1 F900 X205.116 Y215.299 E59.39848
M204 S3000
M205 X10 Y10
G0 F2700 X205.682 Y215.299
M204 S1800
M205 X8 Y8
G1 F900 X205.083 Y214.7 E59.42637
M204 S3000
M205 X10 Y10
G0 F2700 X205.649 Y214.7
M204 S1800
M205 X8 Y8
G1 F900 X206.248 Y215.299 E59.45427
M204 S3000
M205 X10 Y10
G0 F2700 X206.813 Y215.299
M204 S1800
M205 X8 Y8
G1 F900 X206.214 Y214.7 E59.48216
M204 S3000
M205 X10 Y10
G0 F2700 X206.78 Y214.7
M204 S1800
M205 X8 Y8
G1 F900 X207.379 Y215.299 E59.51005
M204 S3000
M205 X10 Y10
G0 F2700 X207.945 Y215.299
M204 S1800
M205 X8 Y8
G1 F900 X207.346 Y214.7 E59.53795
M204 S3000
M205 X10 Y10
G0 F2700 X207.912 Y214.7
M204 S1800
M205 X8 Y8
G1 F900 X208.51 Y215.299 E59.56582
M204 S3000
M205 X10 Y10
G0 F2700 X209.076 Y215.299
M204 S1800
M205 X8 Y8
G1 F900 X208.477 Y214.7 E59.59371
M204 S3000
M205 X10 Y10
G0 F2700 X209.043 Y214.7
M204 S1800
M205 X8 Y8
G1 F900 X209.642 Y215.299 E59.6216
M204 S3000
M205 X10 Y10
G0 F2700 X210.207 Y215.299
M204 S1800
M205 X8 Y8
G1 F900 X209.609 Y214.7 E59.64947
M204 S3000
M205 X10 Y10
G0 F2700 X210.174 Y214.7
M204 S1800
M205 X8 Y8
G1 F900 X210.773 Y215.299 E59.67737
M204 S3000
M205 X10 Y10
G0 F2700 X211.339 Y215.299
M204 S1800
M205 X8 Y8
G1 F900 X210.74 Y214.7 E59.70526
M204 S3000
M205 X10 Y10
G0 F2700 X211.306 Y214.7
M204 S1800
M205 X8 Y8
G1 F900 X211.905 Y215.299 E59.73315
M204 S3000
M205 X10 Y10
G0 F2700 X212.47 Y215.299
M204 S1800
M205 X8 Y8
G1 F900 X211.871 Y214.7 E59.76105
M204 S3000
M205 X10 Y10
G0 F2700 X212.437 Y214.7
M204 S1800
M205 X8 Y8
G1 F900 X213.036 Y215.299 E59.78894
M204 S3000
M205 X10 Y10
G0 F2700 X213.602 Y215.299
M204 S1800
M205 X8 Y8
G1 F900 X213.003 Y214.7 E59.81683
M204 S3000
M205 X10 Y10
G0 F2700 X213.568 Y214.7
M204 S1800
M205 X8 Y8
G1 F900 X214.167 Y215.299 E59.84473
M204 S3000
M205 X10 Y10
G0 F2700 X214.733 Y215.299
M204 S1800
M205 X8 Y8
G1 F900 X214.134 Y214.7 E59.87262
M204 S3000
M205 X10 Y10
G0 F2700 X214.7 Y214.7
M204 S1800
M205 X8 Y8
G1 F900 X215.299 Y215.299 E59.90051
M204 S3000
M205 X10 Y10
G0 F2700 X215.864 Y215.299
M204 S1800
M205 X8 Y8
G1 F900 X215.265 Y214.7 E59.92841
M204 S3000
M205 X10 Y10
G0 F2700 X215.831 Y214.7
M204 S1800
M205 X8 Y8
G1 F900 X216.43 Y215.299 E59.9563
M204 S3000
M205 X10 Y10
G0 F2700 X216.996 Y215.299
M204 S1800
M205 X8 Y8
G1 F900 X216.397 Y214.7 E59.98419
M204 S3000
M205 X10 Y10
G0 F2700 X216.962 Y214.7
M204 S1800
M205 X8 Y8
G1 F900 X217.561 Y215.299 E60.01209
M204 S3000
M205 X10 Y10
G0 F2700 X218.127 Y215.299
M204 S1800
M205 X8 Y8
G1 F900 X217.528 Y214.7 E60.03998
M204 S3000
M205 X10 Y10
G0 F2700 X218.094 Y214.7
M204 S1800
M205 X8 Y8
G1 F900 X218.693 Y215.299 E60.06787
M204 S3000
M205 X10 Y10
G0 F2700 X219.258 Y215.299
M204 S1800
M205 X8 Y8
G1 F900 X218.66 Y214.7 E60.09574
M204 S3000
M205 X10 Y10
G0 F2700 X219.225 Y214.7
M204 S1800
M205 X8 Y8
G1 F900 X219.824 Y215.299 E60.12364
M204 S3000
M205 X10 Y10
G0 F2700 X220.39 Y215.299
M204 S1800
M205 X8 Y8
G1 F900 X219.791 Y214.7 E60.15153
M204 S3000
M205 X10 Y10
G0 F2700 X220.357 Y214.7
M204 S1800
M205 X8 Y8
G1 F900 X220.956 Y215.299 E60.17942
M204 S3000
M205 X10 Y10
G0 F2700 X221.521 Y215.299
M204 S1800
M205 X8 Y8
G1 F900 X220.922 Y214.7 E60.20732
M204 S3000
M205 X10 Y10
G0 F2700 X221.488 Y214.7
M204 S1800
M205 X8 Y8
G1 F900 X222.087 Y215.299 E60.23521
M204 S3000
M205 X10 Y10
G0 F2700 X222.653 Y215.299
M204 S1800
M205 X8 Y8
G1 F900 X222.054 Y214.7 E60.2631
M204 S3000
M205 X10 Y10
G0 F2700 X222.619 Y214.7
M204 S1800
M205 X8 Y8
G1 F900 X223.218 Y215.299 E60.291
M204 S3000
M205 X10 Y10
G0 F2700 X223.784 Y215.299
M204 S1800
M205 X8 Y8
G1 F900 X223.185 Y214.7 E60.31889
M204 S3000
M205 X10 Y10
G0 F2700 X223.751 Y214.7
M204 S1800
M205 X8 Y8
G1 F900 X224.35 Y215.299 E60.34678
M204 S3000
M205 X10 Y10
G0 F2700 X224.915 Y215.299
M204 S1800
M205 X8 Y8
G1 F900 X224.316 Y214.7 E60.37468
M204 S3000
M205 X10 Y10
G0 F2700 X224.882 Y214.7
M204 S1800
M205 X8 Y8
G1 F900 X225.481 Y215.299 E60.40257
M204 S3000
M205 X10 Y10
G0 F2700 X226.047 Y215.299
M204 S1800
M205 X8 Y8
G1 F900 X225.448 Y214.7 E60.43046
M204 S3000
M205 X10 Y10
G0 F2700 X226.013 Y214.7
M204 S1800
M205 X8 Y8
G1 F900 X226.612 Y215.299 E60.45836
M204 S3000
M205 X10 Y10
G0 F2700 X227.178 Y215.299
M204 S1800
M205 X8 Y8
G1 F900 X226.579 Y214.7 E60.48625
M204 S3000
M205 X10 Y10
G0 F2700 X227.145 Y214.7
M204 S1800
M205 X8 Y8
G1 F900 X227.744 Y215.299 E60.51414
M204 S3000
M205 X10 Y10
G0 F2700 X228.309 Y215.299
M204 S1800
M205 X8 Y8
G1 F900 X227.711 Y214.7 E60.54201
M204 S3000
M205 X10 Y10
G0 F2700 X228.276 Y214.7
M204 S1800
M205 X8 Y8
G1 F900 X228.875 Y215.299 E60.56991
M204 S3000
M205 X10 Y10
G0 F2700 X229.441 Y215.299
M204 S1800
M205 X8 Y8
G1 F900 X228.842 Y214.7 E60.5978
M204 S3000
M205 X10 Y10
G0 F2700 X229.408 Y214.7
M204 S1800
M205 X8 Y8
G1 F900 X230.006 Y215.299 E60.62567
M204 S3000
M205 X10 Y10
G0 F2700 X230.572 Y215.299
M204 S1800
M205 X8 Y8
G1 F900 X229.973 Y214.7 E60.65356
M204 S3000
M205 X10 Y10
G0 F2700 X230.539 Y214.7
M204 S1800
M205 X8 Y8
G1 F900 X231.138 Y215.299 E60.68146
M204 S3000
M205 X10 Y10
G0 F2700 X231.704 Y215.299
M204 S1800
M205 X8 Y8
G1 F900 X231.105 Y214.7 E60.70935
M204 S3000
M205 X10 Y10
G0 F2700 X231.67 Y214.7
M204 S1800
M205 X8 Y8
G1 F900 X232.269 Y215.299 E60.73724
M204 S3000
M205 X10 Y10
G0 F2700 X232.835 Y215.299
M204 S1800
M205 X8 Y8
G1 F900 X232.236 Y214.7 E60.76514
M204 S3000
M205 X10 Y10
G0 F2700 X232.802 Y214.7
M204 S1800
M205 X8 Y8
G1 F900 X233.401 Y215.299 E60.79303
M204 S3000
M205 X10 Y10
G0 F2700 X233.966 Y215.299
M204 S1800
M205 X8 Y8
G1 F900 X233.367 Y214.7 E60.82092
M204 S3000
M205 X10 Y10
G0 F2700 X233.933 Y214.7
M204 S1800
M205 X8 Y8
G1 F900 X234.532 Y215.299 E60.84882
M204 S3000
M205 X10 Y10
G0 F2700 X235.098 Y215.299
M204 S1800
M205 X8 Y8
G1 F900 X234.499 Y214.7 E60.87671
M204 S3000
M205 X10 Y10
G0 F2700 X235.064 Y214.7
M204 S1800
M205 X8 Y8
G1 F900 X235.663 Y215.299 E60.9046
M204 S3000
M205 X10 Y10
G0 F2700 X236.229 Y215.299
M204 S1800
M205 X8 Y8
G1 F900 X235.63 Y214.7 E60.9325
M204 S3000
M205 X10 Y10
G0 F2700 X236.196 Y214.7
M204 S1800
M205 X8 Y8
G1 F900 X236.795 Y215.299 E60.96039
M204 S3000
M205 X10 Y10
G0 F2700 X237.36 Y215.299
M204 S1800
M205 X8 Y8
G1 F900 X236.761 Y214.7 E60.98828
M204 S3000
M205 X10 Y10
G0 F2700 X237.327 Y214.7
M204 S1800
M205 X8 Y8
G1 F900 X237.926 Y215.299 E61.01618
M204 S3000
M205 X10 Y10
G0 F2700 X238.492 Y215.299
M204 S1800
M205 X8 Y8
G1 F900 X237.893 Y214.7 E61.04407
M204 S3000
M205 X10 Y10
G0 F2700 X238.459 Y214.7
M204 S1800
M205 X8 Y8
G1 F900 X239.057 Y215.299 E61.07194
M204 S3000
M205 X10 Y10
G0 F2700 X239.623 Y215.299
M204 S1800
M205 X8 Y8
G1 F900 X239.024 Y214.7 E61.09983
M204 S3000
M205 X10 Y10
G0 F2700 X239.59 Y214.7
M204 S1800
M205 X8 Y8
G1 F900 X240.189 Y215.299 E61.12773
M204 S3000
M205 X10 Y10
G0 F2700 X240.755 Y215.299
M204 S1800
M205 X8 Y8
G1 F900 X240.156 Y214.7 E61.15562
M204 S3000
M205 X10 Y10
G0 F2700 X240.721 Y214.7
M204 S1800
M205 X8 Y8
G1 F900 X241.32 Y215.299 E61.18352
M204 S3000
M205 X10 Y10
G0 F2700 X241.886 Y215.299
M204 S1800
M205 X8 Y8
G1 F900 X241.287 Y214.7 E61.21141
M204 S3000
M205 X10 Y10
G0 F2700 X241.853 Y214.7
M204 S1800
M205 X8 Y8
G1 F900 X242.452 Y215.299 E61.2393
M204 S3000
M205 X10 Y10
G0 F2700 X243.017 Y215.299
M204 S1800
M205 X8 Y8
G1 F900 X242.418 Y214.7 E61.2672
M204 S3000
M205 X10 Y10
G0 F2700 X242.984 Y214.7
M204 S1800
M205 X8 Y8
G1 F900 X243.583 Y215.299 E61.29509
M204 S3000
M205 X10 Y10
G0 F2700 X243.779 Y214.929
M204 S1800
M205 X8 Y8
G1 F900 X243.55 Y214.7 E61.30575
M204 S3000
M205 X10 Y10
G0 F2700 X203.292 Y214.208
G0 X197.178 Y185.299
M204 S1800
M205 X8 Y8
G1 F900 X196.579 Y184.699 E61.33367
M204 S3000
M205 X10 Y10
G0 F2700 X197.144 Y184.699
M204 S1800
M205 X8 Y8
G1 F900 X197.254 Y184.809 E61.33879
M204 S3000
M205 X10 Y10
G0 F2700 X196.613 Y185.299
M204 S1800
M205 X8 Y8
G1 F900 X196.013 Y184.699 E61.36673
M204 S3000
M205 X10 Y10
G0 F2700 X195.447 Y184.699
M204 S1800
M205 X8 Y8
G1 F900 X196.047 Y185.299 E61.39467
M204 S3000
M205 X10 Y10
G0 F2700 X195.481 Y185.299
M204 S1800
M205 X8 Y8
G1 F900 X194.882 Y184.699 E61.42259
M204 S3000
M205 X10 Y10
G0 F2700 X194.316 Y184.699
M204 S1800
M205 X8 Y8
G1 F900 X194.916 Y185.299 E61.45053
M204 S3000
M205 X10 Y10
G0 F2700 X194.35 Y185.299
M204 S1800
M205 X8 Y8
G1 F900 X193.75 Y184.699 E61.47847
M204 S3000
M205 X10 Y10
G0 F2700 X193.185 Y184.699
M204 S1800
M205 X8 Y8
G1 F900 X193.784 Y185.299 E61.50638
M204 S3000
M205 X10 Y10
G0 F2700 X193.219 Y185.299
M204 S1800
M205 X8 Y8
G1 F900 X192.619 Y184.699 E61.53432
M204 S3000
M205 X10 Y10
G0 F2700 X192.053 Y184.699
M204 S1800
M205 X8 Y8
G1 F900 X192.653 Y185.299 E61.56226
M204 S3000
M205 X10 Y10
G0 F2700 X192.087 Y185.299
M204 S1800
M205 X8 Y8
G1 F900 X191.488 Y184.699 E61.59018
M204 S3000
M205 X10 Y10
G0 F2700 X190.922 Y184.699
M204 S1800
M205 X8 Y8
G1 F900 X191.521 Y185.299 E61.6181
M204 S3000
M205 X10 Y10
G0 F2700 X190.956 Y185.299
M204 S1800
M205 X8 Y8
G1 F900 X190.356 Y184.699 E61.64604
M204 S3000
M205 X10 Y10
G0 F2700 X189.79 Y184.699
M204 S1800
M205 X8 Y8
G1 F900 X190.39 Y185.299 E61.67398
M204 S3000
M205 X10 Y10
G0 F2700 X189.824 Y185.299
M204 S1800
M205 X8 Y8
G1 F900 X189.225 Y184.699 E61.70189
M204 S3000
M205 X10 Y10
G0 F2700 X188.659 Y184.699
M204 S1800
M205 X8 Y8
G1 F900 X189.259 Y185.299 E61.72983
M204 S3000
M205 X10 Y10
G0 F2700 X188.693 Y185.299
M204 S1800
M205 X8 Y8
G1 F900 X188.093 Y184.699 E61.75777
M204 S3000
M205 X10 Y10
G0 F2700 X187.528 Y184.699
M204 S1800
M205 X8 Y8
G1 F900 X188.127 Y185.299 E61.78569
M204 S3000
M205 X10 Y10
G0 F2700 X187.562 Y185.299
M204 S1800
M205 X8 Y8
G1 F900 X186.962 Y184.699 E61.81363
M204 S3000
M205 X10 Y10
G0 F2700 X186.396 Y184.699
M204 S1800
M205 X8 Y8
G1 F900 X186.996 Y185.299 E61.84157
M204 S3000
M205 X10 Y10
G0 F2700 X186.43 Y185.299
M204 S1800
M205 X8 Y8
G1 F900 X185.831 Y184.699 E61.86949
M204 S3000
M205 X10 Y10
G0 F2700 X185.265 Y184.699
M204 S1800
M205 X8 Y8
G1 F900 X185.865 Y185.299 E61.89743
M204 S3000
M205 X10 Y10
G0 F2700 X185.299 Y185.299
M204 S1800
M205 X8 Y8
G1 F900 X184.699 Y184.699 E61.92537
M204 S3000
M205 X10 Y10
G0 F2700 X184.134 Y184.699
M204 S1800
M205 X8 Y8
G1 F900 X184.733 Y185.299 E61.95328
M204 S3000
M205 X10 Y10
G0 F2700 X184.168 Y185.299
M204 S1800
M205 X8 Y8
G1 F900 X183.568 Y184.699 E61.98122
M204 S3000
M205 X10 Y10
G0 F2700 X183.002 Y184.699
M204 S1800
M205 X8 Y8
G1 F900 X183.602 Y185.299 E62.00916
M204 S3000
M205 X10 Y10
G0 F2700 X183.036 Y185.299
M204 S1800
M205 X8 Y8
G1 F900 X182.437 Y184.699 E62.03708
M204 S3000
M205 X10 Y10
G0 F2700 X181.871 Y184.699
M204 S1800
M205 X8 Y8
G1 F900 X182.471 Y185.299 E62.06502
M204 S3000
M205 X10 Y10
G0 F2700 X181.905 Y185.299
M204 S1800
M205 X8 Y8
G1 F900 X181.305 Y184.699 E62.09296
M204 S3000
M205 X10 Y10
G0 F2700 X180.74 Y184.699
M204 S1800
M205 X8 Y8
G1 F900 X181.339 Y185.299 E62.12088
M204 S3000
M205 X10 Y10
G0 F2700 X180.773 Y185.299
M204 S1800
M205 X8 Y8
G1 F900 X180.174 Y184.699 E62.14879
M204 S3000
M205 X10 Y10
G0 F2700 X179.608 Y184.699
M204 S1800
M205 X8 Y8
G1 F900 X180.208 Y185.299 E62.17673
M204 S3000
M205 X10 Y10
G0 F2700 X179.642 Y185.299
M204 S1800
M205 X8 Y8
G1 F900 X179.042 Y184.699 E62.20467
M204 S3000
M205 X10 Y10
G0 F2700 X178.477 Y184.699
M204 S1800
M205 X8 Y8
G1 F900 X179.076 Y185.299 E62.23259
M204 S3000
M205 X10 Y10
G0 F2700 X178.511 Y185.299
M204 S1800
M205 X8 Y8
G1 F900 X177.911 Y184.699 E62.26053
M204 S3000
M205 X10 Y10
G0 F2700 X177.345 Y184.699
M204 S1800
M205 X8 Y8
G1 F900 X177.945 Y185.299 E62.28847
M204 S3000
M205 X10 Y10
G0 F2700 X177.379 Y185.299
M204 S1800
M205 X8 Y8
G1 F900 X176.78 Y184.699 E62.31639
M204 S3000
M205 X10 Y10
G0 F2700 X176.214 Y184.699
M204 S1800
M205 X8 Y8
G1 F900 X176.814 Y185.299 E62.34433
M204 S3000
