;FLAVOR:Marlin
;TIME:878
;Filament used: 3.20103m
;Layer height: 0.5
;MINX:178.012
;MINY:174.824
;MINZ:0.2
;MAXX:217.68
;MAXY:228.18
;MAXZ:32.7
;Generated with Cura_SteamEngine 4.11.0
M140 S70
M105
M190 S70
M104 S210
M105
M109 S210
M82 ;absolute extrusion mode
M107 ;Start with the fan off
G21 ;Set units to millimeters
G91 ;Change to relative positioning mode for retract filament and nozzle lifting
G1 F200 E-3 ;Retract 3mm filament for a clean start
G92 E0 ;Zero the extruded length
G1 F1000 Z5 ;Lift the nozzle 5mm before homing axes
G90 ;Absolute positioning
M82 ;Set extruder to absolute mode too
G28 X0 Y0 ;First move X/Y to min endstops
G28 Z0 ;Then move Z to min endstops
G1 F1000 Z15 ;After homing lift the nozzle 15mm before start printing

G92 E0
G92 E0
G1 F1200 E-3
;LAYER_COUNT:66
;LAYER:0
M107
M204 S3000
M205 X10 Y10
G1 F600 Z0.275
G0 F2700 X179.958 Y186.265 Z0.275
M204 S1800
M205 X8 Y8
;TYPE:SKIRT
G1 F600 Z0.2
G1 F2700 E0
G1 F2400 X180.355 Y185.896 E0.04997
G1 X180.614 Y185.674 E0.08142
G1 X182.591 Y183.93 E0.32448
G1 X184.554 Y182.099 E0.57197
G1 X186.436 Y180.24 E0.81587
G1 X188.229 Y178.365 E1.05505
G1 X188.721 Y177.826 E1.12234
G1 X189.064 Y177.464 E1.16832
G1 X189.596 Y176.963 E1.23569
G1 X190.179 Y176.523 E1.30303
G1 X190.807 Y176.149 E1.37042
G1 X191.744 Y175.746 E1.46446
G1 X192.373 Y175.531 E1.52575
G1 X192.556 Y175.471 E1.5435
G1 X193.14 Y175.29 E1.59987
G1 X193.849 Y175.113 E1.66725
G1 X194.802 Y174.998 E1.75575
G1 X194.971 Y174.99 E1.77135
G1 X197.959 Y174.888 E2.04699
G1 X198.834 Y174.844 E2.12777
G1 X199.053 Y174.837 E2.14797
G1 X199.791 Y174.824 E2.21602
G1 X200.152 Y174.826 E2.2493
G1 X200.881 Y174.875 E2.31667
G1 X201.6 Y175.003 E2.384
G1 X202.301 Y175.21 E2.45139
G1 X202.975 Y175.491 E2.51871
G1 X203.615 Y175.845 E2.58615
G1 X204.212 Y176.266 E2.6535
G1 X204.759 Y176.75 E2.72084
G1 X205.25 Y177.291 E2.78819
G1 X205.596 Y177.757 E2.84171
G1 X205.846 Y178.126 E2.8828
G1 X207.407 Y180.363 E3.13429
G1 X208.99 Y182.501 E3.37956
G1 X210.605 Y184.559 E3.62075
G1 X212.293 Y186.587 E3.86402
G1 X214.341 Y188.902 E4.14899
G1 X214.66 Y189.291 E4.19537
G1 X215.374 Y190.232 E4.30428
G1 X215.661 Y190.627 E4.34929
G1 X216.089 Y191.234 E4.41777
G1 X216.477 Y191.853 E4.48513
G1 X216.795 Y192.511 E4.5525
G1 X217.039 Y193.2 E4.61989
G1 X217.206 Y193.911 E4.68723
G1 X217.309 Y194.947 E4.78322
G1 X217.329 Y195.904 E4.87147
G1 X217.42 Y198.544 E5.11501
G1 X217.646 Y201.903 E5.4254
G1 X217.677 Y202.628 E5.49231
G1 X217.68 Y202.83 E5.51093
G1 X217.679 Y220.856 E7.17288
G1 X217.669 Y221.583 E7.23991
G1 X217.619 Y222.312 E7.30728
G1 X217.49 Y223.031 E7.37463
G1 X217.283 Y223.732 E7.44202
G1 X217 Y224.406 E7.50942
G1 X216.646 Y225.045 E7.57677
G1 X216.224 Y225.642 E7.64417
G1 X215.739 Y226.188 E7.7115
G1 X215.198 Y226.679 E7.77886
G1 X214.606 Y227.108 E7.84627
G1 X213.971 Y227.469 E7.91361
G1 X213.3 Y227.759 E7.98101
G1 X212.602 Y227.974 E8.04834
G1 X211.884 Y228.111 E8.11573
G1 X211.178 Y228.168 E8.18104
G1 X210.67 Y228.18 E8.22789
G1 X208.605 Y228.179 E8.41827
G1 X207.884 Y228.168 E8.48476
G1 X207.518 Y228.153 E8.51853
G1 X206.565 Y228.086 E8.60661
G1 X203.924 Y227.936 E8.85049
G1 X201.302 Y227.863 E9.09233
G1 X198.639 Y227.863 E9.33785
G1 X196.01 Y227.938 E9.58033
G1 X193.377 Y228.087 E9.82348
G1 X192.624 Y228.145 E9.89311
G1 X191.858 Y228.177 E9.96379
G1 X191.67 Y228.18 E9.98113
G1 X189.611 Y228.179 E10.17096
G1 X188.913 Y228.169 E10.23532
G1 X188.184 Y228.119 E10.30269
G1 X187.465 Y227.989 E10.37005
G1 X186.764 Y227.782 E10.43744
G1 X186.091 Y227.499 E10.50476
G1 X185.452 Y227.144 E10.57215
G1 X184.855 Y226.722 E10.63955
G1 X184.309 Y226.237 E10.70689
G1 X183.819 Y225.695 E10.77425
G1 X183.39 Y225.103 E10.84166
G1 X183.029 Y224.467 E10.90908
G1 X182.74 Y223.796 E10.97644
G1 X182.525 Y223.098 E11.04378
G1 X182.389 Y222.38 E11.11115
G1 X182.332 Y221.684 E11.17554
G1 X182.312 Y221.011 E11.23761
G1 X182.264 Y218.728 E11.44814
G1 X182.133 Y216.097 E11.69101
G1 X181.926 Y213.445 E11.93627
G1 X181.65 Y210.863 E12.17567
G1 X181.291 Y208.202 E12.42323
G1 X180.871 Y205.654 E12.66132
G1 X180.364 Y203.029 E12.90781
G1 X179.788 Y200.447 E13.15172
G1 X179.147 Y197.91 E13.39297
G1 X178.66 Y196.194 E13.55743
G1 X178.627 Y196.049 E13.57114
G1 X178.292 Y194.882 E13.68308
G1 X178.129 Y194.17 E13.75042
G1 X178.033 Y193.172 E13.84286
G1 X178.013 Y192.173 E13.93498
G1 X178.012 Y191.642 E13.98394
G1 X178.023 Y190.869 E14.05521
G1 X178.074 Y190.14 E14.12259
G1 X178.204 Y189.421 E14.18995
G1 X178.412 Y188.72 E14.25737
G1 X178.695 Y188.047 E14.32468
G1 X179.05 Y187.408 E14.39208
G1 X179.472 Y186.812 E14.45941
G1 X179.958 Y186.265 E14.52687
M204 S3000
M205 X10 Y10
G0 F2700 X180.576 Y187.241
M204 S1800
M205 X8 Y8
G1 F2400 X181.084 Y186.747 E14.5922
G1 X181.304 Y186.558 E14.61894
G1 X183.36 Y184.744 E14.87173
G1 X185.341 Y182.896 E15.1215
G1 X187.223 Y181.037 E15.3654
G1 X189.072 Y179.103 E15.61208
G1 X189.625 Y178.5 E15.68752
G1 X189.876 Y178.236 E15.7211
G1 X190.363 Y177.781 E15.78255
G1 X190.901 Y177.388 E15.84398
G1 X191.483 Y177.062 E15.90548
G1 X192.107 Y176.806 E15.96766
G1 X192.736 Y176.591 E16.02895
G1 X192.888 Y176.541 E16.0437
G1 X193.472 Y176.36 E16.10007
G1 X194.119 Y176.201 E16.1615
G1 X194.855 Y176.117 E16.2298
G1 X195.098 Y176.106 E16.25222
G1 X198.054 Y176.005 E16.52492
G1 X198.891 Y175.963 E16.60218
G1 X199.073 Y175.957 E16.61897
G1 X199.811 Y175.944 E16.68702
G1 X200.137 Y175.945 E16.71708
G1 X200.802 Y175.994 E16.77856
G1 X201.457 Y176.121 E16.84007
G1 X202.091 Y176.326 E16.9015
G1 X202.696 Y176.606 E16.96297
G1 X203.264 Y176.956 E17.02448
G1 X203.785 Y177.371 E17.08589
G1 X204.253 Y177.846 E17.14737
G1 X204.669 Y178.385 E17.21014
G1 X204.928 Y178.767 E17.25269
G1 X206.514 Y181.039 E17.50816
G1 X208.096 Y183.176 E17.75329
G1 X209.737 Y185.268 E17.99843
G1 X211.448 Y187.323 E18.24497
G1 X213.502 Y189.645 E18.53079
G1 X213.767 Y189.968 E18.56931
G1 X214.547 Y190.997 E18.68836
G1 X214.746 Y191.272 E18.71965
G1 X215.174 Y191.879 E18.78813
G1 X215.525 Y192.446 E18.84961
G1 X215.805 Y193.051 E18.91107
G1 X216.011 Y193.685 E18.97253
G1 X216.14 Y194.339 E19.03399
G1 X216.189 Y194.97 E19.09234
G1 X216.207 Y195.87 E19.17534
G1 X216.303 Y198.628 E19.42977
G1 X216.528 Y201.969 E19.7385
G1 X216.557 Y202.662 E19.80245
G1 X216.56 Y202.83 E19.81794
G1 X216.559 Y220.84 E21.47841
G1 X216.549 Y221.567 E21.54544
G1 X216.5 Y222.232 E21.60692
G1 X216.372 Y222.886 E21.66836
G1 X216.166 Y223.521 E21.72991
G1 X215.886 Y224.125 E21.79129
G1 X215.536 Y224.693 E21.8528
G1 X215.12 Y225.214 E21.91427
G1 X214.645 Y225.681 E21.97568
G1 X214.117 Y226.088 E22.03715
G1 X213.544 Y226.43 E22.09867
G1 X212.935 Y226.7 E22.16009
G1 X212.297 Y226.895 E22.2216
G1 X211.641 Y227.013 E22.28305
G1 X210.826 Y227.058 E22.35831
G1 X210.67 Y227.06 E22.37269
G1 X208.622 Y227.059 E22.56151
G1 X207.901 Y227.048 E22.62799
G1 X207.596 Y227.035 E22.65614
G1 X206.698 Y226.972 E22.73913
G1 X203.982 Y226.818 E22.98994
G1 X201.299 Y226.743 E23.2374
G1 X198.642 Y226.743 E23.48237
G1 X195.951 Y226.82 E23.73058
G1 X193.274 Y226.972 E23.97778
G1 X192.556 Y227.027 E24.04418
G1 X191.826 Y227.058 E24.11154
G1 X191.67 Y227.06 E24.12592
G1 X189.627 Y227.059 E24.31428
G1 X188.929 Y227.049 E24.37864
G1 X188.265 Y227 E24.44003
G1 X187.61 Y226.871 E24.50158
G1 X186.976 Y226.665 E24.56304
G1 X186.372 Y226.385 E24.62442
G1 X185.805 Y226.034 E24.6859
G1 X185.284 Y225.618 E24.74737
G1 X184.817 Y225.142 E24.80885
G1 X184.41 Y224.614 E24.87031
G1 X184.069 Y224.041 E24.93179
G1 X183.799 Y223.432 E24.99321
G1 X183.604 Y222.794 E25.05472
G1 X183.487 Y222.138 E25.11615
G1 X183.451 Y221.651 E25.16117
G1 X183.432 Y220.987 E25.22242
G1 X183.383 Y218.683 E25.43489
G1 X183.251 Y216.026 E25.68016
G1 X183.044 Y213.382 E25.92467
G1 X182.758 Y210.698 E26.17353
G1 X182.4 Y208.049 E26.41998
G1 X181.971 Y205.439 E26.66384
G1 X181.456 Y202.778 E26.91373
G1 X180.885 Y200.218 E27.15556
G1 X180.235 Y197.643 E27.40041
G1 X179.737 Y195.889 E27.56852
G1 X179.708 Y195.757 E27.58098
G1 X179.368 Y194.573 E27.69455
G1 X179.223 Y193.922 E27.75604
G1 X179.153 Y193.149 E27.8276
G1 X179.132 Y192.039 E27.92996
G1 X179.133 Y191.56 E27.97412
G1 X179.143 Y190.886 E28.03627
G1 X179.192 Y190.221 E28.09775
G1 X179.321 Y189.567 E28.15921
G1 X179.528 Y188.933 E28.2207
G1 X179.809 Y188.328 E28.2822
G1 X180.16 Y187.762 E28.3436
G1 X180.576 Y187.241 E28.40507
M204 S3000
M205 X10 Y10
G1 F1200 E25.40507
G0 F2700 X188.339 Y221.446
G0 X191.946 Y222.161
G0 X201.867 Y209.925
M204 S1800
M205 X8 Y8
G1 F2700 E28.40507
G1 F2400 X202.443 Y209.506 E28.47074
G1 X203.151 Y209.506 E28.53601
G1 X203.727 Y209.925 E28.60168
G1 X203.947 Y210.6 E28.66714
G1 X203.727 Y211.275 E28.73259
G1 X203.151 Y211.694 E28.79826
G1 X202.443 Y211.694 E28.86354
G1 X201.867 Y211.275 E28.92921
G1 X201.647 Y210.6 E28.99466
G1 X201.867 Y209.925 E29.06012
M204 S3000
M205 X10 Y10
G0 F2700 X200.914 Y209.234
M204 S1800
M205 X8 Y8
G1 F2400 X202.079 Y208.386 E29.19297
G1 X203.515 Y208.386 E29.32537
G1 X204.68 Y209.234 E29.45822
G1 X205.125 Y210.6 E29.59067
G1 X204.68 Y211.966 E29.72313
G1 X203.515 Y212.814 E29.85598
G1 X202.079 Y212.814 E29.98837
G1 X200.914 Y211.966 E30.12123
G1 X200.469 Y210.6 E30.25368
G1 X200.914 Y209.234 E30.38614
M204 S3000
M205 X10 Y10
G1 F1200 E27.38614
G0 F2700 X207.339 Y221.446
G0 X210.946 Y222.161
G0 X211.661 Y202.554
G0 X208.052 Y195.694
M204 S1800
M205 X8 Y8
G1 F2700 E30.38614
G1 F2400 X208.052 Y194.464 E30.49954
G1 X209.223 Y194.082 E30.6131
G1 X209.948 Y195.079 E30.72676
G1 X209.223 Y196.076 E30.84041
G1 X208.052 Y195.694 E30.95397
M204 S3000
M205 X10 Y10
G1 F1200 E27.95397
G0 F2700 X205.661 Y191.409
G0 X201.737 Y186.836
M204 S1800
M205 X8 Y8
G1 F2700 E30.95397
G1 F2400 X199.983 Y185.718 E31.14574
G1 X198.3 Y184.065 E31.36324
G1 X198.125 Y183.949 E31.38259
G1 X197.919 Y183.905 E31.40201
G1 X197.749 Y183.928 E31.41783
G1 X195.187 Y184.688 E31.66421
G1 X195.029 Y184.764 E31.68038
G1 X193.535 Y185.792 E31.84758
G1 X193.399 Y185.923 E31.86499
G1 X192.886 Y186.627 E31.9453
G1 X192.446 Y186.484 E31.98795
G1 X192.446 Y185.848 E32.04659
G1 X194.017 Y184.283 E32.25104
G1 X194.136 Y184.109 E32.27047
G1 X194.176 Y183.97 E32.28381
G1 X194.403 Y182.482 E32.42259
G1 X195.053 Y182.271 E32.48559
G1 X195.415 Y182.479 E32.52408
G1 X195.282 Y182.683 E32.54654
G1 X195.156 Y183.194 E32.59506
G1 X195.208 Y183.398 E32.61447
G1 X195.332 Y183.568 E32.63387
G1 X195.511 Y183.68 E32.65334
G1 X195.912 Y183.719 E32.69048
G1 X196.119 Y183.679 E32.70992
G1 X196.297 Y183.566 E32.72936
G1 X196.42 Y183.395 E32.74878
G1 X196.471 Y183.191 E32.76817
G1 X196.347 Y182.684 E32.81629
G1 X196.332 Y182.657 E32.81914
G1 X197.17 Y182.385 E32.90037
G1 X198.391 Y183.024 E33.02742
G1 X198.593 Y183.085 E33.04688
G1 X198.803 Y183.067 E33.06631
G1 X198.991 Y182.973 E33.08569
G1 X199.104 Y182.858 E33.10055
G1 X199.689 Y182.055 E33.19215
G1 X199.748 Y182.055 E33.19759
G1 X200.223 Y182.886 E33.28584
G1 X200.101 Y184.443 E33.42983
G1 X200.124 Y184.653 E33.44931
G1 X200.223 Y184.839 E33.46873
G1 X200.377 Y184.971 E33.48743
G1 X202.314 Y186.102 E33.69423
G1 X202.314 Y186.649 E33.74467
G1 X201.737 Y186.836 E33.80059
M204 S3000
M205 X10 Y10
G1 F1200 E30.80059
G0 F2700 X190.054 Y190.695
G0 X186.423 Y192.981
M204 S1800
M205 X8 Y8
G1 F2700 E33.80059
G1 F2400 X185.252 Y192.599 E33.91415
G1 X185.252 Y191.369 E34.02755
G1 X186.423 Y190.987 E34.14111
G1 X187.148 Y191.984 E34.25477
G1 X186.423 Y192.981 E34.36842
M204 S3000
M205 X10 Y10
G1 F1200 E31.36842
;MESH:fan bracket mod right 20.07.2022.stl
G0 F2700 X191.694 Y193.05
G0 X203.25 Y193.105
G1 F2700 E34.36842
G0 X203.32 Y193.035
M204 S1800
M205 X8 Y8
;TYPE:WALL-INNER
G1 F900 X203.32 Y193.595 E34.42005
G1 X203.32 Y203.82 E35.36277
G1 X191.68 Y203.82 E36.43594
G1 X191.68 Y193.036 E37.4302
G1 X202.76 Y193.035 E38.45174
G1 X203.32 Y193.035 E38.48514
M204 S3000
M205 X10 Y10
G0 F2700 X203.25 Y193.105
G0 X191.75 Y203.75
G0 X191.44 Y204.94
M204 S1800
M205 X8 Y8
;TYPE:WALL-OUTER
G1 F900 X191.44 Y220.94 E39.96029
G1 X189.56 Y220.94 E40.13362
G1 X189.56 Y203.06 E41.78211
G1 X190.56 Y203.06 E41.8743
G1 X190.56 Y191.916 E42.90175
G1 X203.88 Y191.915 E44.12981
G1 X204.44 Y191.915 E44.18144
G1 X204.44 Y192.475 E44.21484
G1 X204.44 Y203.06 E45.19075
G1 X210.44 Y203.06 E45.74393
G1 X210.44 Y220.94 E47.39242
G1 X208.56 Y220.94 E47.56575
G1 X208.56 Y204.94 E49.0409
G1 X191.44 Y204.94 E50.61931
M204 S3000
M205 X10 Y10
G0 F2700 X191.44 Y205.34
G0 X191.75 Y203.75
G0 X192.79 Y202.71
M204 S1800
M205 X8 Y8
;TYPE:SKIN
G1 F900 X192.79 Y194.146 E51.40889
G1 X202.21 Y194.145 E52.27739
G1 X202.21 Y202.71 E53.06705
G1 X192.79 Y202.71 E53.93555
M204 S3000
M205 X10 Y10
G0 F2700 X194.269 Y202.189
M204 S1800
M205 X8 Y8
G1 F900 X193.309 Y201.229 E54.06072
M204 S3000
M205 X10 Y10
G0 F2700 X193.309 Y199.645
M204 S1800
M205 X8 Y8
G1 F900 X195.853 Y202.189 E54.39242
M204 S3000
M205 X10 Y10
G0 F2700 X197.437 Y202.189
M204 S1800
M205 X8 Y8
G1 F900 X193.309 Y198.061 E54.93066
M204 S3000
M205 X10 Y10
G0 F2700 X193.309 Y196.477
M204 S1800
M205 X8 Y8
G1 F900 X199.021 Y202.189 E55.67543
M204 S3000
M205 X10 Y10
G0 F2700 X200.605 Y202.189
M204 S1800
M205 X8 Y8
G1 F900 X193.309 Y194.893 E56.62673
M204 S3000
M205 X10 Y10
G0 F2700 X194.665 Y194.665
M204 S1800
M205 X8 Y8
G1 F900 X201.69 Y201.69 E57.54269
M204 S3000
M205 X10 Y10
G0 F2700 X201.69 Y200.106
M204 S1800
M205 X8 Y8
G1 F900 X196.249 Y194.665 E58.25212
M204 S3000
M205 X10 Y10
G0 F2700 X197.832 Y194.665
M204 S1800
M205 X8 Y8
G1 F900 X201.69 Y198.522 E58.75509
M204 S3000
M205 X10 Y10
G0 F2700 X201.69 Y196.938
M204 S1800
M205 X8 Y8
G1 F900 X199.416 Y194.665 E59.05152
M204 S3000
M205 X10 Y10
G0 F2700 X201 Y194.665
M204 S1800
M205 X8 Y8
G1 F900 X201.69 Y195.354 E59.14142
M204 S3000
M205 X10 Y10
G0 F2700 X203.22 Y203.595
G0 X204.564 Y203.999
M204 S1800
M205 X8 Y8
;TYPE:SKIN
G1 F900 X204.121 Y204.121 E59.17098
G1 X206.827 Y203.999 E59.34521
G1 X208.524 Y203.999 E59.45437
G1 X209.499 Y204.973 E59.54302
G1 X209.499 Y219.681 E60.48909
G1 X209.375 Y220.123 E60.51862
M204 S3000
M205 X10 Y10
G0 F2700 X209.094 Y219.842
G0 X209.904 Y204.813
M204 S1800
M205 X8 Y8
G1 F900 X208.686 Y203.595 E60.57534
M204 S3000
M205 X10 Y10
G0 F2700 X209.577 Y203.921
M204 S1800
M205 X8 Y8
G1 F900 X209.86 Y203.638 E60.60976
M204 S3000
M205 X10 Y10
G0 F2700 X209.817 Y203.595
G0 X191.75 Y203.75
G0 X190.87 Y203.881
M204 S1800
M205 X8 Y8
G1 F900 X190.5 Y204.076 E60.63912
G1 X190.5 Y219.915 E61.75103
M204 S3000
M205 X10 Y10
G0 F2700 X190.423 Y220.404
M204 S1800
M205 X8 Y8
G1 F900 X190.095 Y220.076 E61.7663
M204 S3000
M205 X10 Y10
G1 F1200 E58.7663
;MESH:NONMESH
G0 F600 X190.095 Y220.076 Z0.7
G0 F2700 X188.335 Y220.076
G0 X188.339 Y202.554
G0 X189.339 Y191.41
G0 X194.22 Y181.883
;TIME_ELAPSED:46.010306
;LAYER:1
M140 S60
M106 S255
M204 S1800
M205 X8 Y8
;TYPE:SUPPORT
G1 F2700 E61.7663
G1 F1350 X194.78 Y181.701 E61.86325
G1 X195.591 Y183.361 E62.16742
G1 X195.985 Y183.818 E62.26676
G1 X196.513 Y183.611 E62.36013
G1 X196.448 Y181.843 E62.65141
G1 X197.128 Y181.622 E62.76912
G1 X198.577 Y182.727 E63.06914
G1 X199.419 Y181.569 E63.30486
G1 X199.624 Y181.569 E63.33861
G1 X200.591 Y183.301 E63.66519
G1 X199.877 Y184.821 E63.94168
G1 X202.21 Y185.73 E64.3539
G1 X202.21 Y186.39 E64.46256
G1 X201.457 Y186.635 E64.59293
G1 X199.494 Y185.872 E64.93967
G1 X197.99 Y184.1 E65.32232
G1 X196.921 Y183.483 E65.52553
G1 X196.817 Y184.777 E65.73926
G1 X195.853 Y184.919 E65.89969
G1 X195.304 Y184.519 E66.01152
G1 X194.414 Y185.721 E66.25775
G1 X192.876 Y186.453 E66.53818
G1 X192.521 Y185.965 E66.63754
G1 X193.032 Y185.261 E66.78076
G1 X194.209 Y184.425 E67.01844
G1 X194.22 Y181.883 E67.43695
M204 S3000
M205 X10 Y10
G0 F4950 X186.471 Y191.12
M204 S1800
M205 X8 Y8
G1 F1350 X187.302 Y192.264 E67.66975
G1 X186.471 Y193.408 E67.90254
G1 X185.127 Y192.97 E68.13526
G1 X185.127 Y191.558 E68.36773
G1 X186.471 Y191.12 E68.60046
M204 S3000
M205 X10 Y10
G1 F1200 E65.60046
G0 F4950 X189.96 Y189.312
G0 X205.04 Y189.311
G0 X207.927 Y194.182
M204 S1800
M205 X8 Y8
G1 F2700 E68.60046
G1 F1350 X209.271 Y193.744 E68.83319
G1 X210.102 Y194.888 E69.06598
G1 X209.271 Y196.032 E69.29877
G1 X207.927 Y195.594 E69.5315
