;FLAVOR:Marlin
;TIME:576
;Filament used: 1.71259m
;Layer height: 0.5
;MINX:163.584
;MINY:163.584
;MINZ:0.2
;MAXX:236.416
;MAXY:236.416
;MAXZ:5.2
;Generated with Cura_SteamEngine 4.11.0
M140 S70
M105
M190 S70
M104 S210
M105
M109 S210
M82 ;absolute extrusion mode
M107 ;Start with the fan off
G21 ;Set units to millimeters
G91 ;Change to relative positioning mode for retract filament and nozzle lifting
G1 F200 E-3 ;Retract 3mm filament for a clean start
G92 E0 ;Zero the extruded length
G1 F1000 Z5 ;Lift the nozzle 5mm before homing axes
G90 ;Absolute positioning
M82 ;Set extruder to absolute mode too
G28 X0 Y0 ;First move X/Y to min endstops
G28 Z0 ;Then move Z to min endstops
G1 F1000 Z15 ;After homing lift the nozzle 15mm before start printing

G92 E0
G92 E0
G1 F1200 E-3
;LAYER_COUNT:11
;LAYER:0
M107
M204 S3000
M205 X10 Y10
G1 F600 Z0.275
;MESH:spring arms only tall chamber 02.02.2021.stl
G0 F2700 X228.117 Y228.952 Z0.275
M204 S1800
M205 X8 Y8
;TYPE:WALL-INNER
G1 F600 Z0.2
G1 F2700 E0
G1 F900 X227.789 Y229.437 E0.05398
G1 X227.523 Y229.958 E0.10791
G1 X227.336 Y230.472 E0.15834
G1 X227.322 Y230.513 E0.16234
G1 X227.195 Y231.087 E0.21654
G1 X227.138 Y231.683 E0.27174
G1 X227.144 Y231.839 E0.28613
G1 X227.063 Y231.758
G1 X226.794 Y231.489 E0.30377
G1 X226.57 Y231.265 E0.31233
G1 X226.539 Y231.234 E0.31629
G1 X168.766 Y173.461 E7.8491
G1 X168.735 Y173.43 E7.85314
G1 X168.512 Y173.207 E7.88222
G1 X168.248 Y172.943 E7.91664
G1 X168.162 Y172.857 E7.92785
G1 X168.328 Y172.862
G1 X168.914 Y172.805 E7.95406
G1 X169.487 Y172.678 E7.99812
G1 X169.528 Y172.664 E8.00202
G1 X170.042 Y172.477 E8.05245
G1 X170.563 Y172.211 E8.10638
G1 X171.048 Y171.883 E8.16037
G1 X171.493 Y171.493 E8.21492
G1 X171.883 Y171.048 E8.26947
G1 X172.211 Y170.563 E8.32346
G1 X172.477 Y170.042 E8.37739
G1 X172.664 Y169.528 E8.42782
G1 X172.678 Y169.487 E8.43181
G1 X172.805 Y168.913 E8.48601
G1 X172.862 Y168.317 E8.54121
G1 X172.856 Y168.161 E8.55561
G1 X172.937 Y168.242
G1 X173.206 Y168.511 E8.57325
G1 X173.43 Y168.735 E8.58181
G1 X173.461 Y168.766 E8.58576
G1 X231.234 Y226.539 E16.11857
G1 X231.265 Y226.57 E16.12262
G1 X231.488 Y226.793 E16.15169
G1 X231.752 Y227.057 E16.18611
G1 X231.838 Y227.143 E16.19733
G1 X231.672 Y227.138
G1 X231.086 Y227.195 E16.22353
G1 X230.513 Y227.322 E16.26759
G1 X230.472 Y227.336 E16.2715
G1 X229.958 Y227.523 E16.32193
G1 X229.437 Y227.789 E16.37586
G1 X228.952 Y228.117 E16.42984
G1 X228.507 Y228.507 E16.48439
G1 X228.117 Y228.952 E16.53895
M204 S3000
M205 X10 Y10
G0 F2700 X228.237 Y232.166
G0 X228.218 Y234.277
G0 X229.852 Y235.711
G0 X231.957 Y236.178
G0 X234.04 Y235.573
G0 X234.712 Y234.063
G0 X234.633 Y234.002
M204 S1800
M205 X8 Y8
;TYPE:WALL-OUTER
G1 F900 X234.885 Y233.633 E16.58015
G1 X235.088 Y233.234 E16.62142
G1 X235.24 Y232.814 E16.6626
G1 X235.337 Y232.376 E16.70396
G1 X235.379 Y231.924 E16.74581
G1 X235.365 Y231.476 E16.78714
G1 X235.293 Y231.033 E16.82852
G1 X235.166 Y230.605 E16.86968
G1 X234.989 Y230.197 E16.91068
G1 X234.76 Y229.812 E16.95198
G1 X234.485 Y229.459 E16.99324
G1 X234.168 Y229.143 E17.03451
G1 X233.814 Y228.87 E17.07572
G1 X233.429 Y228.643 E17.11693
G1 X233.275 Y228.577 E17.13238
G1 X233.018 Y228.467 E17.15815
G1 X232.588 Y228.343 E17.19941
G1 X232.147 Y228.274 E17.24056
G1 X231.708 Y228.26 E17.28106
G1 X231.262 Y228.303 E17.32237
G1 X230.826 Y228.4 E17.36355
G1 X230.405 Y228.552 E17.40482
G1 X230.008 Y228.755 E17.44593
G1 X229.638 Y229.005 E17.4871
G1 X229.301 Y229.301 E17.52845
G1 X229.005 Y229.638 E17.5698
G1 X228.755 Y230.008 E17.61097
G1 X228.552 Y230.405 E17.65208
G1 X228.4 Y230.826 E17.69335
G1 X228.303 Y231.262 E17.73453
G1 X228.26 Y231.716 E17.77658
G1 X228.276 Y232.163 E17.81782
G1 X228.347 Y232.605 E17.85909
G1 X228.473 Y233.035 E17.9004
G1 X228.652 Y233.444 E17.94156
G1 X228.879 Y233.828 E17.98269
G1 X229.01 Y233.997 E18.0024
G1 X229.154 Y234.182 E18.02402
G1 X229.472 Y234.496 E18.06522
G1 X229.825 Y234.77 E18.10642
G1 X230.212 Y234.997 E18.14779
G1 X230.622 Y235.172 E18.18889
G1 X231.05 Y235.297 E18.22999
G1 X231.492 Y235.366 E18.27124
G1 X231.932 Y235.379 E18.31182
G1 X232.376 Y235.337 E18.35294
G1 X232.814 Y235.24 E18.3943
G1 X233.234 Y235.088 E18.43548
G1 X233.633 Y234.885 E18.47676
G1 X234.002 Y234.633 E18.51795
G1 X234.338 Y234.338 E18.55918
G1 X234.633 Y234.002 E18.6004
M204 S3000
M205 X10 Y10
G0 F2700 X234.859 Y233.672
G0 X234.94 Y233.729
G0 X236.178 Y231.948
G0 X235.701 Y229.833
G0 X171.974 Y170.365
G0 X171.245 Y169.992
M204 S1800
M205 X8 Y8
G1 F900 X171.448 Y169.595 E18.64151
G1 X171.6 Y169.174 E18.68278
G1 X171.697 Y168.738 E18.72396
G1 X171.74 Y168.284 E18.766
G1 X171.724 Y167.837 E18.80724
G1 X171.653 Y167.395 E18.84852
G1 X171.527 Y166.965 E18.88983
G1 X171.348 Y166.556 E18.93099
G1 X171.121 Y166.172 E18.97212
G1 X170.99 Y166.003 E18.99183
G1 X170.846 Y165.818 E19.01345
G1 X170.528 Y165.504 E19.05465
G1 X170.175 Y165.23 E19.09585
G1 X169.788 Y165.003 E19.13721
G1 X169.378 Y164.828 E19.17831
G1 X168.95 Y164.703 E19.21942
G1 X168.508 Y164.634 E19.26067
G1 X168.068 Y164.621 E19.30125
G1 X167.624 Y164.663 E19.34237
G1 X167.186 Y164.76 E19.38373
G1 X166.766 Y164.912 E19.42491
G1 X166.367 Y165.115 E19.46619
G1 X165.998 Y165.367 E19.50738
G1 X165.662 Y165.662 E19.54861
G1 X165.367 Y165.998 E19.58983
G1 X165.115 Y166.367 E19.63103
G1 X164.912 Y166.766 E19.6723
G1 X164.76 Y167.186 E19.71348
G1 X164.663 Y167.624 E19.75484
G1 X164.621 Y168.076 E19.79669
G1 X164.635 Y168.524 E19.83802
G1 X164.707 Y168.967 E19.8794
G1 X164.834 Y169.395 E19.92056
G1 X165.011 Y169.803 E19.96156
G1 X165.24 Y170.188 E20.00286
G1 X165.515 Y170.541 E20.04412
G1 X165.832 Y170.857 E20.08539
G1 X166.186 Y171.13 E20.1266
G1 X166.571 Y171.357 E20.16781
G1 X166.725 Y171.423 E20.18326
G1 X166.982 Y171.533 E20.20903
G1 X167.412 Y171.657 E20.25029
G1 X167.853 Y171.726 E20.29144
G1 X168.292 Y171.74 E20.33194
G1 X168.738 Y171.697 E20.37325
G1 X169.174 Y171.6 E20.41443
G1 X169.595 Y171.448 E20.4557
G1 X169.992 Y171.245 E20.49681
G1 X170.362 Y170.995 E20.53798
G1 X170.699 Y170.699 E20.57933
G1 X170.995 Y170.362 E20.62069
G1 X171.245 Y169.992 E20.66185
M204 S3000
M205 X10 Y10
G0 F2700 X171.427 Y169.636
G0 X172.156 Y170.009
G0 X169.913 Y172.181
G0 X167.85 Y171.765
G0 X165.738 Y171.792
G0 X164.299 Y170.167
G0 X164.03 Y166.923
G0 X163.936 Y166.89
M204 S1800
M205 X8 Y8
G1 F900 X164.087 Y166.47 E20.69404
G1 X164.106 Y166.417 E20.69529
G1 X164.13 Y166.369 E20.6963
G1 X164.334 Y165.969 E20.72872
G1 X164.359 Y165.921 E20.72979
G1 X164.39 Y165.875 E20.73095
G1 X164.641 Y165.506 E20.76318
G1 X164.67 Y165.463 E20.76401
G1 X164.71 Y165.418 E20.76558
G1 X165.006 Y165.083 E20.79778
G1 X165.043 Y165.041 E20.79918
G1 X165.082 Y165.006 E20.80008
G1 X165.417 Y164.711 E20.83229
G1 X165.463 Y164.67 E20.83396
G1 X165.505 Y164.642 E20.8347
G1 X165.874 Y164.391 E20.86686
G1 X165.921 Y164.359 E20.8681
G1 X165.969 Y164.335 E20.86935
G1 X166.367 Y164.132 E20.90154
G1 X166.417 Y164.106 E20.90278
G1 X166.47 Y164.087 E20.90403
G1 X166.889 Y163.937 E20.93607
G1 X166.937 Y163.919 E20.93714
G1 X166.996 Y163.906 E20.93895
G1 X167.433 Y163.809 E20.97117
G1 X167.485 Y163.797 E20.97214
G1 X167.542 Y163.792 E20.97344
G1 X167.986 Y163.751 E21.0055
G1 X168.054 Y163.744 E21.00793
G1 X168.095 Y163.745 E21.00821
G1 X168.535 Y163.759 E21.03994
G1 X168.599 Y163.761 E21.04187
G1 X168.646 Y163.768 E21.04266
G1 X169.088 Y163.839 E21.0749
G1 X169.159 Y163.851 E21.07749
G1 X169.196 Y163.861 E21.07751
G1 X169.624 Y163.987 E21.1097
G1 X169.682 Y164.004 E21.1113
G1 X169.726 Y164.023 E21.11209
G1 X170.135 Y164.2 E21.14419
G1 X170.21 Y164.233 E21.14759
G1 X170.235 Y164.247
G1 X170.622 Y164.477 E21.18009
G1 X170.681 Y164.513 E21.18245
G1 X170.713 Y164.538
G1 X171.066 Y164.813 E21.2147
G1 X171.12 Y164.855 E21.21713
G1 X171.148 Y164.883
G1 X171.464 Y165.199 E21.24933
G1 X171.709 Y165.444 E21.27583
G1 X171.716 Y165.437
G1 X171.786 Y165.507 E21.28249
G1 X172.091 Y165.812 E21.30795
G1 X234.057 Y227.778 E29.38748
G1 X234.175 Y227.896 E29.4015
G1 X234.481 Y228.202 E29.43705
G1 X234.729 Y228.45 E29.46272
G1 X234.726 Y228.461 E29.46377
G1 X234.788 Y228.523 E29.46782
G1 X235.104 Y228.839 E29.50002
G1 X235.151 Y228.886 E29.50212
G1 X235.18 Y228.923 E29.50293
G1 X235.452 Y229.277 E29.53509
G1 X235.498 Y229.336 E29.53802
G1 X235.516 Y229.367
G1 X235.743 Y229.753 E29.5703
G1 X235.778 Y229.812 E29.57275
G1 X235.793 Y229.848 E29.57289
G1 X235.97 Y230.256 E29.60494
G1 X235.996 Y230.315 E29.60688
G1 X236.009 Y230.363 E29.60752
G1 X236.132 Y230.791 E29.63959
G1 X236.153 Y230.862 E29.64245
G1 X236.158 Y230.894
G1 X236.229 Y231.337 E29.67477
G1 X236.239 Y231.399 E29.67676
G1 X236.24 Y231.449 E29.67747
G1 X236.254 Y231.897 E29.70976
G1 X236.256 Y231.957 E29.71154
G1 X236.252 Y232.005 E29.71208
G1 X236.209 Y232.458 E29.7449
G1 X236.203 Y232.515 E29.7462
G1 X236.192 Y232.564 E29.74718
G1 X236.095 Y233.004 E29.77964
G1 X236.081 Y233.063 E29.78122
G1 X236.064 Y233.11 E29.78214
G1 X235.913 Y233.53 E29.81432
G1 X235.894 Y233.583 E29.81557
G1 X235.87 Y233.631 E29.81658
G1 X235.666 Y234.031 E29.849
G1 X235.641 Y234.079 E29.85007
G1 X235.61 Y234.125 E29.85124
G1 X235.359 Y234.494 E29.88347
G1 X235.33 Y234.537 E29.88429
G1 X235.29 Y234.582 E29.88586
G1 X234.994 Y234.917 E29.91806
G1 X234.958 Y234.958 E29.91937
G1 X234.918 Y234.994 E29.92036
G1 X234.583 Y235.289 E29.95257
G1 X234.537 Y235.33 E29.95424
G1 X234.495 Y235.358 E29.95498
G1 X234.126 Y235.609 E29.98713
G1 X234.079 Y235.641 E29.98838
G1 X234.031 Y235.665 E29.98963
G1 X233.633 Y235.868 E30.02182
G1 X233.583 Y235.894 E30.02306
G1 X233.53 Y235.913 E30.02431
G1 X233.111 Y236.063 E30.05635
G1 X233.063 Y236.081 E30.05742
G1 X233.004 Y236.094 E30.05923
G1 X232.567 Y236.191 E30.09145
G1 X232.515 Y236.203 E30.09242
G1 X232.457 Y236.208 E30.09381
G1 X232.014 Y236.249 E30.12578
G1 X231.946 Y236.256 E30.12821
G1 X231.905 Y236.255 E30.12849
G1 X231.465 Y236.241 E30.16022
G1 X231.401 Y236.239 E30.16215
G1 X231.354 Y236.232 E30.16294
G1 X230.912 Y236.161 E30.19518
G1 X230.841 Y236.149 E30.19777
G1 X230.804 Y236.139 E30.19779
G1 X230.376 Y236.013 E30.22998
G1 X230.318 Y235.996 E30.23158
G1 X230.274 Y235.977 E30.23237
G1 X229.865 Y235.8 E30.26448
G1 X229.79 Y235.767 E30.26787
G1 X229.765 Y235.753
G1 X229.378 Y235.523 E30.30038
G1 X229.319 Y235.487 E30.30273
G1 X229.287 Y235.462
G1 X228.934 Y235.187 E30.33498
G1 X228.88 Y235.145 E30.33741
G1 X228.852 Y235.117
G1 X228.536 Y234.801 E30.36961
G1 X228.291 Y234.556 E30.39611
G1 X228.284 Y234.563
G1 X228.214 Y234.493 E30.40278
G1 X227.909 Y234.188 E30.42823
G1 X165.943 Y172.222 E38.50776
G1 X165.825 Y172.104 E38.52179
G1 X165.519 Y171.798 E38.55733
G1 X165.271 Y171.55 E38.58301
G1 X165.274 Y171.539 E38.58406
G1 X165.212 Y171.477 E38.5881
G1 X164.896 Y171.161 E38.6203
G1 X164.849 Y171.114 E38.62241
G1 X164.82 Y171.077 E38.62321
G1 X164.548 Y170.723 E38.65538
G1 X164.502 Y170.664 E38.6583
G1 X164.484 Y170.633
G1 X164.257 Y170.247 E38.69058
G1 X164.222 Y170.188 E38.69303
G1 X164.207 Y170.152 E38.69317
G1 X164.03 Y169.744 E38.72522
G1 X164.004 Y169.685 E38.72717
G1 X163.991 Y169.637 E38.7278
G1 X163.868 Y169.209 E38.75987
G1 X163.847 Y169.138 E38.76273
G1 X163.842 Y169.106
G1 X163.771 Y168.663 E38.79505
G1 X163.761 Y168.601 E38.79704
G1 X163.76 Y168.551 E38.79775
G1 X163.746 Y168.103 E38.83004
G1 X163.744 Y168.043 E38.83182
G1 X163.748 Y167.995 E38.83237
G1 X163.791 Y167.542 E38.86518
G1 X163.797 Y167.485 E38.86648
G1 X163.808 Y167.436 E38.86746
G1 X163.905 Y166.996 E38.89992
G1 X163.919 Y166.937 E38.9015
G1 X163.936 Y166.89 E38.90242
M204 S3000
M205 X10 Y10
G0 F2700 X164.071 Y166.514
G0 X164.165 Y166.548
G0 X164.083 Y169.668
G0 X165.305 Y171.458
G0 X170.402 Y173.527
M204 S1800
M205 X8 Y8
;TYPE:SKIN
G1 F900 X170.486 Y173.497 E38.91064
G1 X171.128 Y173.168 E38.97715
G1 X171.727 Y172.763 E39.04382
G1 X172.28 Y172.28 E39.11151
G1 X172.763 Y171.727 E39.17921
G1 X173.168 Y171.128 E39.24587
G1 X173.497 Y170.486 E39.31238
G1 X173.527 Y170.402 E39.32061
G1 X229.598 Y226.473 E46.6315
G1 X229.514 Y226.503 E46.63972
G1 X228.872 Y226.832 E46.70623
G1 X228.273 Y227.237 E46.7729
G1 X227.72 Y227.72 E46.84059
G1 X227.237 Y228.273 E46.90829
G1 X226.832 Y228.872 E46.97495
G1 X226.503 Y229.514 E47.04146
G1 X226.473 Y229.598 E47.04969
G1 X170.402 Y173.527 E54.36058
M204 S3000
M205 X10 Y10
G0 F2700 X226.641 Y228.225
M204 S1800
M205 X8 Y8
G1 F900 X171.775 Y173.359 E61.51436
M204 S3000
M205 X10 Y10
G0 F2700 X172.648 Y172.648
M204 S1800
M205 X8 Y8
G1 F900 X227.35 Y227.35 E68.64676
M204 S3000
M205 X10 Y10
G0 F2700 X228.224 Y226.64
M204 S1800
M205 X8 Y8
G1 F900 X173.358 Y171.774 E75.80053
G1 X173.217 Y171.633
M204 S3000
M205 X10 Y10
;MESH:NONMESH
G0 F600 X173.217 Y171.633 Z0.7
G0 F2700 X172.013 Y166.52
G0 X172.136 Y166.763
;TIME_ELAPSED:69.795380
;LAYER:1
M140 S60
M106 S255
M204 S1800
M205 X8 Y8
;TYPE:WALL-INNER
;MESH:spring arms only tall chamber 02.02.2021.stl
G1 F1650 X172.459 Y167.086 E75.87574
G1 X172.76 Y167.387 E75.94582
G1 X172.974 Y167.601 E75.99565
G1 X232.398 Y227.025 E89.83151
G1 X232.612 Y227.239 E89.88133
G1 X232.914 Y227.541 E89.95165
G1 X233.237 Y227.864 E90.02685
G1 X232.736 Y227.719 E90.04692
G1 X232.216 Y227.636 E90.09676
G1 X231.913 Y227.627 E90.13971
G1 X231.688 Y227.619 E90.17678
G1 X231.161 Y227.669 E90.26393
G1 X230.647 Y227.784 E90.35065
G1 X230.15 Y227.964 E90.43768
G1 X229.681 Y228.203 E90.52434
G1 X229.245 Y228.498 E90.61101
G1 X228.848 Y228.848 E90.69814
G1 X228.498 Y229.245 E90.78528
G1 X228.203 Y229.681 E90.87195
G1 X227.964 Y230.15 E90.95861
G1 X227.784 Y230.647 E91.04564
G1 X227.669 Y231.161 E91.13235
G1 X227.619 Y231.688 E91.2195
G1 X227.627 Y231.913 E91.25657
G1 X227.636 Y232.216 E91.30648
G1 X227.719 Y232.736 E91.39317
G1 X227.864 Y233.237 E91.47904
G1 X227.541 Y232.914 E91.48841
G1 X227.24 Y232.613 E91.53316
G1 X227.026 Y232.399 E91.57602
G1 X167.602 Y172.975 E105.41188
G1 X167.388 Y172.761 E105.4617
G1 X167.086 Y172.459 E105.53202
G1 X166.763 Y172.136 E105.60722
G1 X167.264 Y172.281 E105.6273
G1 X167.784 Y172.364 E105.67713
G1 X168.087 Y172.373 E105.72008
G1 X168.312 Y172.381 E105.75715
G1 X168.839 Y172.331 E105.8443
G1 X169.353 Y172.216 E105.93102
G1 X169.85 Y172.036 E106.01805
G1 X170.319 Y171.797 E106.10471
G1 X170.755 Y171.502 E106.19138
G1 X171.152 Y171.152 E106.27851
G1 X171.502 Y170.755 E106.36565
G1 X171.797 Y170.319 E106.45232
G1 X172.036 Y169.85 E106.53898
G1 X172.216 Y169.353 E106.62601
G1 X172.331 Y168.839 E106.71272
G1 X172.381 Y168.312 E106.79988
G1 X172.373 Y168.087 E106.83694
G1 X172.364 Y167.784 E106.8799
G1 X172.281 Y167.264 E106.94127
G1 X172.136 Y166.763 E106.96134
M204 S3000
M205 X10 Y10
G0 F4950 X171.975 Y168.777
G0 X171.215 Y170.536
G0 X169.703 Y171.706
G0 X167.816 Y172.004
G0 X166.213 Y171.076
G0 X166.269 Y170.993
M204 S1800
M205 X8 Y8
;TYPE:WALL-OUTER
G1 F1650 X166.636 Y171.21 E107.03154
G1 X167.028 Y171.38 E107.10188
G1 X167.439 Y171.499 E107.17233
G1 X167.86 Y171.566 E107.24251
G1 X168.287 Y171.58 E107.31285
G1 X168.713 Y171.539 E107.38331
G1 X169.129 Y171.446 E107.45349
G1 X169.531 Y171.301 E107.52385
G1 X169.911 Y171.107 E107.59409
G1 X170.264 Y170.868 E107.66428
G1 X170.585 Y170.585 E107.73473
G1 X170.868 Y170.264 E107.80519
G1 X171.107 Y169.911 E107.87537
G1 X171.301 Y169.531 E107.94562
G1 X171.446 Y169.129 E108.01597
G1 X171.539 Y168.713 E108.08615
G1 X171.58 Y168.287 E108.15661
G1 X171.566 Y167.86 E108.22695
G1 X171.499 Y167.439 E108.29714
G1 X171.38 Y167.028 E108.36758
G1 X171.21 Y166.636 E108.43793
G1 X170.993 Y166.269 E108.50812
G1 X170.732 Y165.931 E108.57843
G1 X170.429 Y165.629 E108.64886
G1 X170.091 Y165.368 E108.71917
G1 X169.724 Y165.15 E108.78945
G1 X169.332 Y164.981 E108.85973
G1 X168.923 Y164.861 E108.9299
G1 X168.5 Y164.794 E109.00041
G1 X168.073 Y164.781 E109.07074
G1 X167.649 Y164.821 E109.14086
G1 X167.231 Y164.914 E109.21136
G1 X166.83 Y165.059 E109.28157
G1 X166.449 Y165.253 E109.35196
G1 X166.096 Y165.493 E109.42223
G1 X165.776 Y165.776 E109.49256
G1 X165.493 Y166.096 E109.56289
G1 X165.253 Y166.449 E109.63317
G1 X165.059 Y166.83 E109.70356
G1 X164.914 Y167.231 E109.77377
G1 X164.821 Y167.649 E109.84427
G1 X164.781 Y168.073 E109.91438
