;FLAVOR:Marlin
;TIME:675
;Filament used: 2.52771m
;Layer height: 0.5
;MINX:152.029
;MINY:174.052
;MINZ:0.2
;MAXX:247.163
;MAXY:227.718
;MAXZ:10.2
;Generated with Cura_SteamEngine 4.11.0
M140 S70
M105
M190 S70
M104 S210
M105
M109 S210
M82 ;absolute extrusion mode
M107 ;Start with the fan off
G21 ;Set units to millimeters
G91 ;Change to relative positioning mode for retract filament and nozzle lifting
G1 F200 E-3 ;Retract 3mm filament for a clean start
G92 E0 ;Zero the extruded length
G1 F1000 Z5 ;Lift the nozzle 5mm before homing axes
G90 ;Absolute positioning
M82 ;Set extruder to absolute mode too
G28 X0 Y0 ;First move X/Y to min endstops
G28 Z0 ;Then move Z to min endstops
G1 F1000 Z15 ;After homing lift the nozzle 15mm before start printing

G92 E0
G92 E0
G1 F1200 E-3
;LAYER_COUNT:21
;LAYER:0
M107
M204 S3000
M205 X10 Y10
G1 F600 Z0.275
;MESH:pawl_side_normal_outer_arm_lidSide_16.08.2021.stl
G0 F2700 X241.351 Y178.702 Z0.275
M204 S1800
M205 X8 Y8
;TYPE:WALL-INNER
G1 F600 Z0.2
G1 F2700 E0
G1 F900 X242.511 Y179.862 E0.15125
G1 X222.981 Y199.392 E2.69769
G1 X214.142 Y190.553 E3.85018
G1 X178.787 Y225.908 E8.45999
G1 X166.412 Y213.534 E10.07346
G1 X158.649 Y221.297 E11.08565
G1 X157.885 Y220.533 E11.18526
G1 X157.884 Y220.532 E11.18539
G1 X157.489 Y220.138 E11.23683
G1 X157.884 Y219.743 E11.2701
G1 X169.948 Y207.679 E12.84308
G1 X182.322 Y220.054 E14.45655
G1 X217.678 Y184.698 E19.06649
G1 X226.121 Y193.141 E20.16734
G1 X226.122 Y193.142 E20.16747
G1 X226.516 Y193.537 E20.21891
G1 X226.911 Y193.142 E20.25218
G1 X241.351 Y178.702 E22.13496
M204 S3000
M205 X10 Y10
G0 F2700 X241.351 Y178.802
G0 X227.773 Y192.42
G0 X226.911 Y191.558
M204 S1800
M205 X8 Y8
;TYPE:WALL-OUTER
G1 F900 X241.351 Y177.118 E24.01774
G1 X244.095 Y179.862 E24.37552
G1 X222.981 Y200.976 E27.1285
G1 X214.142 Y192.137 E28.28099
G1 X178.787 Y227.492 E32.8908
G1 X166.412 Y215.118 E34.50426
G1 X158.649 Y222.881 E35.51645
G1 X156.301 Y220.533 E35.8226
G1 X156.3 Y220.532 E35.82273
G1 X155.905 Y220.138 E35.87417
G1 X156.3 Y219.743 E35.90744
G1 X169.948 Y206.095 E37.68696
G1 X182.322 Y218.47 E39.30042
G1 X217.678 Y183.114 E43.91036
G1 X226.121 Y191.557 E45.01121
G1 X226.122 Y191.558 E45.01134
G1 X226.516 Y191.953 E45.06278
G1 X226.911 Y191.558 E45.09606
M204 S3000
M205 X10 Y10
G0 F2700 X227.193 Y191.276
G0 X228.055 Y192.138
G0 X226.106 Y194.697
M204 S1800
M205 X8 Y8
;TYPE:SKIN
G1 F900 X222.981 Y197.822 E45.50351
G1 X214.553 Y189.394 E46.60241
G1 X217.678 Y186.268 E47.00993
G1 X226.106 Y194.697 E48.10889
M204 S3000
M205 X10 Y10
G0 F2700 X214.142 Y190.513
G0 X181.912 Y221.213
M204 S1800
M205 X8 Y8
G1 F900 X178.787 Y224.338 E48.51635
G1 X166.823 Y212.374 E50.07629
G1 X169.948 Y209.249 E50.48375
G1 X181.912 Y221.213 E52.04369
M204 S3000
M205 X10 Y10
G0 F2700 X179.019 Y223.369
M204 S1800
M205 X8 Y8
G1 F900 X167.79 Y212.14 E53.5078
M204 S3000
M205 X10 Y10
G0 F2700 X168.582 Y211.348
M204 S1800
M205 X8 Y8
G1 F900 X179.811 Y222.577 E54.97191
M204 S3000
M205 X10 Y10
G0 F2700 X180.603 Y221.785
M204 S1800
M205 X8 Y8
G1 F900 X169.374 Y210.556 E56.43602
G1 X169.233 Y210.415
M204 S3000
M205 X10 Y10
G0 F2700 X182.322 Y220.094
G0 X215.803 Y188.876
M204 S1800
M205 X8 Y8
G1 F900 X223.496 Y196.57 E57.43915
M204 S3000
M205 X10 Y10
G0 F2700 X224.288 Y195.778
M204 S1800
M205 X8 Y8
G1 F900 X216.595 Y188.084 E58.44228
M204 S3000
M205 X10 Y10
G0 F2700 X217.387 Y187.292
M204 S1800
M205 X8 Y8
G1 F900 X225.08 Y194.986 E59.4454
G1 X225.221 Y195.127
M204 S3000
M205 X10 Y10
G0 F2700 X226.516 Y194.271
M204 S1800
M205 X8 Y8
;TYPE:SKIN
G1 F900 X226.94 Y194.696 E59.46517
M204 S3000
M205 X10 Y10
G0 F2700 X227.223 Y194.414
M204 S1800
M205 X8 Y8
G1 F900 X226.798 Y193.989 E59.48496
M204 S3000
M205 X10 Y10
G0 F2700 X227.081 Y193.706
M204 S1800
M205 X8 Y8
G1 F900 X227.506 Y194.131 E59.50475
M204 S3000
M205 X10 Y10
G0 F2700 X227.789 Y193.848
M204 S1800
M205 X8 Y8
G1 F900 X227.364 Y193.423 E59.52454
M204 S3000
M205 X10 Y10
G0 F2700 X227.647 Y193.14
M204 S1800
M205 X8 Y8
G1 F900 X228.072 Y193.565 E59.54433
M204 S3000
M205 X10 Y10
G0 F2700 X228.355 Y193.282
M204 S1800
M205 X8 Y8
G1 F900 X227.93 Y192.857 E59.56412
M204 S3000
M205 X10 Y10
G0 F2700 X228.213 Y192.574
M204 S1800
M205 X8 Y8
G1 F900 X228.638 Y192.999 E59.58392
M204 S3000
M205 X10 Y10
G0 F2700 X228.92 Y192.717
M204 S1800
M205 X8 Y8
G1 F900 X228.495 Y192.292 E59.60371
M204 S3000
M205 X10 Y10
G0 F2700 X228.778 Y192.009
M204 S1800
M205 X8 Y8
G1 F900 X229.203 Y192.434 E59.6235
M204 S3000
M205 X10 Y10
G0 F2700 X229.486 Y192.151
M204 S1800
M205 X8 Y8
G1 F900 X229.061 Y191.726 E59.64329
M204 S3000
M205 X10 Y10
G0 F2700 X229.344 Y191.443
M204 S1800
M205 X8 Y8
G1 F900 X229.769 Y191.868 E59.66308
M204 S3000
M205 X10 Y10
G0 F2700 X230.052 Y191.585
M204 S1800
M205 X8 Y8
G1 F900 X229.627 Y191.16 E59.68287
M204 S3000
M205 X10 Y10
G0 F2700 X229.91 Y190.877
M204 S1800
M205 X8 Y8
G1 F900 X230.335 Y191.302 E59.70266
M204 S3000
M205 X10 Y10
G0 F2700 X230.617 Y191.019
M204 S1800
M205 X8 Y8
G1 F900 X230.192 Y190.594 E59.72245
M204 S3000
M205 X10 Y10
G0 F2700 X230.475 Y190.312
M204 S1800
M205 X8 Y8
G1 F900 X230.9 Y190.737 E59.74224
M204 S3000
M205 X10 Y10
G0 F2700 X231.183 Y190.454
M204 S1800
M205 X8 Y8
G1 F900 X230.758 Y190.029 E59.76203
M204 S3000
M205 X10 Y10
G0 F2700 X231.041 Y189.746
M204 S1800
M205 X8 Y8
G1 F900 X231.466 Y190.171 E59.78182
M204 S3000
M205 X10 Y10
G0 F2700 X231.749 Y189.888
M204 S1800
M205 X8 Y8
G1 F900 X231.324 Y189.463 E59.80161
M204 S3000
M205 X10 Y10
G0 F2700 X231.607 Y189.18
M204 S1800
M205 X8 Y8
G1 F900 X232.032 Y189.605 E59.8214
M204 S3000
M205 X10 Y10
G0 F2700 X232.314 Y189.322
M204 S1800
M205 X8 Y8
G1 F900 X231.89 Y188.897 E59.84117
M204 S3000
M205 X10 Y10
G0 F2700 X232.172 Y188.615
M204 S1800
M205 X8 Y8
G1 F900 X232.597 Y189.04 E59.86096
M204 S3000
M205 X10 Y10
G0 F2700 X232.88 Y188.757
M204 S1800
M205 X8 Y8
G1 F900 X232.455 Y188.332 E59.88075
M204 S3000
M205 X10 Y10
G0 F2700 X232.738 Y188.049
M204 S1800
M205 X8 Y8
G1 F900 X233.163 Y188.474 E59.90054
M204 S3000
M205 X10 Y10
G0 F2700 X233.446 Y188.191
M204 S1800
M205 X8 Y8
G1 F900 X233.021 Y187.766 E59.92034
M204 S3000
M205 X10 Y10
G0 F2700 X233.304 Y187.483
M204 S1800
M205 X8 Y8
G1 F900 X233.729 Y187.908 E59.94013
M204 S3000
M205 X10 Y10
G0 F2700 X234.012 Y187.625
M204 S1800
M205 X8 Y8
G1 F900 X233.587 Y187.2 E59.95992
M204 S3000
M205 X10 Y10
G0 F2700 X233.869 Y186.918
M204 S1800
M205 X8 Y8
G1 F900 X234.294 Y187.342 E59.97968
M204 S3000
M205 X10 Y10
G0 F2700 X234.577 Y187.06
M204 S1800
M205 X8 Y8
G1 F900 X234.152 Y186.635 E59.99948
M204 S3000
M205 X10 Y10
G0 F2700 X234.435 Y186.352
M204 S1800
M205 X8 Y8
G1 F900 X234.86 Y186.777 E60.01927
M204 S3000
M205 X10 Y10
G0 F2700 X235.143 Y186.494
M204 S1800
M205 X8 Y8
G1 F900 X234.718 Y186.069 E60.03906
M204 S3000
M205 X10 Y10
G0 F2700 X235.001 Y185.786
M204 S1800
M205 X8 Y8
G1 F900 X235.426 Y186.211 E60.05885
M204 S3000
M205 X10 Y10
G0 F2700 X235.709 Y185.928
M204 S1800
M205 X8 Y8
G1 F900 X235.284 Y185.503 E60.07864
M204 S3000
M205 X10 Y10
G0 F2700 X235.566 Y185.22
M204 S1800
M205 X8 Y8
G1 F900 X235.991 Y185.645 E60.09843
M204 S3000
M205 X10 Y10
G0 F2700 X236.274 Y185.363
M204 S1800
M205 X8 Y8
G1 F900 X235.849 Y184.938 E60.11822
M204 S3000
M205 X10 Y10
G0 F2700 X236.132 Y184.655
M204 S1800
M205 X8 Y8
G1 F900 X236.557 Y185.08 E60.13801
M204 S3000
M205 X10 Y10
G0 F2700 X236.84 Y184.797
M204 S1800
M205 X8 Y8
G1 F900 X236.415 Y184.372 E60.1578
M204 S3000
M205 X10 Y10
G0 F2700 X236.698 Y184.089
M204 S1800
M205 X8 Y8
G1 F900 X237.123 Y184.514 E60.17759
M204 S3000
M205 X10 Y10
G0 F2700 X237.406 Y184.231
M204 S1800
M205 X8 Y8
G1 F900 X236.981 Y183.806 E60.19738
M204 S3000
M205 X10 Y10
G0 F2700 X237.264 Y183.523
M204 S1800
M205 X8 Y8
G1 F900 X237.688 Y183.948 E60.21715
M204 S3000
M205 X10 Y10
G0 F2700 X237.971 Y183.666
M204 S1800
M205 X8 Y8
G1 F900 X237.546 Y183.241 E60.23694
M204 S3000
M205 X10 Y10
G0 F2700 X237.829 Y182.958
M204 S1800
M205 X8 Y8
G1 F900 X238.254 Y183.383 E60.25673
M204 S3000
M205 X10 Y10
G0 F2700 X238.537 Y183.1
M204 S1800
M205 X8 Y8
G1 F900 X238.112 Y182.675 E60.27652
M204 S3000
M205 X10 Y10
G0 F2700 X238.395 Y182.392
M204 S1800
M205 X8 Y8
G1 F900 X238.82 Y182.817 E60.29631
M204 S3000
M205 X10 Y10
G0 F2700 X239.103 Y182.534
M204 S1800
M205 X8 Y8
G1 F900 X238.678 Y182.109 E60.3161
M204 S3000
M205 X10 Y10
G0 F2700 X238.961 Y181.826
M204 S1800
M205 X8 Y8
G1 F900 X239.386 Y182.251 E60.3359
M204 S3000
M205 X10 Y10
G0 F2700 X239.668 Y181.968
M204 S1800
M205 X8 Y8
G1 F900 X239.243 Y181.544 E60.35566
M204 S3000
M205 X10 Y10
G0 F2700 X239.526 Y181.261
M204 S1800
M205 X8 Y8
G1 F900 X239.951 Y181.686 E60.37545
M204 S3000
M205 X10 Y10
G0 F2700 X240.234 Y181.403
M204 S1800
M205 X8 Y8
G1 F900 X239.809 Y180.978 E60.39524
M204 S3000
M205 X10 Y10
G0 F2700 X240.092 Y180.695
M204 S1800
M205 X8 Y8
G1 F900 X240.517 Y181.12 E60.41504
M204 S3000
M205 X10 Y10
G0 F2700 X240.8 Y180.837
M204 S1800
M205 X8 Y8
G1 F900 X240.375 Y180.412 E60.43483
M204 S3000
M205 X10 Y10
G0 F2700 X240.658 Y180.129
M204 S1800
M205 X8 Y8
G1 F900 X241.083 Y180.554 E60.45462
M204 S3000
M205 X10 Y10
G0 F2700 X241.365 Y180.271
M204 S1800
M205 X8 Y8
G1 F900 X240.94 Y179.846 E60.47441
M204 S3000
M205 X10 Y10
G0 F2700 X241.223 Y179.564
M204 S1800
M205 X8 Y8
G1 F900 X241.648 Y179.989 E60.4942
M204 S3000
M205 X10 Y10
G0 F2700 X226.516 Y193.577
G0 X214.142 Y189.817
M204 S1800
M205 X8 Y8
G1 F900 X213.717 Y189.392 E60.51399
M204 S3000
M205 X10 Y10
G0 F2700 X213.434 Y189.675
M204 S1800
M205 X8 Y8
G1 F900 X213.859 Y190.1 E60.53378
M204 S3000
M205 X10 Y10
G0 F2700 X213.576 Y190.383
M204 S1800
M205 X8 Y8
G1 F900 X213.151 Y189.958 E60.55357
M204 S3000
M205 X10 Y10
G0 F2700 X212.868 Y190.241
M204 S1800
M205 X8 Y8
G1 F900 X213.293 Y190.666 E60.57336
M204 S3000
M205 X10 Y10
G0 F2700 X213.01 Y190.949
M204 S1800
M205 X8 Y8
G1 F900 X212.585 Y190.524 E60.59315
M204 S3000
M205 X10 Y10
G0 F2700 X212.303 Y190.807
M204 S1800
M205 X8 Y8
G1 F900 X212.728 Y191.232 E60.61294
M204 S3000
M205 X10 Y10
G0 F2700 X212.445 Y191.514
M204 S1800
M205 X8 Y8
G1 F900 X212.02 Y191.089 E60.63273
M204 S3000
M205 X10 Y10
G0 F2700 X211.737 Y191.372
M204 S1800
M205 X8 Y8
G1 F900 X212.162 Y191.797 E60.65253
M204 S3000
M205 X10 Y10
G0 F2700 X211.879 Y192.08
M204 S1800
M205 X8 Y8
G1 F900 X211.454 Y191.655 E60.67232
M204 S3000
M205 X10 Y10
G0 F2700 X211.171 Y191.938
M204 S1800
M205 X8 Y8
G1 F900 X211.596 Y192.363 E60.69211
M204 S3000
M205 X10 Y10
G0 F2700 X211.313 Y192.646
M204 S1800
M205 X8 Y8
G1 F900 X210.888 Y192.221 E60.7119
M204 S3000
M205 X10 Y10
G0 F2700 X210.606 Y192.504
M204 S1800
M205 X8 Y8
G1 F900 X211.031 Y192.929 E60.73169
M204 S3000
M205 X10 Y10
G0 F2700 X210.748 Y193.211
M204 S1800
M205 X8 Y8
G1 F900 X210.323 Y192.787 E60.75146
M204 S3000
M205 X10 Y10
G0 F2700 X210.04 Y193.069
M204 S1800
M205 X8 Y8
G1 F900 X210.465 Y193.494 E60.77125
M204 S3000
M205 X10 Y10
G0 F2700 X210.182 Y193.777
M204 S1800
M205 X8 Y8
G1 F900 X209.757 Y193.352 E60.79104
M204 S3000
M205 X10 Y10
G0 F2700 X209.474 Y193.635
M204 S1800
M205 X8 Y8
G1 F900 X209.899 Y194.06 E60.81083
M204 S3000
M205 X10 Y10
G0 F2700 X209.616 Y194.343
M204 S1800
M205 X8 Y8
G1 F900 X209.191 Y193.918 E60.83062
M204 S3000
M205 X10 Y10
G0 F2700 X208.909 Y194.201
M204 S1800
M205 X8 Y8
G1 F900 X209.334 Y194.626 E60.85041
M204 S3000
M205 X10 Y10
G0 F2700 X209.051 Y194.909
M204 S1800
M205 X8 Y8
G1 F900 X208.626 Y194.484 E60.8702
M204 S3000
M205 X10 Y10
G0 F2700 X208.343 Y194.766
M204 S1800
M205 X8 Y8
G1 F900 X208.768 Y195.191 E60.88999
M204 S3000
M205 X10 Y10
G0 F2700 X208.485 Y195.474
M204 S1800
M205 X8 Y8
G1 F900 X208.06 Y195.049 E60.90978
M204 S3000
M205 X10 Y10
G0 F2700 X207.777 Y195.332
M204 S1800
M205 X8 Y8
G1 F900 X208.202 Y195.757 E60.92957
M204 S3000
M205 X10 Y10
G0 F2700 X207.919 Y196.04
M204 S1800
M205 X8 Y8
G1 F900 X207.494 Y195.615 E60.94936
M204 S3000
M205 X10 Y10
G0 F2700 X207.211 Y195.898
M204 S1800
M205 X8 Y8
G1 F900 X207.636 Y196.323 E60.96915
M204 S3000
M205 X10 Y10
G0 F2700 X207.354 Y196.606
M204 S1800
M205 X8 Y8
G1 F900 X206.929 Y196.181 E60.98895
M204 S3000
M205 X10 Y10
G0 F2700 X206.646 Y196.463
M204 S1800
M205 X8 Y8
G1 F900 X207.071 Y196.888 E61.00874
M204 S3000
M205 X10 Y10
G0 F2700 X206.788 Y197.171
M204 S1800
M205 X8 Y8
G1 F900 X206.363 Y196.746 E61.02853
M204 S3000
M205 X10 Y10
G0 F2700 X206.08 Y197.029
M204 S1800
M205 X8 Y8
G1 F900 X206.505 Y197.454 E61.04832
M204 S3000
M205 X10 Y10
G0 F2700 X206.222 Y197.737
M204 S1800
M205 X8 Y8
G1 F900 X205.797 Y197.312 E61.06811
M204 S3000
M205 X10 Y10
G0 F2700 X205.514 Y197.595
M204 S1800
M205 X8 Y8
G1 F900 X205.939 Y198.02 E61.0879
M204 S3000
M205 X10 Y10
G0 F2700 X205.657 Y198.303
M204 S1800
M205 X8 Y8
G1 F900 X205.232 Y197.878 E61.10769
M204 S3000
M205 X10 Y10
G0 F2700 X204.949 Y198.161
M204 S1800
M205 X8 Y8
G1 F900 X205.374 Y198.585 E61.12746
M204 S3000
M205 X10 Y10
G0 F2700 X205.091 Y198.868
M204 S1800
M205 X8 Y8
G1 F900 X204.666 Y198.443 E61.14725
M204 S3000
M205 X10 Y10
G0 F2700 X204.383 Y198.726
M204 S1800
M205 X8 Y8
G1 F900 X204.808 Y199.151 E61.16704
M204 S3000
M205 X10 Y10
G0 F2700 X204.525 Y199.434
M204 S1800
M205 X8 Y8
G1 F900 X204.1 Y199.009 E61.18683
M204 S3000
M205 X10 Y10
G0 F2700 X203.817 Y199.292
M204 S1800
M205 X8 Y8
G1 F900 X204.242 Y199.717 E61.20662
M204 S3000
M205 X10 Y10
G0 F2700 X203.96 Y200
M204 S1800
M205 X8 Y8
G1 F900 X203.535 Y199.575 E61.22641
M204 S3000
M205 X10 Y10
G0 F2700 X203.252 Y199.858
M204 S1800
M205 X8 Y8
G1 F900 X203.677 Y200.283 E61.2462
M204 S3000
M205 X10 Y10
G0 F2700 X203.394 Y200.565
M204 S1800
M205 X8 Y8
G1 F900 X202.969 Y200.14 E61.26599
M204 S3000
M205 X10 Y10
G0 F2700 X202.686 Y200.423
M204 S1800
M205 X8 Y8
G1 F900 X203.111 Y200.848 E61.28578
M204 S3000
M205 X10 Y10
G0 F2700 X202.828 Y201.131
M204 S1800
M205 X8 Y8
G1 F900 X202.403 Y200.706 E61.30557
M204 S3000
M205 X10 Y10
G0 F2700 X202.12 Y200.989
M204 S1800
M205 X8 Y8
G1 F900 X202.545 Y201.414 E61.32537
M204 S3000
M205 X10 Y10
G0 F2700 X202.262 Y201.697
M204 S1800
M205 X8 Y8
G1 F900 X201.837 Y201.272 E61.34516
M204 S3000
M205 X10 Y10
G0 F2700 X201.555 Y201.555
M204 S1800
M205 X8 Y8
G1 F900 X201.98 Y201.98 E61.36495
M204 S3000
M205 X10 Y10
G0 F2700 X201.697 Y202.262
M204 S1800
M205 X8 Y8
G1 F900 X201.272 Y201.837 E61.38474
M204 S3000
M205 X10 Y10
G0 F2700 X200.989 Y202.12
M204 S1800
M205 X8 Y8
G1 F900 X201.414 Y202.545 E61.40453
M204 S3000
M205 X10 Y10
G0 F2700 X201.131 Y202.828
M204 S1800
M205 X8 Y8
G1 F900 X200.706 Y202.403 E61.42432
M204 S3000
M205 X10 Y10
G0 F2700 X200.423 Y202.686
M204 S1800
M205 X8 Y8
G1 F900 X200.848 Y203.111 E61.44411
M204 S3000
M205 X10 Y10
G0 F2700 X200.565 Y203.394
M204 S1800
M205 X8 Y8
G1 F900 X200.14 Y202.969 E61.4639
M204 S3000
M205 X10 Y10
G0 F2700 X199.858 Y203.252
M204 S1800
M205 X8 Y8
G1 F900 X200.283 Y203.677 E61.48369
M204 S3000
M205 X10 Y10
G0 F2700 X200 Y203.96
M204 S1800
M205 X8 Y8
G1 F900 X199.575 Y203.535 E61.50348
M204 S3000
M205 X10 Y10
G0 F2700 X199.292 Y203.817
M204 S1800
M205 X8 Y8
G1 F900 X199.717 Y204.242 E61.52327
M204 S3000
M205 X10 Y10
G0 F2700 X199.434 Y204.525
M204 S1800
M205 X8 Y8
G1 F900 X199.009 Y204.1 E61.54306
M204 S3000
M205 X10 Y10
G0 F2700 X198.726 Y204.383
M204 S1800
M205 X8 Y8
G1 F900 X199.151 Y204.808 E61.56285
M204 S3000
M205 X10 Y10
G0 F2700 X198.868 Y205.091
M204 S1800
M205 X8 Y8
G1 F900 X198.443 Y204.666 E61.58265
M204 S3000
M205 X10 Y10
G0 F2700 X198.161 Y204.949
M204 S1800
M205 X8 Y8
G1 F900 X198.585 Y205.374 E61.60241
M204 S3000
M205 X10 Y10
G0 F2700 X198.303 Y205.657
M204 S1800
M205 X8 Y8
G1 F900 X197.878 Y205.232 E61.6222
M204 S3000
M205 X10 Y10
G0 F2700 X197.595 Y205.514
M204 S1800
M205 X8 Y8
G1 F900 X198.02 Y205.939 E61.64199
M204 S3000
M205 X10 Y10
G0 F2700 X197.737 Y206.222
M204 S1800
M205 X8 Y8
G1 F900 X197.312 Y205.797 E61.66179
M204 S3000
M205 X10 Y10
G0 F2700 X197.029 Y206.08
M204 S1800
M205 X8 Y8
G1 F900 X197.454 Y206.505 E61.68158
M204 S3000
M205 X10 Y10
G0 F2700 X197.171 Y206.788
M204 S1800
M205 X8 Y8
G1 F900 X196.746 Y206.363 E61.70137
M204 S3000
M205 X10 Y10
G0 F2700 X196.463 Y206.646
M204 S1800
M205 X8 Y8
G1 F900 X196.888 Y207.071 E61.72116
M204 S3000
M205 X10 Y10
G0 F2700 X196.606 Y207.354
M204 S1800
