;FLAVOR:Marlin
;TIME:1106
;Filament used: 4.08964m
;Layer height: 0.5
;MINX:152.025
;MINY:159.254
;MINZ:0.2
;MAXX:247.977
;MAXY:240.748
;MAXZ:14.7
;Generated with Cura_SteamEngine 4.11.0
M140 S70
M105
M190 S70
M104 S210
M105
M109 S210
M82 ;absolute extrusion mode
M107 ;Start with the fan off
G21 ;Set units to millimeters
G91 ;Change to relative positioning mode for retract filament and nozzle lifting
G1 F200 E-3 ;Retract 3mm filament for a clean start
G92 E0 ;Zero the extruded length
G1 F1000 Z5 ;Lift the nozzle 5mm before homing axes
G90 ;Absolute positioning
M82 ;Set extruder to absolute mode too
G28 X0 Y0 ;First move X/Y to min endstops
G28 Z0 ;Then move Z to min endstops
G1 F1000 Z15 ;After homing lift the nozzle 15mm before start printing

G92 E0
G92 E0
G1 F1200 E-3
;LAYER_COUNT:31
;LAYER:0
M107
M204 S3000
M205 X10 Y10
G1 F600 Z0.275
;MESH:motor case latch top little shorter  04.07.2021 edit.stl
G0 F2700 X178.033 Y163.946 Z0.275
M204 S1800
M205 X8 Y8
;TYPE:WALL-INNER
G1 F600 Z0.2
G1 F2700 E0
G1 F900 X178.573 Y163.011 E0.09955
G1 X233.345 Y194.633 E5.93055
G1 X232.805 Y195.57 E6.03026
G1 X232.526 Y196.055 E6.08184
G1 X232.042 Y195.775 E6.11516
G1 X178.237 Y164.711 E11.84323
G1 X177.753 Y164.431 E11.89478
G1 X178.033 Y163.946 E11.94641
M204 S3000
M205 X10 Y10
G0 F2700 X157.994 Y198.042
G0 X211.542 Y231.282
M204 S1800
M205 X8 Y8
G1 F900 X157.738 Y200.219 E17.67435
G1 X157.254 Y199.939 E17.7259
G1 X157.534 Y199.454 E17.77754
G1 X158.074 Y198.519 E17.87708
G1 X212.845 Y230.14 E23.70796
G1 X212.305 Y231.077 E23.80767
G1 X212.026 Y231.562 E23.85925
G1 X211.542 Y231.282 E23.89257
M204 S3000
M205 X10 Y10
G0 F2700 X157.994 Y198.042
G0 X158.511 Y197.477
M204 S1800
M205 X8 Y8
;TYPE:WALL-OUTER
G1 F900 X158.512 Y197.478 E23.8927
G1 X206.377 Y225.113 E28.98841
G1 X208.127 Y222.082 E29.3111
G1 X208.855 Y222.502 E29.38859
G1 X207.106 Y225.534 E29.63091
G1 X214.375 Y229.73 E30.40473
G1 X212.715 Y232.607 E30.71097
G1 X212.436 Y233.092 E30.76256
G1 X211.952 Y232.812 E30.79587
G1 X155.724 Y200.349 E36.7819
G1 X157.594 Y197.109 E37.1268
G1 X157.663 Y196.989 E37.13956
G1 X176.223 Y164.842 E40.56193
G1 X177.883 Y161.966 E40.86809
G1 X178.163 Y161.481 E40.91972
G1 X178.647 Y161.76 E40.97123
G1 X234.875 Y194.223 E46.95725
G1 X233.215 Y197.1 E47.26349
G1 X232.936 Y197.585 E47.31507
G1 X232.452 Y197.305 E47.34839
G1 X225.666 Y193.387 E48.07083
G1 X223.916 Y196.418 E48.39351
G1 X223.188 Y195.998 E48.471
G1 X224.937 Y192.966 E48.71333
G1 X176.952 Y165.262 E53.82181
G1 X158.461 Y197.29 E57.23149
G1 X158.392 Y197.409 E57.24417
G1 X158.511 Y197.477 E57.25234
M204 S3000
M205 X10 Y10
G0 F2700 X158.512 Y197.478
G0 X158.857 Y197.677
G0 X158.306 Y197.358
G0 X158.184 Y199.365
M204 S1800
M205 X8 Y8
;TYPE:SKIN
G1 F900 X159.388 Y200.57 E57.40939
M204 S3000
M205 X10 Y10
G0 F2700 X161.496 Y201.094
M204 S1800
M205 X8 Y8
G1 F900 X163.136 Y202.734 E57.62322
M204 S3000
M205 X10 Y10
G0 F2700 X165.243 Y203.257
M204 S1800
M205 X8 Y8
G1 F900 X166.884 Y204.898 E57.83718
M204 S3000
M205 X10 Y10
G0 F2700 X168.991 Y205.421
M204 S1800
M205 X8 Y8
G1 F900 X170.631 Y207.062 E58.05108
M204 S3000
M205 X10 Y10
G0 F2700 X172.738 Y207.584
M204 S1800
M205 X8 Y8
G1 F900 X174.379 Y209.225 E58.26505
M204 S3000
M205 X10 Y10
G0 F2700 X176.486 Y209.748
M204 S1800
M205 X8 Y8
G1 F900 X178.127 Y211.389 E58.47901
M204 S3000
M205 X10 Y10
G0 F2700 X180.233 Y211.912
M204 S1800
M205 X8 Y8
G1 F900 X181.874 Y213.553 E58.69297
M204 S3000
M205 X10 Y10
G0 F2700 X183.98 Y214.075
M204 S1800
M205 X8 Y8
G1 F900 X185.622 Y215.717 E58.90707
M204 S3000
M205 X10 Y10
G0 F2700 X187.728 Y216.238
M204 S1800
M205 X8 Y8
G1 F900 X189.37 Y217.88 E59.12116
M204 S3000
M205 X10 Y10
G0 F2700 X191.476 Y218.402
M204 S1800
M205 X8 Y8
G1 F900 X193.117 Y220.043 E59.33513
M204 S3000
M205 X10 Y10
G0 F2700 X195.222 Y220.565
M204 S1800
M205 X8 Y8
G1 F900 X196.864 Y222.207 E59.54922
M204 S3000
M205 X10 Y10
G0 F2700 X198.97 Y222.729
M204 S1800
M205 X8 Y8
G1 F900 X200.612 Y224.371 E59.76332
M204 S3000
M205 X10 Y10
G0 F2700 X202.717 Y224.892
M204 S1800
M205 X8 Y8
G1 F900 X204.36 Y226.535 E59.97754
M204 S3000
M205 X10 Y10
G0 F2700 X206.465 Y227.056
M204 S1800
M205 X8 Y8
G1 F900 X208.107 Y228.698 E60.19164
M204 S3000
M205 X10 Y10
G0 F2700 X210.212 Y229.219
M204 S1800
M205 X8 Y8
G1 F900 X211.839 Y230.846 E60.40377
G1 X211.98 Y230.987
M204 S3000
M205 X10 Y10
G0 F2700 X157.994 Y198.042
G0 X177.302 Y164.601
G0 X231.01 Y194.58
M204 S1800
M205 X8 Y8
G1 F900 X229.366 Y192.936 E60.61813
M204 S3000
M205 X10 Y10
G0 F2700 X227.262 Y192.416
M204 S1800
M205 X8 Y8
G1 F900 X225.619 Y190.773 E60.83235
M204 S3000
M205 X10 Y10
G0 F2700 X223.514 Y190.252
M204 S1800
M205 X8 Y8
G1 F900 X221.871 Y188.609 E61.04658
M204 S3000
M205 X10 Y10
G0 F2700 X219.766 Y188.088
M204 S1800
M205 X8 Y8
G1 F900 X218.124 Y186.445 E61.26074
M204 S3000
M205 X10 Y10
G0 F2700 X216.019 Y185.924
M204 S1800
M205 X8 Y8
G1 F900 X214.377 Y184.282 E61.47483
M204 S3000
M205 X10 Y10
G0 F2700 X212.271 Y183.76
M204 S1800
M205 X8 Y8
G1 F900 X210.629 Y182.118 E61.68893
M204 S3000
M205 X10 Y10
G0 F2700 X208.523 Y181.597
M204 S1800
M205 X8 Y8
G1 F900 X206.881 Y179.955 E61.90302
M204 S3000
M205 X10 Y10
G0 F2700 X204.776 Y179.433
M204 S1800
M205 X8 Y8
G1 F900 X203.134 Y177.792 E62.11705
M204 S3000
M205 X10 Y10
G0 F2700 X201.028 Y177.269
M204 S1800
M205 X8 Y8
G1 F900 X199.387 Y175.628 E62.33102
M204 S3000
M205 X10 Y10
G0 F2700 X197.28 Y175.105
M204 S1800
M205 X8 Y8
G1 F900 X195.639 Y173.464 E62.54498
M204 S3000
M205 X10 Y10
G0 F2700 X193.533 Y172.942
M204 S1800
M205 X8 Y8
G1 F900 X191.891 Y171.3 E62.75907
M204 S3000
M205 X10 Y10
G0 F2700 X189.785 Y170.778
M204 S1800
M205 X8 Y8
G1 F900 X188.144 Y169.137 E62.97304
M204 S3000
M205 X10 Y10
G0 F2700 X186.037 Y168.614
M204 S1800
M205 X8 Y8
G1 F900 X184.397 Y166.974 E63.18687
M204 S3000
M205 X10 Y10
G0 F2700 X182.29 Y166.45
M204 S1800
M205 X8 Y8
G1 F900 X180.649 Y164.81 E63.40077
G1 X180.508 Y164.669
M204 S3000
M205 X10 Y10
G0 F2700 X180.383 Y164.885
;MESH:NONMESH
G0 F600 X180.383 Y164.885 Z0.7
G0 F2700 X177.302 Y164.601
G0 X157.994 Y198.042
G0 X205.582 Y225.6
G0 X205.673 Y225.445
;TIME_ELAPSED:64.694336
;LAYER:1
M140 S60
M106 S255
M204 S1800
M205 X8 Y8
;TYPE:WALL-INNER
;MESH:motor case latch top little shorter  04.07.2021 edit.stl
G1 F1650 X207.223 Y222.76 E63.91119
G1 X207.423 Y222.414 E63.97699
G1 X207.769 Y222.614 E64.01949
G1 X208.919 Y223.278 E64.23812
G1 X207.17 Y226.311 E64.81454
G1 X213.88 Y230.183 E66.09
G1 X212.78 Y232.091 E66.45259
G1 X212.581 Y232.437 E66.5183
G1 X212.235 Y232.237 E66.56081
G1 X155.66 Y199.573 E77.31616
G1 X177.26 Y162.159 E84.42875
G1 X177.459 Y161.813 E84.49446
G1 X177.805 Y162.013 E84.53697
G1 X234.38 Y194.676 E95.29223
G1 X233.28 Y196.584 E95.65483
G1 X233.081 Y196.93 E95.72054
G1 X232.735 Y196.73 E95.76304
G1 X226.716 Y193.255 E96.90729
G1 X226.37 Y193.055 E96.97309
G1 X226.17 Y193.401 E97.01559
G1 X224.82 Y195.74 E97.46022
G1 X224.62 Y196.086 E97.52602
G1 X224.274 Y195.886 E97.56852
G1 X223.124 Y195.222 E97.78715
G1 X224.873 Y192.19 E98.36343
G1 X177.656 Y164.93 E107.33966
G1 X158.656 Y197.839 E113.59589
G1 X158.456 Y198.185 E113.66169
G1 X158.802 Y198.384 E113.70414
G1 X205.673 Y225.445 E122.61466
M204 S3000
M205 X10 Y10
G0 F4950 X205.698 Y225.541
G0 X158.418 Y198.195
G0 X177.646 Y164.892
G0 X233.056 Y196.834
G0 X233.028 Y197.823
M204 S1800
M205 X8 Y8
;TYPE:WALL-OUTER
G1 F1650 X227.009 Y194.348 E123.75891
G1 X226.663 Y194.148 E123.8247
G1 X226.463 Y194.494 E123.86721
G1 X225.113 Y196.833 E124.31183
G1 X224.913 Y197.179 E124.37763
G1 X224.567 Y196.979 E124.42013
G1 X222.031 Y195.515 E124.90223
G1 X223.78 Y192.483 E125.47851
G1 X177.949 Y166.023 E134.19127
G1 X159.749 Y197.546 E140.18404
G1 X159.549 Y197.892 E140.24983
G1 X159.895 Y198.092 E140.29234
G1 X205.38 Y224.352 E148.9393
G1 X206.93 Y221.667 E149.44972
G1 X207.13 Y221.321 E149.51552
G1 X207.476 Y221.521 E149.55802
G1 X210.012 Y222.985 E150.04012
G1 X208.263 Y226.018 E150.61654
G1 X214.973 Y229.89 E151.892
G1 X213.073 Y233.184 E152.51806
G1 X212.874 Y233.53 E152.58378
G1 X212.528 Y233.33 E152.62628
G1 X154.567 Y199.866 E163.6451
G1 X176.967 Y161.066 E171.02116
G1 X177.166 Y160.72 E171.08688
G1 X177.512 Y160.92 E171.12938
G1 X235.473 Y194.383 E182.14812
G1 X233.573 Y197.677 E182.77418
G1 X233.374 Y198.023 E182.8399
G1 X233.028 Y197.823 E182.8824
M204 S3000
M205 X10 Y10
G0 F4950 X232.682 Y197.623
G0 X233.056 Y196.834
G0 X232.791 Y195.85
M204 S1800
M205 X8 Y8
;TYPE:SKIN
G1 F930 X226.081 Y191.976 E184.15802
G1 X224.331 Y195.007 E184.73424
G1 X224.203 Y194.933 E184.75858
G1 X225.952 Y191.901 E185.33486
G1 X177.367 Y163.851 E194.57117
G1 X157.377 Y198.474 E201.15329
G1 X205.962 Y226.524 E210.3896
G1 X207.712 Y223.493 E210.96582
G1 X207.84 Y223.567 E210.99016
G1 X206.091 Y226.601 E211.56672
G1 X212.801 Y230.472 E212.8421
G1 X212.291 Y231.357 E213.01026
G1 X156.739 Y199.284 E223.5711
G1 X177.748 Y162.892 E230.48932
G1 X233.301 Y194.965 E241.0503
G1 X232.791 Y195.85 E241.21847
M204 S3000
M205 X10 Y10
G0 F4950 X177.646 Y164.892
G0 X158.418 Y198.195
G0 X211.741 Y230.624
M204 S1800
M205 X8 Y8
G1 F930 X211.963 Y230.402 E241.27016
M204 S3000
M205 X10 Y10
G0 F4950 X211.246 Y229.988
M204 S1800
M205 X8 Y8
G1 F930 X211.024 Y230.209 E241.32173
M204 S3000
M205 X10 Y10
G0 F4950 X210.529 Y229.574
M204 S1800
M205 X8 Y8
G1 F930 X210.306 Y229.796 E241.37354
M204 S3000
M205 X10 Y10
G0 F4950 X209.811 Y229.16
M204 S1800
M205 X8 Y8
G1 F930 X209.589 Y229.381 E241.42511
M204 S3000
M205 X10 Y10
G0 F4950 X209.093 Y228.746
M204 S1800
M205 X8 Y8
G1 F930 X208.872 Y228.968 E241.47668
M204 S3000
M205 X10 Y10
G0 F4950 X208.376 Y228.332
M204 S1800
M205 X8 Y8
G1 F930 X208.155 Y228.553 E241.52814
M204 S3000
M205 X10 Y10
G0 F4950 X207.658 Y227.918
M204 S1800
M205 X8 Y8
G1 F930 X207.438 Y228.139 E241.57948
M204 S3000
M205 X10 Y10
G0 F4950 X206.941 Y227.505
M204 S1800
M205 X8 Y8
G1 F930 X206.72 Y227.725 E241.63082
M204 S3000
M205 X10 Y10
G0 F4950 X206.224 Y227.09
M204 S1800
M205 X8 Y8
G1 F930 X206.003 Y227.311 E241.68227
M204 S3000
M205 X10 Y10
G0 F4950 X205.507 Y226.675
M204 S1800
M205 X8 Y8
G1 F930 X205.286 Y226.897 E241.73385
M204 S3000
M205 X10 Y10
G0 F4950 X204.79 Y226.261
M204 S1800
M205 X8 Y8
G1 F930 X204.568 Y226.483 E241.78554
M204 S3000
M205 X10 Y10
G0 F4950 X204.073 Y225.847
M204 S1800
M205 X8 Y8
G1 F930 X203.851 Y226.069 E241.83722
M204 S3000
M205 X10 Y10
G0 F4950 X203.356 Y225.433
M204 S1800
M205 X8 Y8
G1 F930 X203.134 Y225.655 E241.88891
M204 S3000
M205 X10 Y10
G0 F4950 X202.639 Y225.019
M204 S1800
M205 X8 Y8
G1 F930 X202.417 Y225.241 E241.9406
M204 S3000
M205 X10 Y10
G0 F4950 X201.921 Y224.605
M204 S1800
M205 X8 Y8
G1 F930 X201.7 Y224.826 E241.99206
M204 S3000
M205 X10 Y10
G0 F4950 X201.204 Y224.191
M204 S1800
M205 X8 Y8
G1 F930 X200.982 Y224.413 E242.04375
M204 S3000
M205 X10 Y10
G0 F4950 X200.487 Y223.776
M204 S1800
M205 X8 Y8
G1 F930 X200.265 Y223.998 E242.09544
M204 S3000
M205 X10 Y10
G0 F4950 X199.769 Y223.363
M204 S1800
M205 X8 Y8
G1 F930 X199.548 Y223.584 E242.14689
M204 S3000
M205 X10 Y10
G0 F4950 X199.052 Y222.948
M204 S1800
M205 X8 Y8
G1 F930 X198.83 Y223.17 E242.19858
M204 S3000
M205 X10 Y10
G0 F4950 X198.334 Y222.534
M204 S1800
M205 X8 Y8
G1 F930 X198.113 Y222.756 E242.25015
M204 S3000
M205 X10 Y10
G0 F4950 X197.617 Y222.12
M204 S1800
M205 X8 Y8
G1 F930 X197.395 Y222.342 E242.30184
M204 S3000
M205 X10 Y10
G0 F4950 X196.9 Y221.706
M204 S1800
M205 X8 Y8
G1 F930 X196.678 Y221.928 E242.35353
M204 S3000
M205 X10 Y10
G0 F4950 X196.183 Y221.292
M204 S1800
M205 X8 Y8
G1 F930 X195.961 Y221.513 E242.4051
M204 S3000
M205 X10 Y10
G0 F4950 X195.466 Y220.878
M204 S1800
M205 X8 Y8
G1 F930 X195.244 Y221.1 E242.45679
M204 S3000
M205 X10 Y10
G0 F4950 X194.749 Y220.463
M204 S1800
M205 X8 Y8
G1 F930 X194.527 Y220.685 E242.50848
M204 S3000
M205 X10 Y10
G0 F4950 X194.031 Y220.05
M204 S1800
M205 X8 Y8
G1 F930 X193.81 Y220.271 E242.55994
M204 S3000
M205 X10 Y10
G0 F4950 X193.314 Y219.635
M204 S1800
M205 X8 Y8
G1 F930 X193.092 Y219.857 E242.61163
M204 S3000
M205 X10 Y10
G0 F4950 X192.597 Y219.221
M204 S1800
M205 X8 Y8
G1 F930 X192.375 Y219.443 E242.66332
M204 S3000
M205 X10 Y10
G0 F4950 X191.879 Y218.807
M204 S1800
M205 X8 Y8
G1 F930 X191.657 Y219.029 E242.715
M204 S3000
M205 X10 Y10
G0 F4950 X191.162 Y218.393
M204 S1800
M205 X8 Y8
G1 F930 X190.94 Y218.615 E242.76669
M204 S3000
M205 X10 Y10
G0 F4950 X190.445 Y217.979
M204 S1800
M205 X8 Y8
G1 F930 X190.223 Y218.201 E242.81838
M204 S3000
M205 X10 Y10
G0 F4950 X189.728 Y217.565
M204 S1800
M205 X8 Y8
G1 F930 X189.506 Y217.787 E242.87007
M204 S3000
M205 X10 Y10
G0 F4950 X189.011 Y217.151
M204 S1800
M205 X8 Y8
G1 F930 X188.789 Y217.373 E242.92176
M204 S3000
M205 X10 Y10
G0 F4950 X188.293 Y216.737
M204 S1800
M205 X8 Y8
G1 F930 X188.072 Y216.958 E242.97322
M204 S3000
M205 X10 Y10
G0 F4950 X187.576 Y216.323
M204 S1800
M205 X8 Y8
G1 F930 X187.354 Y216.545 E243.0249
M204 S3000
M205 X10 Y10
G0 F4950 X186.859 Y215.908
M204 S1800
M205 X8 Y8
G1 F930 X186.637 Y216.13 E243.07659
M204 S3000
M205 X10 Y10
G0 F4950 X186.141 Y215.495
M204 S1800
M205 X8 Y8
G1 F930 X185.919 Y215.717 E243.12828
M204 S3000
M205 X10 Y10
G0 F4950 X185.424 Y215.08
M204 S1800
M205 X8 Y8
G1 F930 X185.202 Y215.302 E243.17997
M204 S3000
M205 X10 Y10
G0 F4950 X184.706 Y214.667
M204 S1800
M205 X8 Y8
G1 F930 X184.485 Y214.888 E243.23143
M204 S3000
M205 X10 Y10
G0 F4950 X183.989 Y214.252
M204 S1800
M205 X8 Y8
G1 F930 X183.767 Y214.474 E243.28312
M204 S3000
M205 X10 Y10
G0 F4950 X183.272 Y213.838
M204 S1800
M205 X8 Y8
G1 F930 X183.05 Y214.06 E243.33481
M204 S3000
M205 X10 Y10
G0 F4950 X182.555 Y213.424
M204 S1800
M205 X8 Y8
G1 F930 X182.333 Y213.645 E243.38638
M204 S3000
M205 X10 Y10
G0 F4950 X181.838 Y213.01
M204 S1800
M205 X8 Y8
G1 F930 X181.616 Y213.232 E243.43807
M204 S3000
M205 X10 Y10
G0 F4950 X181.121 Y212.595
M204 S1800
M205 X8 Y8
G1 F930 X180.899 Y212.817 E243.48976
M204 S3000
M205 X10 Y10
G0 F4950 X180.403 Y212.182
M204 S1800
M205 X8 Y8
G1 F930 X180.181 Y212.404 E243.54144
M204 S3000
M205 X10 Y10
G0 F4950 X179.686 Y211.767
M204 S1800
M205 X8 Y8
G1 F930 X179.464 Y211.989 E243.59313
M204 S3000
M205 X10 Y10
G0 F4950 X178.968 Y211.354
M204 S1800
M205 X8 Y8
G1 F930 X178.747 Y211.575 E243.64459
M204 S3000
M205 X10 Y10
G0 F4950 X178.251 Y210.939
M204 S1800
M205 X8 Y8
G1 F930 X178.029 Y211.161 E243.69628
M204 S3000
M205 X10 Y10
G0 F4950 X177.534 Y210.525
M204 S1800
M205 X8 Y8
G1 F930 X177.312 Y210.747 E243.74797
M204 S3000
M205 X10 Y10
G0 F4950 X176.817 Y210.111
M204 S1800
M205 X8 Y8
G1 F930 X176.595 Y210.333 E243.79966
M204 S3000
M205 X10 Y10
G0 F4950 X176.099 Y209.697
M204 S1800
M205 X8 Y8
G1 F930 X175.877 Y209.919 E243.85134
M204 S3000
M205 X10 Y10
G0 F4950 X175.382 Y209.283
M204 S1800
M205 X8 Y8
G1 F930 X175.16 Y209.505 E243.90303
M204 S3000
M205 X10 Y10
G0 F4950 X174.665 Y208.869
M204 S1800
M205 X8 Y8
G1 F930 X174.443 Y209.091 E243.95472
M204 S3000
M205 X10 Y10
G0 F4950 X173.948 Y208.455
M204 S1800
M205 X8 Y8
G1 F930 X173.726 Y208.677 E244.00641
M204 S3000
M205 X10 Y10
G0 F4950 X173.231 Y208.04
M204 S1800
M205 X8 Y8
G1 F930 X173.009 Y208.262 E244.0581
M204 S3000
M205 X10 Y10
G0 F4950 X172.513 Y207.627
M204 S1800
M205 X8 Y8
G1 F930 X172.291 Y207.849 E244.10979
M204 S3000
M205 X10 Y10
G0 F4950 X171.796 Y207.212
M204 S1800
M205 X8 Y8
G1 F930 X171.574 Y207.434 E244.16148
M204 S3000
M205 X10 Y10
G0 F4950 X171.078 Y206.799
M204 S1800
M205 X8 Y8
G1 F930 X170.857 Y207.02 E244.21293
M204 S3000
M205 X10 Y10
G0 F4950 X170.361 Y206.384
M204 S1800
M205 X8 Y8
G1 F930 X170.139 Y206.606 E244.26462
M204 S3000
M205 X10 Y10
G0 F4950 X169.644 Y205.97
M204 S1800
M205 X8 Y8
G1 F930 X169.422 Y206.192 E244.31631
M204 S3000
M205 X10 Y10
G0 F4950 X168.927 Y205.556
M204 S1800
M205 X8 Y8
G1 F930 X168.705 Y205.778 E244.368
M204 S3000
M205 X10 Y10
G0 F4950 X168.21 Y205.142
M204 S1800
M205 X8 Y8
G1 F930 X167.988 Y205.364 E244.41969
M204 S3000
M205 X10 Y10
G0 F4950 X167.493 Y204.727
M204 S1800
M205 X8 Y8
G1 F930 X167.271 Y204.949 E244.47138
M204 S3000
M205 X10 Y10
G0 F4950 X166.775 Y204.314
M204 S1800
M205 X8 Y8
G1 F930 X166.553 Y204.536 E244.52307
M204 S3000
M205 X10 Y10
G0 F4950 X166.058 Y203.899
