;FLAVOR:Marlin
;TIME:3035
;Filament used: 10.4646m
;Layer height: 0.5
;MINX:140.617
;MINY:151.864
;MINZ:0.2
;MAXX:259.231
;MAXY:247.245
;MAXZ:39.7
;Generated with Cura_SteamEngine 4.11.0
M140 S70
M105
M190 S70
M104 S210
M105
M109 S210
M82 ;absolute extrusion mode
M107 ;Start with the fan off
G21 ;Set units to millimeters
G91 ;Change to relative positioning mode for retract filament and nozzle lifting
G1 F200 E-3 ;Retract 3mm filament for a clean start
G92 E0 ;Zero the extruded length
G1 F1000 Z5 ;Lift the nozzle 5mm before homing axes
G90 ;Absolute positioning
M82 ;Set extruder to absolute mode too
G28 X0 Y0 ;First move X/Y to min endstops
G28 Z0 ;Then move Z to min endstops
G1 F1000 Z15 ;After homing lift the nozzle 15mm before start printing

G92 E0
G92 E0
G1 F1200 E-3
;LAYER_COUNT:80
;LAYER:0
M107
M204 S3000
M205 X10 Y10
G1 F600 Z0.275
G0 F2700 X164.632 Y159.194 Z0.275
M204 S1800
M205 X8 Y8
;TYPE:SUPPORT
G1 F600 Z0.2
G1 F2700 E0
G1 F900 X164.674 Y159.348 E0.01472
G1 X165.972 Y160.101 E0.15307
G1 X166.603 Y160.579 E0.22605
G1 X167.545 Y161.126 E0.32648
G1 X150.18 Y191.204 E3.52856
G1 X150.18 Y191.376 E3.54442
G1 X149.137 Y190.774 E3.65545
G1 X148.408 Y190.468 E3.72834
G1 X147.584 Y189.992 E3.81608
G1 X146.871 Y189.909 E3.88226
G1 X147.092 Y189.608 E3.91669
G1 X164.563 Y159.358 E7.13739
G1 X164.632 Y159.194 E7.15379
M204 S3000
M205 X10 Y10
G0 F2700 X166.647 Y162.439
M204 S1800
M205 X8 Y8
G1 F900 X161.057 Y165.666 E7.74888
M204 S3000
M205 X10 Y10
G0 F2700 X160.528 Y166.582
M204 S1800
M205 X8 Y8
G1 F900 X163.325 Y168.196 E8.04661
M204 S3000
M205 X10 Y10
G0 F2700 X160 Y167.498
M204 S1800
M205 X8 Y8
G1 F900 X160 Y173.955 E8.64193
M204 S3000
M205 X10 Y10
G0 F2700 X155.325 Y182.053
M204 S1800
M205 X8 Y8
G1 F900 X152.526 Y180.437 E8.93991
M204 S3000
M205 X10 Y10
G0 F2700 X150.649 Y190.15
M204 S1800
M205 X8 Y8
G1 F900 X149.473 Y190.829 E9.06511
M204 S3000
M205 X10 Y10
G1 F1200 E6.06511
G0 F2700 X195.197 Y224.549
G0 X196.525 Y225.316
G0 X217.583 Y236.061
M204 S1800
M205 X8 Y8
G1 F2700 E9.06511
G1 F900 X240.026 Y197.198 E13.20272
G1 X242.131 Y198.412 E13.42675
G1 X243.024 Y198.941 E13.52245
G1 X245.791 Y200.528 E13.81654
G1 X223.346 Y239.391 E17.95424
G1 X220.773 Y237.904 E18.22823
G1 X220.04 Y237.464 E18.30705
G1 X217.583 Y236.061 E18.56791
M204 S3000
M205 X10 Y10
G0 F2700 X224 Y238.019
M204 S1800
M205 X8 Y8
G1 F900 X224 Y225.189 E19.7508
M204 S3000
M205 X10 Y10
G0 F2700 X225.509 Y222.574
M204 S1800
M205 X8 Y8
G1 F900 X231.065 Y225.782 E20.3423
M204 S3000
M205 X10 Y10
G0 F2700 X227.019 Y219.959
M204 S1800
M205 X8 Y8
G1 F900 X238.135 Y213.541 E21.52572
M204 S3000
M205 X10 Y10
G0 F2700 X239.067 Y211.926
M204 S1800
M205 X8 Y8
G1 F900 X233.511 Y208.718 E22.11722
M204 S3000
M205 X10 Y10
G0 F2700 X240 Y210.316
M204 S1800
M205 X8 Y8
G1 F900 X240 Y197.483 E23.30039
M204 S3000
M205 X10 Y10
G0 F2700 X249.348 Y208.351
M204 S1800
M205 X8 Y8
G1 F900 X250.5 Y209.017 E23.42307
G1 X251.259 Y209.341 E23.49916
G1 X252.087 Y209.82 E23.58735
G1 X252.817 Y209.905 E23.65511
G1 X252.586 Y210.244 E23.69293
G1 X251.406 Y212.292 E23.91085
G1 X248.161 Y210.418 E24.25633
G1 X249.348 Y208.351 E24.47609
M204 S3000
M205 X10 Y10
G0 F2700 X233.101 Y236.5
M204 S1800
M205 X8 Y8
G1 F900 X236.348 Y238.373 E24.82169
G1 X235.031 Y240.652 E25.06437
G1 X234.98 Y240.465 E25.08224
G1 X233.76 Y239.749 E25.21266
G1 X233.064 Y239.22 E25.29326
G1 X231.913 Y238.557 E25.41573
G1 X233.101 Y236.5 E25.63473
M204 S3000
M205 X10 Y10
G0 F2700 X202.294 Y222.086
M204 S1800
M205 X8 Y8
;TYPE:SUPPORT-INTERFACE
G1 F900 X202.138 Y222.357 E25.66356
G1 X201.616 Y221.895 E25.72783
G1 X201.45 Y221.275 E25.78701
G1 X201.423 Y221.259 E25.7899
G1 X201.481 Y221.159 E25.80056
G1 X200.976 Y219.27 E25.98084
G1 X199.347 Y218.331 E26.15419
G1 X215.547 Y190.269 E29.1416
G1 X217.176 Y191.211 E29.31509
G1 X219.065 Y190.706 E29.49537
G1 X219.214 Y190.448 E29.52284
G1 X219.728 Y190.44 E29.57023
G1 X220.428 Y190.678 E29.6384
G1 X220.276 Y190.941 E29.6664
G1 X219.987 Y191.018 E29.69398
G1 X202.216 Y221.798 E32.97082
G1 X202.294 Y222.086 E32.99833
M204 S3000
M205 X10 Y10
G1 F1200 E29.99833
G0 F2700 X199.998 Y220.02
G0 X180.55 Y209.094
M204 S1800
M205 X8 Y8
G1 F2700 E32.99833
G1 F900 X180.211 Y208.899 E33.03439
G1 X197.811 Y178.414 E36.2798
G1 X198.151 Y178.61 E36.31598
G1 X180.55 Y209.094 E39.56136
M204 S3000
M205 X10 Y10
G0 F2700 X177.227 Y207.174
M204 S1800
M205 X8 Y8
G1 F900 X176.888 Y206.978 E39.59746
G1 X194.487 Y176.494 E42.84275
G1 X194.826 Y176.689 E42.8788
G1 X177.227 Y207.174 E46.12417
M204 S3000
M205 X10 Y10
G0 F2700 X175.093 Y206.866
M204 S1800
M205 X8 Y8
G1 F900 X172.994 Y210.506 E46.51156
G1 X172.655 Y210.311 E46.54762
G1 X174.754 Y206.671 E46.93502
G1 X174.756 Y206.671 E46.9352
G1 X175.093 Y206.866 E46.9711
M204 S3000
M205 X10 Y10
G0 F2700 X193.495 Y174.997
M204 S1800
M205 X8 Y8
G1 F900 X193.156 Y174.802 E47.00716
G1 X195.254 Y171.164 E47.39435
G1 X195.255 Y171.164 E47.39444
G1 X195.593 Y171.359 E47.43042
G1 X193.495 Y174.997 E47.81761
M204 S3000
M205 X10 Y10
G0 F2700 X216.359 Y193.142
M204 S1800
M205 X8 Y8
G1 F900 X202.24 Y217.597 E50.42108
G1 X202.189 Y217.567 E50.42654
G1 X216.308 Y193.112 E53.03001
G1 X216.359 Y193.142 E53.03547
M204 S3000
M205 X10 Y10
G0 F2700 X217.039 Y192.241
M204 S1800
M205 X8 Y8
G1 F900 X218.379 Y191.883 E53.16335
G1 X202.159 Y219.977 E56.15423
G1 X201.801 Y218.637 E56.28211
G1 X200.658 Y217.979 E56.4037
G1 X215.898 Y191.581 E59.21399
G1 X217.039 Y192.241 E59.33552
M204 S3000
M205 X10 Y10
G1 F1200 E56.33552
;MESH:Part_28_Chamber_Stacking_Clip_Large_18.03.2021.stl
G0 F2700 X217.505 Y188.66
G1 F2700 E59.33552
G0 X216.746 Y188.237
M204 S1800
M205 X8 Y8
;TYPE:WALL-OUTER
G1 F900 X218.686 Y184.877 E59.69323
G1 X219.449 Y185.318 E59.77448
G1 X217.51 Y188.679 E60.05606
G1 X216.746 Y188.237 E60.13743
M204 S3000
M205 X10 Y10
G0 F2700 X216.946 Y187.891
G1 F1200 E57.13743
G0 F2700 X217.031 Y187.942
G0 X216.863 Y189.72
G0 X199.549 Y219.757
G1 F2700 E60.13743
G0 X198.949 Y220.825
M204 S1800
M205 X8 Y8
G1 F900 X197.01 Y224.186 E60.49518
G1 X196.246 Y223.744 E60.57656
G1 X198.186 Y220.384 E60.85808
G1 X198.949 Y220.825 E60.93934
M204 S3000
M205 X10 Y10
G0 F2700 X198.75 Y221.171
G1 F1200 E57.93934
;MESH:NONMESH
G0 F600 X198.75 Y221.171 Z0.7
G0 F2700 X198.664 Y221.121
G0 X197.869 Y219.201
G0 X164.667 Y158.703
;TIME_ELAPSED:62.255675
;LAYER:1
M140 S60
M106 S255
M204 S1800
M205 X8 Y8
;TYPE:SUPPORT
G1 F2700 E60.93934
G1 F1350 X164.812 Y159.242 E61.03123
G1 X166.061 Y159.968 E61.26908
G1 X166.692 Y160.446 E61.39941
G1 X167.772 Y161.073 E61.60501
G1 X167.759 Y161.076 E61.6072
G1 X150.34 Y191.247 E67.34291
G1 X150.34 Y191.654 E67.40992
G1 X149.053 Y190.912 E67.6545
G1 X148.33 Y190.608 E67.78363
G1 X147.535 Y190.147 E67.93493
G1 X146.579 Y190.035 E68.0934
G1 X146.955 Y189.526 E68.19758
G1 X164.422 Y159.284 E73.94736
G1 X164.667 Y158.703 E74.05117
M204 S3000
M205 X10 Y10
G0 F4950 X167.203 Y162.117
M204 S1800
M205 X8 Y8
G1 F1350 X160.505 Y165.985 E75.32459
M204 S3000
M205 X10 Y10
G0 F4950 X160.252 Y166.422
M204 S1800
M205 X8 Y8
G1 F1350 X163.601 Y168.356 E75.96129
M204 S3000
M205 X10 Y10
G0 F4950 X160 Y166.86
M204 S1800
M205 X8 Y8
G1 F1350 X160 Y174.596 E77.23493
M204 S3000
M205 X10 Y10
G0 F4950 X155.601 Y182.212
M204 S1800
M205 X8 Y8
G1 F1350 X152.25 Y180.278 E77.87192
M204 S3000
M205 X10 Y10
G0 F4950 X151.202 Y189.831
M204 S1800
M205 X8 Y8
G1 F1350 X149.151 Y191.015 E78.26182
M204 S3000
M205 X10 Y10
G1 F1200 E75.26182
G0 F4950 X172.777 Y211.605
G0 X198.241 Y226.306
G0 X217.364 Y236.12
M204 S1800
M205 X8 Y8
G1 F2700 E78.26182
G1 F1350 X239.967 Y196.979 E85.70321
G1 X242.211 Y198.273 E86.12968
G1 X243.089 Y198.794 E86.29777
G1 X246.008 Y200.469 E86.85185
G1 X223.407 Y239.607 E94.29265
G1 X223.054 Y239.406 E94.35952
G1 X220.694 Y238.043 E94.80821
G1 X219.959 Y237.602 E94.94933
G1 X217.757 Y236.347 E95.36661
G1 X217.364 Y236.12 E95.44133
M204 S3000
M205 X10 Y10
G0 F4950 X224 Y238.662
M204 S1800
M205 X8 Y8
G1 F1350 X224 Y224.548 E97.76503
M204 S3000
M205 X10 Y10
G0 F4950 X225.232 Y222.414
M204 S1800
M205 X8 Y8
G1 F1350 X231.343 Y225.942 E98.92676
M204 S3000
M205 X10 Y10
G0 F4950 X226.464 Y220.279
M204 S1800
M205 X8 Y8
G1 F1350 X238.689 Y213.221 E101.25081
M204 S3000
M205 X10 Y10
G0 F4950 X239.344 Y212.086
M204 S1800
M205 X8 Y8
G1 F1350 X233.233 Y208.558 E102.41254
M204 S3000
M205 X10 Y10
G0 F4950 X240 Y210.954
M204 S1800
M205 X8 Y8
G1 F1350 X240 Y196.952 E104.7178
M204 S3000
M205 X10 Y10
G0 F4950 X249.285 Y208.13
M204 S1800
M205 X8 Y8
G1 F1350 X250.572 Y208.873 E104.96246
G1 X251.334 Y209.199 E105.09891
G1 X252.137 Y209.665 E105.25177
G1 X253.094 Y209.777 E105.4104
G1 X252.722 Y210.329 E105.51999
G1 X251.463 Y212.51 E105.9346
G1 X247.95 Y210.482 E106.60242
G1 X247.947 Y210.469 E106.60462
G1 X249.287 Y208.137 E107.04743
G1 X249.285 Y208.13 E107.04863
M204 S3000
M205 X10 Y10
G0 F4950 X233.041 Y236.282
M204 S1800
M205 X8 Y8
G1 F1350 X236.566 Y238.315 E107.71858
G1 X234.979 Y241.062 E108.24088
G1 X234.843 Y240.569 E108.32508
G1 X233.677 Y239.886 E108.54756
G1 X232.976 Y239.354 E108.69244
G1 X231.603 Y238.563 E108.95332
G1 X231.787 Y238.456 E108.98836
G1 X233.041 Y236.282 E109.40156
M204 S3000
M205 X10 Y10
G0 F4950 X217.197 Y193.073
M204 S1800
M205 X8 Y8
;TYPE:SUPPORT-INTERFACE
G1 F1050 X202.601 Y218.357 E114.20809
G1 X201.355 Y217.64 E114.44477
G1 X215.955 Y192.354 E119.25191
G1 X217.197 Y193.073 E119.48818
M204 S3000
M205 X10 Y10
G0 F4950 X218.198 Y192.727
M204 S1800
M205 X8 Y8
G1 F1050 X218.469 Y192.258 E119.57736
G1 X218.571 Y192.294 E119.59517
G1 X202.611 Y219.939 E124.85061
G1 X202.532 Y219.864 E124.86855
G1 X202.802 Y219.396 E124.9575
G1 X200.262 Y217.933 E125.44009
G1 X215.662 Y191.261 E130.5107
G1 X218.198 Y192.727 E130.99297
M204 S3000
M205 X10 Y10
G0 F4950 X217.906 Y191.634
M204 S1800
M205 X8 Y8
G1 F1050 X218.177 Y191.165 E131.08214
G1 X218.657 Y191.442 E131.17339
G1 X219.986 Y191.085 E131.39995
G1 X220.254 Y190.62 E131.48831
G1 X220.427 Y190.679 E131.5184
G1 X202.14 Y222.354 E137.54
G1 X202 Y222.232 E137.57057
G1 X202.272 Y221.761 E137.66012
G1 X201.915 Y220.433 E137.88652
G1 X201.438 Y220.158 E137.97717
G1 X201.709 Y219.689 E138.06635
G1 X199.169 Y218.226 E138.54893
G1 X215.229 Y190.413 E143.83656
G1 X215.371 Y190.169 E143.88304
G1 X217.906 Y191.634 E144.36508
M204 S3000
M205 X10 Y10
G1 F1200 E141.36508
;MESH:Part_28_Chamber_Stacking_Clip_Large_18.03.2021.stl
G0 F4950 X200.316 Y220.199
G0 X199.378 Y221.826
G1 F2700 E144.36508
G0 F4950 X199.397 Y221.821
M204 S1800
M205 X8 Y8
;TYPE:WALL-INNER
G1 F1650 X198.296 Y223.728 E144.72761
G1 X198.097 Y224.074 E144.79333
G1 X197.751 Y223.874 E144.83583
G1 X174.78 Y210.612 E149.20276
G1 X175.88 Y208.705 E149.56521
G1 X176.079 Y208.359 E149.63093
G1 X176.425 Y208.559 E149.67343
G1 X177.812 Y209.359 E149.93704
G1 X197.012 Y176.103 E156.25922
G1 X195.28 Y175.104 E156.5884
G1 X196.38 Y173.198 E156.95071
G1 X196.579 Y172.852 E157.01643
G1 X196.925 Y173.052 E157.05893
G1 X219.897 Y186.315 E161.42608
G1 X218.797 Y188.221 E161.78839
G1 X218.597 Y188.567 E161.85419
G1 X218.251 Y188.367 E161.89669
G1 X197.226 Y176.229 E165.89363
G1 X178.226 Y209.138 E172.14987
G1 X178.026 Y209.484 E172.21567
G1 X178.372 Y209.683 E172.25812
G1 X199.397 Y221.821 E176.25505
M204 S3000
M205 X10 Y10
G0 F4950 X199.301 Y221.846
G0 X177.988 Y209.494
G0 X197.05 Y176.093
G0 X196.604 Y172.948
G0 X196.087 Y172.105
M204 S1800
M205 X8 Y8
;TYPE:WALL-OUTER
G1 F1650 X196.286 Y171.759 E176.32077
G1 X196.632 Y171.959 E176.36327
G1 X220.99 Y186.022 E180.9939
G1 X219.09 Y189.314 E181.61968
G1 X218.89 Y189.66 E181.68547
G1 X218.544 Y189.46 E181.72798
G1 X197.519 Y177.322 E185.72492
G1 X179.319 Y208.845 E191.71768
G1 X179.119 Y209.191 E191.78348
G1 X179.465 Y209.39 E191.82593
G1 X200.49 Y221.528 E195.82287
G1 X198.589 Y224.821 E196.44887
G1 X198.39 Y225.167 E196.51459
G1 X198.044 Y224.967 E196.55709
G1 X173.687 Y210.905 E201.18749
G1 X175.587 Y207.612 E201.81341
G1 X175.786 Y207.266 E201.87913
G1 X176.132 Y207.466 E201.92163
G1 X177.519 Y208.266 E202.18525
G1 X195.719 Y176.742 E208.17815
G1 X195.919 Y176.396 E208.24395
G1 X195.573 Y176.197 E208.2864
G1 X194.187 Y175.397 E208.54987
G1 X196.087 Y172.105 E209.17565
M204 S3000
M205 X10 Y10
G0 F4950 X196.286 Y171.759
G0 X196.604 Y172.948
G0 X196.868 Y173.931
M204 S1800
M205 X8 Y8
;TYPE:SKIN
G1 F930 X218.818 Y186.604 E213.34852
G1 X218.308 Y187.488 E213.51654
G1 X198.07 Y175.804 E217.3639
G1 X196.359 Y174.814 E217.68935
G1 X196.868 Y173.931 E217.85715
M204 S3000
M205 X10 Y10
G0 F4950 X197.284 Y174.936
M204 S1800
M205 X8 Y8
G1 F930 X197.506 Y174.714 E217.90884
M204 S3000
M205 X10 Y10
G0 F4950 X198.001 Y175.35
M204 S1800
M205 X8 Y8
G1 F930 X198.223 Y175.128 E217.96053
M204 S3000
M205 X10 Y10
G0 F4950 X198.718 Y175.764
M204 S1800
M205 X8 Y8
G1 F930 X198.941 Y175.542 E218.01233
M204 S3000
M205 X10 Y10
G0 F4950 X199.435 Y176.179
M204 S1800
M205 X8 Y8
G1 F930 X199.658 Y175.956 E218.06425
M204 S3000
M205 X10 Y10
G0 F4950 X200.153 Y176.592
M204 S1800
M205 X8 Y8
G1 F930 X200.375 Y176.37 E218.11594
M204 S3000
M205 X10 Y10
G0 F4950 X200.87 Y177.007
M204 S1800
M205 X8 Y8
G1 F930 X201.093 Y176.784 E218.16786
M204 S3000
M205 X10 Y10
G0 F4950 X201.587 Y177.421
M204 S1800
M205 X8 Y8
G1 F930 X201.81 Y177.198 E218.21978
M204 S3000
M205 X10 Y10
G0 F4950 X202.305 Y177.835
M204 S1800
M205 X8 Y8
G1 F930 X202.527 Y177.613 E218.27147
M204 S3000
M205 X10 Y10
G0 F4950 X203.022 Y178.249
M204 S1800
M205 X8 Y8
G1 F930 X203.245 Y178.026 E218.3234
M204 S3000
M205 X10 Y10
G0 F4950 X203.74 Y178.663
M204 S1800
M205 X8 Y8
G1 F930 X203.962 Y178.441 E218.37508
M204 S3000
M205 X10 Y10
G0 F4950 X204.457 Y179.077
M204 S1800
M205 X8 Y8
G1 F930 X204.679 Y178.855 E218.42677
M204 S3000
M205 X10 Y10
G0 F4950 X205.174 Y179.491
M204 S1800
M205 X8 Y8
G1 F930 X205.396 Y179.269 E218.47846
M204 S3000
M205 X10 Y10
G0 F4950 X205.891 Y179.905
M204 S1800
M205 X8 Y8
G1 F930 X206.113 Y179.683 E218.53015
M204 S3000
M205 X10 Y10
G0 F4950 X206.608 Y180.32
M204 S1800
M205 X8 Y8
G1 F930 X206.83 Y180.097 E218.58196
M204 S3000
M205 X10 Y10
G0 F4950 X207.326 Y180.733
M204 S1800
M205 X8 Y8
G1 F930 X207.548 Y180.511 E218.63364
M204 S3000
M205 X10 Y10
G0 F4950 X208.043 Y181.148
M204 S1800
M205 X8 Y8
G1 F930 X208.265 Y180.925 E218.68545
M204 S3000
M205 X10 Y10
G0 F4950 X208.76 Y181.562
M204 S1800
M205 X8 Y8
G1 F930 X208.982 Y181.34 E218.73714
M204 S3000
M205 X10 Y10
G0 F4950 X209.478 Y181.976
M204 S1800
M205 X8 Y8
G1 F930 X209.7 Y181.754 E218.78883
M204 S3000
M205 X10 Y10
G0 F4950 X210.195 Y182.39
M204 S1800
M205 X8 Y8
G1 F930 X210.417 Y182.168 E218.84052
M204 S3000
M205 X10 Y10
G0 F4950 X210.912 Y182.804
M204 S1800
M205 X8 Y8
G1 F930 X211.134 Y182.582 E218.89221
M204 S3000
M205 X10 Y10
G0 F4950 X211.629 Y183.218
M204 S1800
M205 X8 Y8
G1 F930 X211.852 Y182.996 E218.94401
M204 S3000
M205 X10 Y10
G0 F4950 X212.346 Y183.632
M204 S1800
M205 X8 Y8
G1 F930 X212.569 Y183.41 E218.99582
M204 S3000
M205 X10 Y10
G0 F4950 X213.064 Y184.046
M204 S1800
M205 X8 Y8
G1 F930 X213.286 Y183.825 E219.04739
M204 S3000
M205 X10 Y10
G0 F4950 X213.781 Y184.46
M204 S1800
M205 X8 Y8
G1 F930 X214.003 Y184.238 E219.09908
M204 S3000
M205 X10 Y10
G0 F4950 X214.498 Y184.875
M204 S1800
M205 X8 Y8
G1 F930 X214.72 Y184.653 E219.15077
M204 S3000
M205 X10 Y10
G0 F4950 X215.216 Y185.288
M204 S1800
M205 X8 Y8
G1 F930 X215.437 Y185.067 E219.20222
M204 S3000
M205 X10 Y10
G0 F4950 X215.933 Y185.703
M204 S1800
M205 X8 Y8
G1 F930 X216.155 Y185.481 E219.25391
M204 S3000
M205 X10 Y10
G0 F4950 X216.651 Y186.116
M204 S1800
M205 X8 Y8
G1 F930 X216.872 Y185.895 E219.30537
M204 S3000
M205 X10 Y10
G0 F4950 X217.368 Y186.531
M204 S1800
M205 X8 Y8
G1 F930 X217.589 Y186.309 E219.35694
M204 S3000
M205 X10 Y10
G0 F4950 X218.085 Y186.945
M204 S1800
M205 X8 Y8
G1 F930 X218.307 Y186.723 E219.40863
M204 S3000
M205 X10 Y10
G0 F4950 X197.216 Y176.191
G0 X177.988 Y209.494
G0 X198.318 Y222.11
M204 S1800
M205 X8 Y8
G1 F930 X197.808 Y222.995 E219.5768
G1 X175.859 Y210.323 E223.74944
G1 X176.369 Y209.438 E223.9176
G1 X198.318 Y222.11 E228.09025
M204 S3000
M205 X10 Y10
G0 F4950 X197.396 Y222.341
M204 S1800
M205 X8 Y8
G1 F930 X197.618 Y222.119 E228.14193
M204 S3000
