;FLAVOR:Marlin
;TIME:801
;Filament used: 2.93337m
;Layer height: 0.5
;MINX:153.135
;MINY:162.072
;MINZ:0.2
;MAXX:242.272
;MAXY:237.928
;MAXZ:10.2
;Generated with Cura_SteamEngine 4.11.0
M140 S70
M105
M190 S70
M104 S210
M105
M109 S210
M82 ;absolute extrusion mode
M107 ;Start with the fan off
G21 ;Set units to millimeters
G91 ;Change to relative positioning mode for retract filament and nozzle lifting
G1 F200 E-3 ;Retract 3mm filament for a clean start
G92 E0 ;Zero the extruded length
G1 F1000 Z5 ;Lift the nozzle 5mm before homing axes
G90 ;Absolute positioning
M82 ;Set extruder to absolute mode too
G28 X0 Y0 ;First move X/Y to min endstops
G28 Z0 ;Then move Z to min endstops
G1 F1000 Z15 ;After homing lift the nozzle 15mm before start printing

G92 E0
G92 E0
G1 F1200 E-3
;LAYER_COUNT:21
;LAYER:0
M107
M204 S3000
M205 X10 Y10
G1 F600 Z0.275
;MESH:spacer arm pawl edit_mirrored 09.08.2021.stl
G0 F2700 X236.541 Y234.779 Z0.275
M204 S1800
M205 X8 Y8
;TYPE:WALL-INNER
G1 F600 Z0.2
G1 F2700 E0
G1 F900 X236.398 Y235.319 E0.0515
G1 X235.858 Y235.175 E0.08479
G1 X190.942 Y223.138 E4.37204
G1 X190.402 Y222.994 E4.42357
G1 X190.546 Y222.454 E4.45686
G1 X198.023 Y194.556 E7.11975
G1 X198.167 Y194.016 E7.17127
G1 X197.627 Y193.872 E7.20456
G1 X158.584 Y183.41 E10.93121
G1 X158.864 Y182.368 E11.03068
G1 X158.865 Y182.367 E11.03081
G1 X159.008 Y181.827 E11.08232
G1 X159.548 Y181.971 E11.11561
G1 X204.464 Y194.007 E15.40283
G1 X205.004 Y194.151 E15.45436
G1 X204.86 Y194.691 E15.48765
G1 X197.383 Y222.589 E18.15054
G1 X197.239 Y223.129 E18.20207
G1 X197.779 Y223.273 E18.23535
G1 X236.822 Y233.735 E21.962
G1 X236.542 Y234.778 E22.06156
G1 X236.541 Y234.779 E22.06169
M204 S3000
M205 X10 Y10
G0 F2700 X189.998 Y223.227
G0 X189.03 Y223.786
M204 S1800
M205 X8 Y8
;TYPE:WALL-OUTER
G1 F900 X196.651 Y195.348 E24.77611
G1 X196.795 Y194.808 E24.82764
G1 X196.255 Y194.664 E24.86093
G1 X157.212 Y184.202 E28.58757
G1 X158.179 Y180.59 E28.93231
G1 X158.215 Y180.455 E28.9452
G1 X162.81 Y163.309 E30.58179
G1 X163.62 Y163.526 E30.6591
G1 X159.026 Y180.672 E31.88433
G1 X159.161 Y180.708 E31.89606
G1 X205.836 Y193.215 E36.35118
G1 X206.376 Y193.359 E36.4027
G1 X206.232 Y193.899 E36.43599
G1 X198.755 Y221.797 E39.09888
G1 X198.611 Y222.337 E39.15041
G1 X199.151 Y222.481 E39.1837
G1 X238.194 Y232.943 E42.91034
G1 X237.334 Y236.151 E43.21656
G1 X237.19 Y236.691 E43.26808
G1 X236.65 Y236.547 E43.30137
G1 X189.03 Y223.786 E47.8467
M204 S3000
M205 X10 Y10
G0 F2700 X189.133 Y223.4
G0 X189.998 Y223.227
G0 X191.761 Y222.209
M204 S1800
M205 X8 Y8
;TYPE:SKIN
G1 F900 X199.377 Y193.792 E50.55913
G1 X203.645 Y194.936 E50.96652
G1 X196.029 Y223.353 E53.67895
G1 X191.761 Y222.209 E54.08633
M204 S3000
M205 X10 Y10
G0 F2700 X192.594 Y221.105
M204 S1800
M205 X8 Y8
G1 F900 X193.67 Y222.181 E54.22663
M204 S3000
M205 X10 Y10
G0 F2700 X195.688 Y222.615
M204 S1800
M205 X8 Y8
G1 F900 X192.929 Y219.856 E54.58637
M204 S3000
M205 X10 Y10
G0 F2700 X193.264 Y218.607
M204 S1800
M205 X8 Y8
G1 F900 X196.023 Y221.366 E54.9461
M204 S3000
M205 X10 Y10
G0 F2700 X196.357 Y220.116
M204 S1800
M205 X8 Y8
G1 F900 X193.598 Y217.357 E55.30584
M204 S3000
M205 X10 Y10
G0 F2700 X193.933 Y216.108
M204 S1800
M205 X8 Y8
G1 F900 X196.693 Y218.867 E55.66564
M204 S3000
M205 X10 Y10
G0 F2700 X197.027 Y217.618
M204 S1800
M205 X8 Y8
G1 F900 X194.268 Y214.859 E56.02538
M204 S3000
M205 X10 Y10
G0 F2700 X194.603 Y213.61
M204 S1800
M205 X8 Y8
G1 F900 X197.362 Y216.369 E56.38511
M204 S3000
M205 X10 Y10
G0 F2700 X197.697 Y215.12
M204 S1800
M205 X8 Y8
G1 F900 X194.938 Y212.361 E56.74485
M204 S3000
M205 X10 Y10
G0 F2700 X195.273 Y211.112
M204 S1800
M205 X8 Y8
G1 F900 X198.032 Y213.871 E57.10458
M204 S3000
M205 X10 Y10
G0 F2700 X198.366 Y212.622
M204 S1800
M205 X8 Y8
G1 F900 X195.607 Y209.862 E57.46438
M204 S3000
M205 X10 Y10
G0 F2700 X195.942 Y208.613
M204 S1800
M205 X8 Y8
G1 F900 X198.701 Y211.372 E57.82412
M204 S3000
M205 X10 Y10
G0 F2700 X199.036 Y210.123
M204 S1800
M205 X8 Y8
G1 F900 X196.277 Y207.364 E58.18386
M204 S3000
M205 X10 Y10
G0 F2700 X196.611 Y206.115
M204 S1800
M205 X8 Y8
G1 F900 X199.37 Y208.874 E58.54359
M204 S3000
M205 X10 Y10
G0 F2700 X199.706 Y207.625
M204 S1800
M205 X8 Y8
G1 F900 X196.946 Y204.866 E58.90339
M204 S3000
M205 X10 Y10
G0 F2700 X197.281 Y203.617
M204 S1800
M205 X8 Y8
G1 F900 X200.04 Y206.376 E59.26313
M204 S3000
M205 X10 Y10
G0 F2700 X200.375 Y205.127
M204 S1800
M205 X8 Y8
G1 F900 X197.616 Y202.368 E59.62287
M204 S3000
M205 X10 Y10
G0 F2700 X197.951 Y201.118
M204 S1800
M205 X8 Y8
G1 F900 X200.71 Y203.877 E59.9826
M204 S3000
M205 X10 Y10
G0 F2700 X201.045 Y202.629
M204 S1800
M205 X8 Y8
G1 F900 X198.286 Y199.87 E60.34234
M204 S3000
M205 X10 Y10
G0 F2700 X198.62 Y198.62
M204 S1800
M205 X8 Y8
G1 F900 X201.379 Y201.379 E60.70207
M204 S3000
M205 X10 Y10
G0 F2700 X201.714 Y200.13
M204 S1800
M205 X8 Y8
G1 F900 X198.955 Y197.371 E61.06181
M204 S3000
M205 X10 Y10
G0 F2700 X199.29 Y196.122
M204 S1800
M205 X8 Y8
G1 F900 X202.049 Y198.881 E61.42155
M204 S3000
M205 X10 Y10
G0 F2700 X202.383 Y197.632
M204 S1800
M205 X8 Y8
G1 F900 X199.624 Y194.872 E61.78135
M204 S3000
M205 X10 Y10
G0 F2700 X201.139 Y194.803
M204 S1800
M205 X8 Y8
G1 F900 X202.719 Y196.383 E61.98736
M204 S3000
M205 X10 Y10
G0 F2700 X198.716 Y193.625
M204 S1800
M205 X8 Y8
;TYPE:SKIN
G1 F900 X197.869 Y192.778 E62.0268
M204 S3000
M205 X10 Y10
G0 F2700 X197.943 Y193.418
M204 S1800
M205 X8 Y8
G1 F900 X197.096 Y192.571 E62.06624
M204 S3000
M205 X10 Y10
G0 F2700 X197.171 Y193.211
M204 S1800
M205 X8 Y8
G1 F900 X196.323 Y192.364 E62.10571
M204 S3000
M205 X10 Y10
G0 F2700 X196.398 Y193.004
M204 S1800
M205 X8 Y8
G1 F900 X195.551 Y192.156 E62.14517
M204 S3000
M205 X10 Y10
G0 F2700 X195.625 Y192.796
M204 S1800
M205 X8 Y8
G1 F900 X194.778 Y191.949 E62.18461
M204 S3000
M205 X10 Y10
G0 F2700 X194.852 Y192.589
M204 S1800
M205 X8 Y8
G1 F900 X194.006 Y191.743 E62.22401
M204 S3000
M205 X10 Y10
G0 F2700 X194.079 Y192.382
M204 S1800
M205 X8 Y8
G1 F900 X193.233 Y191.536 E62.2634
M204 S3000
M205 X10 Y10
G0 F2700 X193.306 Y192.175
M204 S1800
M205 X8 Y8
G1 F900 X192.46 Y191.328 E62.30282
M204 S3000
M205 X10 Y10
G0 F2700 X192.534 Y191.968
M204 S1800
M205 X8 Y8
G1 F900 X191.687 Y191.121 E62.34226
M204 S3000
M205 X10 Y10
G0 F2700 X191.761 Y191.761
M204 S1800
M205 X8 Y8
G1 F900 X190.914 Y190.914 E62.38171
M204 S3000
M205 X10 Y10
G0 F2700 X190.988 Y191.554
M204 S1800
M205 X8 Y8
G1 F900 X190.141 Y190.707 E62.42115
M204 S3000
M205 X10 Y10
G0 F2700 X190.215 Y191.347
M204 S1800
M205 X8 Y8
G1 F900 X189.369 Y190.5 E62.46057
M204 S3000
M205 X10 Y10
G0 F2700 X189.443 Y191.14
M204 S1800
M205 X8 Y8
G1 F900 X188.596 Y190.293 E62.50001
M204 S3000
M205 X10 Y10
G0 F2700 X188.67 Y190.932
M204 S1800
M205 X8 Y8
G1 F900 X187.823 Y190.086 E62.53943
M204 S3000
M205 X10 Y10
G0 F2700 X187.897 Y190.725
M204 S1800
M205 X8 Y8
G1 F900 X187.05 Y189.879 E62.57885
M204 S3000
M205 X10 Y10
G0 F2700 X187.124 Y190.518
M204 S1800
M205 X8 Y8
G1 F900 X186.278 Y189.672 E62.61824
M204 S3000
M205 X10 Y10
G0 F2700 X186.351 Y190.311
M204 S1800
M205 X8 Y8
G1 F900 X185.505 Y189.465 E62.65764
M204 S3000
M205 X10 Y10
G0 F2700 X185.579 Y190.104
M204 S1800
M205 X8 Y8
G1 F900 X184.732 Y189.257 E62.69708
M204 S3000
M205 X10 Y10
G0 F2700 X184.806 Y189.897
M204 S1800
M205 X8 Y8
G1 F900 X183.96 Y189.051 E62.73647
M204 S3000
M205 X10 Y10
G0 F2700 X184.033 Y189.69
M204 S1800
M205 X8 Y8
G1 F900 X183.187 Y188.844 E62.77587
M204 S3000
M205 X10 Y10
G0 F2700 X183.26 Y189.483
M204 S1800
M205 X8 Y8
G1 F900 X182.414 Y188.636 E62.81529
M204 S3000
M205 X10 Y10
G0 F2700 X182.487 Y189.276
M204 S1800
M205 X8 Y8
G1 F900 X181.641 Y188.429 E62.85471
M204 S3000
M205 X10 Y10
G0 F2700 X181.715 Y189.069
M204 S1800
M205 X8 Y8
G1 F900 X180.868 Y188.222 E62.89415
M204 S3000
M205 X10 Y10
G0 F2700 X180.942 Y188.861
M204 S1800
M205 X8 Y8
G1 F900 X180.095 Y188.015 E62.93357
M204 S3000
M205 X10 Y10
G0 F2700 X180.169 Y188.654
M204 S1800
M205 X8 Y8
G1 F900 X179.323 Y187.808 E62.97296
M204 S3000
M205 X10 Y10
G0 F2700 X179.396 Y188.447
M204 S1800
M205 X8 Y8
G1 F900 X178.55 Y187.601 E63.01236
M204 S3000
M205 X10 Y10
G0 F2700 X178.623 Y188.24
M204 S1800
M205 X8 Y8
G1 F900 X177.777 Y187.394 E63.05175
M204 S3000
M205 X10 Y10
G0 F2700 X177.851 Y188.033
M204 S1800
M205 X8 Y8
G1 F900 X177.005 Y187.187 E63.09115
M204 S3000
M205 X10 Y10
G0 F2700 X177.078 Y187.826
M204 S1800
M205 X8 Y8
G1 F900 X176.232 Y186.98 E63.13054
M204 S3000
M205 X10 Y10
G0 F2700 X176.305 Y187.619
M204 S1800
M205 X8 Y8
G1 F900 X175.459 Y186.773 E63.16994
M204 S3000
M205 X10 Y10
G0 F2700 X175.532 Y187.412
M204 S1800
M205 X8 Y8
G1 F900 X174.686 Y186.565 E63.20936
M204 S3000
M205 X10 Y10
G0 F2700 X174.76 Y187.205
M204 S1800
M205 X8 Y8
G1 F900 X173.914 Y186.359 E63.24875
M204 S3000
M205 X10 Y10
G0 F2700 X173.987 Y186.997
M204 S1800
M205 X8 Y8
G1 F900 X173.141 Y186.152 E63.28812
M204 S3000
M205 X10 Y10
G0 F2700 X173.214 Y186.79
M204 S1800
M205 X8 Y8
G1 F900 X172.368 Y185.945 E63.3275
M204 S3000
M205 X10 Y10
G0 F2700 X172.441 Y186.583
M204 S1800
M205 X8 Y8
G1 F900 X171.595 Y185.737 E63.36689
M204 S3000
M205 X10 Y10
G0 F2700 X171.668 Y186.376
M204 S1800
M205 X8 Y8
G1 F900 X170.822 Y185.53 E63.40629
M204 S3000
M205 X10 Y10
G0 F2700 X170.895 Y186.169
M204 S1800
M205 X8 Y8
G1 F900 X170.049 Y185.323 E63.44568
M204 S3000
M205 X10 Y10
G0 F2700 X170.123 Y185.962
M204 S1800
M205 X8 Y8
G1 F900 X169.277 Y185.117 E63.48505
M204 S3000
M205 X10 Y10
G0 F2700 X169.35 Y185.755
M204 S1800
M205 X8 Y8
G1 F900 X168.504 Y184.909 E63.52445
M204 S3000
M205 X10 Y10
G0 F2700 X168.577 Y185.548
M204 S1800
M205 X8 Y8
G1 F900 X167.732 Y184.702 E63.56382
M204 S3000
M205 X10 Y10
G0 F2700 X167.804 Y185.341
M204 S1800
M205 X8 Y8
G1 F900 X166.959 Y184.495 E63.60319
M204 S3000
M205 X10 Y10
G0 F2700 X167.032 Y185.133
M204 S1800
M205 X8 Y8
G1 F900 X166.186 Y184.288 E63.64257
M204 S3000
M205 X10 Y10
G0 F2700 X166.259 Y184.926
M204 S1800
M205 X8 Y8
G1 F900 X165.413 Y184.081 E63.68194
M204 S3000
M205 X10 Y10
G0 F2700 X165.486 Y184.719
M204 S1800
M205 X8 Y8
G1 F900 X164.641 Y183.874 E63.72129
M204 S3000
M205 X10 Y10
G0 F2700 X164.713 Y184.512
M204 S1800
M205 X8 Y8
G1 F900 X163.868 Y183.667 E63.76064
M204 S3000
M205 X10 Y10
G0 F2700 X163.94 Y184.305
M204 S1800
M205 X8 Y8
G1 F900 X163.095 Y183.46 E63.79998
M204 S3000
M205 X10 Y10
G0 F2700 X163.167 Y184.098
M204 S1800
M205 X8 Y8
G1 F900 X162.322 Y183.253 E63.83933
M204 S3000
M205 X10 Y10
G0 F2700 X162.395 Y183.891
M204 S1800
M205 X8 Y8
G1 F900 X161.549 Y183.045 E63.87873
M204 S3000
M205 X10 Y10
G0 F2700 X161.622 Y183.684
M204 S1800
M205 X8 Y8
G1 F900 X160.776 Y182.838 E63.91812
M204 S3000
M205 X10 Y10
G0 F2700 X160.849 Y183.477
M204 S1800
M205 X8 Y8
G1 F900 X160.004 Y182.631 E63.9575
M204 S3000
M205 X10 Y10
G0 F2700 X160.076 Y183.27
M204 S1800
M205 X8 Y8
G1 F900 X159.353 Y182.546 E63.99119
M204 S3000
M205 X10 Y10
G0 F2700 X159.234 Y182.992
M204 S1800
M205 X8 Y8
G1 F900 X159.304 Y183.062 E63.99445
M204 S3000
M205 X10 Y10
G0 F2700 X198.642 Y192.985
M204 S1800
M205 X8 Y8
G1 F900 X198.954 Y193.297 E64.00898
M204 S3000
M205 X10 Y10
G0 F2700 X197.02 Y223.607
M204 S1800
M205 X8 Y8
G1 F900 X197.868 Y224.455 E64.04846
M204 S3000
M205 X10 Y10
G0 F2700 X197.793 Y223.814
M204 S1800
M205 X8 Y8
G1 F900 X198.641 Y224.662 E64.08795
M204 S3000
M205 X10 Y10
G0 F2700 X198.566 Y224.022
M204 S1800
M205 X8 Y8
G1 F900 X199.414 Y224.869 E64.12742
M204 S3000
M205 X10 Y10
G0 F2700 X199.339 Y224.229
M204 S1800
M205 X8 Y8
G1 F900 X200.186 Y225.076 E64.16686
M204 S3000
M205 X10 Y10
G0 F2700 X200.111 Y224.436
M204 S1800
M205 X8 Y8
G1 F900 X200.959 Y225.283 E64.20632
M204 S3000
M205 X10 Y10
G0 F2700 X200.884 Y224.642
M204 S1800
M205 X8 Y8
G1 F900 X201.731 Y225.49 E64.24579
M204 S3000
M205 X10 Y10
G0 F2700 X201.656 Y224.85
M204 S1800
M205 X8 Y8
G1 F900 X202.504 Y225.697 E64.28525
M204 S3000
M205 X10 Y10
G0 F2700 X202.429 Y225.057
M204 S1800
M205 X8 Y8
G1 F900 X203.277 Y225.905 E64.32474
M204 S3000
M205 X10 Y10
G0 F2700 X203.202 Y225.264
M204 S1800
M205 X8 Y8
G1 F900 X204.05 Y226.112 E64.36423
M204 S3000
M205 X10 Y10
G0 F2700 X203.975 Y225.471
M204 S1800
M205 X8 Y8
G1 F900 X204.822 Y226.318 E64.40367
M204 S3000
M205 X10 Y10
G0 F2700 X204.748 Y225.678
M204 S1800
M205 X8 Y8
G1 F900 X205.595 Y226.525 E64.44312
M204 S3000
M205 X10 Y10
G0 F2700 X205.521 Y225.885
M204 S1800
M205 X8 Y8
G1 F900 X206.368 Y226.733 E64.48258
M204 S3000
M205 X10 Y10
G0 F2700 X206.294 Y226.093
M204 S1800
M205 X8 Y8
G1 F900 X207.141 Y226.94 E64.52202
M204 S3000
M205 X10 Y10
G0 F2700 X207.066 Y226.299
M204 S1800
M205 X8 Y8
G1 F900 X207.914 Y227.147 E64.56151
M204 S3000
M205 X10 Y10
G0 F2700 X207.839 Y226.506
M204 S1800
M205 X8 Y8
G1 F900 X208.687 Y227.354 E64.601
M204 S3000
M205 X10 Y10
G0 F2700 X208.612 Y226.713
M204 S1800
M205 X8 Y8
G1 F900 X209.459 Y227.561 E64.64046
M204 S3000
M205 X10 Y10
G0 F2700 X209.384 Y226.921
M204 S1800
M205 X8 Y8
G1 F900 X210.232 Y227.768 E64.67993
M204 S3000
M205 X10 Y10
G0 F2700 X210.157 Y227.128
M204 S1800
M205 X8 Y8
G1 F900 X211.004 Y227.975 E64.71937
M204 S3000
M205 X10 Y10
G0 F2700 X210.93 Y227.335
M204 S1800
M205 X8 Y8
G1 F900 X211.777 Y228.182 E64.75881
M204 S3000
M205 X10 Y10
G0 F2700 X211.703 Y227.542
M204 S1800
M205 X8 Y8
G1 F900 X212.55 Y228.389 E64.79826
M204 S3000
M205 X10 Y10
G0 F2700 X212.475 Y227.749
M204 S1800
M205 X8 Y8
G1 F900 X213.323 Y228.597 E64.83774
M204 S3000
M205 X10 Y10
G0 F2700 X213.248 Y227.956
M204 S1800
M205 X8 Y8
G1 F900 X214.096 Y228.804 E64.87723
M204 S3000
M205 X10 Y10
G0 F2700 X214.021 Y228.163
M204 S1800
M205 X8 Y8
G1 F900 X214.869 Y229.011 E64.91672
M204 S3000
M205 X10 Y10
G0 F2700 X214.794 Y228.37
M204 S1800
M205 X8 Y8
G1 F900 X215.641 Y229.217 E64.95616
M204 S3000
M205 X10 Y10
G0 F2700 X215.567 Y228.577
M204 S1800
M205 X8 Y8
G1 F900 X216.414 Y229.425 E64.99563
M204 S3000
M205 X10 Y10
G0 F2700 X216.34 Y228.785
M204 S1800
M205 X8 Y8
G1 F900 X217.187 Y229.632 E65.03507
M204 S3000
M205 X10 Y10
G0 F2700 X217.112 Y228.992
M204 S1800
M205 X8 Y8
G1 F900 X217.96 Y229.839 E65.07453
M204 S3000
M205 X10 Y10
G0 F2700 X217.885 Y229.198
M204 S1800
M205 X8 Y8
G1 F900 X218.732 Y230.046 E65.114
M204 S3000
M205 X10 Y10
G0 F2700 X218.657 Y229.405
M204 S1800
M205 X8 Y8
G1 F900 X219.505 Y230.253 E65.15349
M204 S3000
M205 X10 Y10
G0 F2700 X219.43 Y229.613
M204 S1800
M205 X8 Y8
G1 F900 X220.277 Y230.46 E65.19293
M204 S3000
M205 X10 Y10
G0 F2700 X220.203 Y229.82
M204 S1800
M205 X8 Y8
G1 F900 X221.05 Y230.667 E65.23237
M204 S3000
M205 X10 Y10
G0 F2700 X220.976 Y230.027
M204 S1800
M205 X8 Y8
G1 F900 X221.823 Y230.874 E65.27181
M204 S3000
M205 X10 Y10
G0 F2700 X221.749 Y230.234
M204 S1800
M205 X8 Y8
G1 F900 X222.596 Y231.081 E65.31126
M204 S3000
M205 X10 Y10
G0 F2700 X222.522 Y230.441
M204 S1800
M205 X8 Y8
G1 F900 X223.369 Y231.288 E65.3507
M204 S3000
M205 X10 Y10
G0 F2700 X223.295 Y230.649
M204 S1800
M205 X8 Y8
G1 F900 X224.142 Y231.496 E65.39014
M204 S3000
M205 X10 Y10
G0 F2700 X224.067 Y230.855
M204 S1800
M205 X8 Y8
G1 F900 X224.915 Y231.703 E65.42963
M204 S3000
M205 X10 Y10
G0 F2700 X224.84 Y231.062
M204 S1800
M205 X8 Y8
G1 F900 X225.687 Y231.909 E65.46907
M204 S3000
M205 X10 Y10
G0 F2700 X225.613 Y231.269
M204 S1800
M205 X8 Y8
G1 F900 X226.46 Y232.116 E65.50851
M204 S3000
M205 X10 Y10
G0 F2700 X226.385 Y231.477
M204 S1800
M205 X8 Y8
G1 F900 X227.233 Y232.324 E65.54798
M204 S3000
M205 X10 Y10
G0 F2700 X227.158 Y231.684
M204 S1800
M205 X8 Y8
G1 F900 X228.005 Y232.531 E65.58742
M204 S3000
M205 X10 Y10
G0 F2700 X227.931 Y231.891
M204 S1800
M205 X8 Y8
G1 F900 X228.778 Y232.738 E65.62686
M204 S3000
M205 X10 Y10
G0 F2700 X228.704 Y232.098
M204 S1800
M205 X8 Y8
G1 F900 X229.551 Y232.945 E65.6663
M204 S3000
M205 X10 Y10
G0 F2700 X229.476 Y232.305
M204 S1800
M205 X8 Y8
G1 F900 X230.324 Y233.152 E65.70577
M204 S3000
M205 X10 Y10
G0 F2700 X230.249 Y232.512
M204 S1800
M205 X8 Y8
G1 F900 X231.096 Y233.359 E65.74521
M204 S3000
M205 X10 Y10
G0 F2700 X231.022 Y232.719
M204 S1800
M205 X8 Y8
G1 F900 X231.869 Y233.566 E65.78465
M204 S3000
M205 X10 Y10
G0 F2700 X231.795 Y232.926
M204 S1800
M205 X8 Y8
G1 F900 X232.642 Y233.773 E65.82409
M204 S3000
M205 X10 Y10
G0 F2700 X232.568 Y233.133
M204 S1800
