;FLAVOR:Marlin
;TIME:680
;Filament used: 2.55299m
;Layer height: 0.5
;MINX:148.497
;MINY:181.453
;MINZ:0.2
;MAXX:251.503
;MAXY:217.109
;MAXZ:10.2
;Generated with Cura_SteamEngine 4.11.0
M140 S70
M105
M190 S70
M104 S210
M105
M109 S210
M82 ;absolute extrusion mode
M107 ;Start with the fan off
G21 ;Set units to millimeters
G91 ;Change to relative positioning mode for retract filament and nozzle lifting
G1 F200 E-3 ;Retract 3mm filament for a clean start
G92 E0 ;Zero the extruded length
G1 F1000 Z5 ;Lift the nozzle 5mm before homing axes
G90 ;Absolute positioning
M82 ;Set extruder to absolute mode too
G28 X0 Y0 ;First move X/Y to min endstops
G28 Z0 ;Then move Z to min endstops
G1 F1000 Z15 ;After homing lift the nozzle 15mm before start printing

G92 E0
G92 E0
G1 F1200 E-3
;LAYER_COUNT:21
;LAYER:0
M107
M204 S3000
M205 X10 Y10
G1 F600 Z0.275
;MESH:spring arms pawl edit 09.08.2021.stl
G0 F2700 X244.971 Y190.41 Z0.275
M204 S1800
M205 X8 Y8
;TYPE:WALL-INNER
G1 F600 Z0.2
G1 F2700 E0
G1 F900 X245.455 Y190.13 E0.05155
G1 X245.734 Y190.614 E0.08481
G1 X245.735 Y190.615 E0.08494
G1 X246.275 Y191.551 E0.18456
G1 X205.035 Y215.36 E4.57493
G1 X190.035 Y189.38 E7.34079
G1 X154.545 Y209.869 E11.119
G1 X154.005 Y208.934 E11.21855
G1 X154.004 Y208.932 E11.21875
G1 X153.725 Y208.449 E11.27018
G1 X154.209 Y208.17 E11.30348
G1 X194.965 Y184.64 E15.64234
G1 X209.965 Y210.62 E18.40819
G1 X244.971 Y190.41 E22.1349
M204 S3000
M205 X10 Y10
G0 F2700 X245.02 Y190.496
G0 X205.06 Y215.264
G0 X204.625 Y216.89
M204 S1800
M205 X8 Y8
;TYPE:WALL-OUTER
G1 F900 X189.625 Y190.91 E24.90075
G1 X154.135 Y211.399 E28.67897
G1 X152.475 Y208.524 E28.98504
G1 X152.474 Y208.522 E28.98525
G1 X152.195 Y208.039 E29.03668
G1 X152.679 Y207.76 E29.06998
G1 X195.375 Y183.11 E33.61537
G1 X210.375 Y209.09 E36.38122
G1 X245.381 Y188.88 E40.10793
G1 X245.865 Y188.6 E40.15948
G1 X246.144 Y189.084 E40.19273
G1 X246.145 Y189.085 E40.19286
G1 X247.805 Y191.961 E40.49902
G1 X204.625 Y216.89 E45.09592
M204 S3000
M205 X10 Y10
G0 F2700 X204.425 Y216.544
G0 X205.06 Y215.264
G0 X205.441 Y213.844
M204 S1800
M205 X8 Y8
;TYPE:SKIN
G1 F900 X190.731 Y188.366 E47.80832
G1 X194.559 Y186.156 E48.21584
G1 X209.269 Y211.634 E50.92825
G1 X205.441 Y213.844 E51.33577
M204 S3000
M205 X10 Y10
G0 F2700 X206.37 Y212.706
M204 S1800
M205 X8 Y8
G1 F900 X204.036 Y210.372 E51.64009
G1 X203.895 Y210.231
M204 S3000
M205 X10 Y10
G0 F2700 X206.781 Y208.365
M204 S1800
M205 X8 Y8
G1 F900 X197.545 Y199.129 E52.84434
G1 X197.404 Y198.988
M204 S3000
M205 X10 Y10
G0 F2700 X200.29 Y197.122
M204 S1800
M205 X8 Y8
G1 F900 X191.62 Y188.452 E53.97479
M204 S3000
M205 X10 Y10
G0 F2700 X192.624 Y187.872
M204 S1800
M205 X8 Y8
G1 F900 X198.126 Y193.374 E54.69218
G1 X198.267 Y193.515
M204 S3000
M205 X10 Y10
G0 F2700 X195.381 Y195.381
M204 S1800
M205 X8 Y8
G1 F900 X204.617 Y204.617 E55.89643
G1 X204.758 Y204.758
M204 S3000
M205 X10 Y10
G0 F2700 X201.872 Y206.624
M204 S1800
M205 X8 Y8
G1 F900 X207.374 Y212.126 E56.61381
M204 S3000
M205 X10 Y10
G0 F2700 X208.378 Y211.546
M204 S1800
M205 X8 Y8
G1 F900 X199.708 Y202.876 E57.74426
G1 X199.567 Y202.735
M204 S3000
M205 X10 Y10
G0 F2700 X202.453 Y200.869
M204 S1800
M205 X8 Y8
G1 F900 X193.217 Y191.633 E58.94851
G1 X193.076 Y191.492
M204 S3000
M205 X10 Y10
G0 F2700 X195.962 Y189.626
M204 S1800
M205 X8 Y8
G1 F900 X193.628 Y187.292 E59.25283
G1 X193.487 Y187.151
M204 S3000
M205 X10 Y10
G0 F2700 X190.18 Y188.483
M204 S1800
M205 X8 Y8
;TYPE:SKIN
G1 F900 X189.875 Y188.178 E59.26703
M204 S3000
M205 X10 Y10
G0 F2700 X189.516 Y188.385
M204 S1800
M205 X8 Y8
G1 F900 X189.956 Y188.825 E59.28752
M204 S3000
M205 X10 Y10
G0 F2700 X189.597 Y189.032
M204 S1800
M205 X8 Y8
G1 F900 X189.158 Y188.592 E59.30799
M204 S3000
M205 X10 Y10
G0 F2700 X188.799 Y188.799
M204 S1800
M205 X8 Y8
G1 F900 X189.239 Y189.239 E59.32848
M204 S3000
M205 X10 Y10
G0 F2700 X188.88 Y189.446
M204 S1800
M205 X8 Y8
G1 F900 X188.441 Y189.006 E59.34895
M204 S3000
M205 X10 Y10
G0 F2700 X188.082 Y189.213
M204 S1800
M205 X8 Y8
G1 F900 X188.521 Y189.653 E59.36941
M204 S3000
M205 X10 Y10
G0 F2700 X188.163 Y189.86
M204 S1800
M205 X8 Y8
G1 F900 X187.723 Y189.42 E59.3899
M204 S3000
M205 X10 Y10
G0 F2700 X187.364 Y189.627
M204 S1800
M205 X8 Y8
G1 F900 X187.804 Y190.067 E59.41039
M204 S3000
M205 X10 Y10
G0 F2700 X187.446 Y190.274
M204 S1800
M205 X8 Y8
G1 F900 X187.006 Y189.834 E59.43088
M204 S3000
M205 X10 Y10
G0 F2700 X186.647 Y190.042
M204 S1800
M205 X8 Y8
G1 F900 X187.087 Y190.481 E59.45135
M204 S3000
M205 X10 Y10
G0 F2700 X186.728 Y190.688
M204 S1800
M205 X8 Y8
G1 F900 X186.289 Y190.249 E59.47179
M204 S3000
M205 X10 Y10
G0 F2700 X185.93 Y190.456
M204 S1800
M205 X8 Y8
G1 F900 X186.37 Y190.895 E59.49225
M204 S3000
M205 X10 Y10
G0 F2700 X186.011 Y191.102
M204 S1800
M205 X8 Y8
G1 F900 X185.571 Y190.662 E59.51274
M204 S3000
M205 X10 Y10
G0 F2700 X185.213 Y190.87
M204 S1800
M205 X8 Y8
G1 F900 X185.653 Y191.309 E59.53321
M204 S3000
M205 X10 Y10
G0 F2700 X185.293 Y191.516
M204 S1800
M205 X8 Y8
G1 F900 X184.854 Y191.077 E59.55365
M204 S3000
M205 X10 Y10
G0 F2700 X184.496 Y191.284
M204 S1800
M205 X8 Y8
G1 F900 X184.935 Y191.723 E59.57409
M204 S3000
M205 X10 Y10
G0 F2700 X184.576 Y191.93
M204 S1800
M205 X8 Y8
G1 F900 X184.137 Y191.491 E59.59454
M204 S3000
M205 X10 Y10
G0 F2700 X183.778 Y191.698
M204 S1800
M205 X8 Y8
G1 F900 X184.218 Y192.137 E59.615
M204 S3000
M205 X10 Y10
G0 F2700 X183.859 Y192.345
M204 S1800
M205 X8 Y8
G1 F900 X183.419 Y191.905 E59.63549
M204 S3000
M205 X10 Y10
G0 F2700 X183.061 Y192.112
M204 S1800
M205 X8 Y8
G1 F900 X183.5 Y192.551 E59.65594
M204 S3000
M205 X10 Y10
G0 F2700 X183.142 Y192.758
M204 S1800
M205 X8 Y8
G1 F900 X182.702 Y192.319 E59.6764
M204 S3000
M205 X10 Y10
G0 F2700 X182.344 Y192.526
M204 S1800
M205 X8 Y8
G1 F900 X182.783 Y192.965 E59.69684
M204 S3000
M205 X10 Y10
G0 F2700 X182.425 Y193.173
M204 S1800
M205 X8 Y8
G1 F900 X181.985 Y192.733 E59.71733
M204 S3000
M205 X10 Y10
G0 F2700 X181.626 Y192.94
M204 S1800
M205 X8 Y8
G1 F900 X182.066 Y193.38 E59.73782
M204 S3000
M205 X10 Y10
G0 F2700 X181.707 Y193.586
M204 S1800
M205 X8 Y8
G1 F900 X181.268 Y193.147 E59.75827
M204 S3000
M205 X10 Y10
G0 F2700 X180.909 Y193.354
M204 S1800
M205 X8 Y8
G1 F900 X181.348 Y193.793 E59.77871
M204 S3000
M205 X10 Y10
G0 F2700 X180.99 Y194.001
M204 S1800
M205 X8 Y8
G1 F900 X180.551 Y193.561 E59.79917
M204 S3000
M205 X10 Y10
G0 F2700 X180.192 Y193.769
M204 S1800
M205 X8 Y8
G1 F900 X180.631 Y194.208 E59.81962
M204 S3000
M205 X10 Y10
G0 F2700 X180.273 Y194.415
M204 S1800
M205 X8 Y8
G1 F900 X179.833 Y193.975 E59.84011
M204 S3000
M205 X10 Y10
G0 F2700 X179.475 Y194.182
M204 S1800
M205 X8 Y8
G1 F900 X179.914 Y194.621 E59.86055
M204 S3000
M205 X10 Y10
G0 F2700 X179.555 Y194.829
M204 S1800
M205 X8 Y8
G1 F900 X179.116 Y194.39 E59.88099
M204 S3000
M205 X10 Y10
G0 F2700 X178.758 Y194.597
M204 S1800
M205 X8 Y8
G1 F900 X179.197 Y195.036 E59.90143
M204 S3000
M205 X10 Y10
G0 F2700 X178.838 Y195.243
M204 S1800
M205 X8 Y8
G1 F900 X178.399 Y194.804 E59.92188
M204 S3000
M205 X10 Y10
G0 F2700 X178.04 Y195.01
M204 S1800
M205 X8 Y8
G1 F900 X178.479 Y195.449 E59.94232
M204 S3000
M205 X10 Y10
G0 F2700 X178.12 Y195.657
M204 S1800
M205 X8 Y8
G1 F900 X177.681 Y195.218 E59.96276
M204 S3000
M205 X10 Y10
G0 F2700 X177.323 Y195.425
M204 S1800
M205 X8 Y8
G1 F900 X177.762 Y195.864 E59.98321
M204 S3000
M205 X10 Y10
G0 F2700 X177.403 Y196.071
M204 S1800
M205 X8 Y8
G1 F900 X176.964 Y195.632 E60.00365
M204 S3000
M205 X10 Y10
G0 F2700 X176.606 Y195.839
M204 S1800
M205 X8 Y8
G1 F900 X177.045 Y196.278 E60.02409
M204 S3000
M205 X10 Y10
G0 F2700 X176.686 Y196.485
M204 S1800
M205 X8 Y8
G1 F900 X176.247 Y196.046 E60.04453
M204 S3000
M205 X10 Y10
G0 F2700 X175.888 Y196.253
M204 S1800
M205 X8 Y8
G1 F900 X176.327 Y196.692 E60.06498
M204 S3000
M205 X10 Y10
G0 F2700 X175.969 Y196.899
M204 S1800
M205 X8 Y8
G1 F900 X175.53 Y196.46 E60.08542
M204 S3000
M205 X10 Y10
G0 F2700 X175.171 Y196.667
M204 S1800
M205 X8 Y8
G1 F900 X175.61 Y197.106 E60.10586
M204 S3000
M205 X10 Y10
G0 F2700 X175.252 Y197.313
M204 S1800
M205 X8 Y8
G1 F900 X174.813 Y196.874 E60.1263
M204 S3000
M205 X10 Y10
G0 F2700 X174.454 Y197.081
M204 S1800
M205 X8 Y8
G1 F900 X174.892 Y197.52 E60.14672
M204 S3000
M205 X10 Y10
G0 F2700 X174.534 Y197.727
M204 S1800
M205 X8 Y8
G1 F900 X174.095 Y197.288 E60.16717
M204 S3000
M205 X10 Y10
G0 F2700 X173.736 Y197.495
M204 S1800
M205 X8 Y8
G1 F900 X174.175 Y197.934 E60.18761
M204 S3000
M205 X10 Y10
G0 F2700 X173.817 Y198.141
M204 S1800
M205 X8 Y8
G1 F900 X173.378 Y197.702 E60.20805
M204 S3000
M205 X10 Y10
G0 F2700 X173.019 Y197.909
M204 S1800
M205 X8 Y8
G1 F900 X173.458 Y198.349 E60.22852
M204 S3000
M205 X10 Y10
G0 F2700 X173.099 Y198.555
M204 S1800
M205 X8 Y8
G1 F900 X172.661 Y198.117 E60.24891
M204 S3000
M205 X10 Y10
G0 F2700 X172.302 Y198.323
M204 S1800
M205 X8 Y8
G1 F900 X172.741 Y198.762 E60.26936
M204 S3000
M205 X10 Y10
G0 F2700 X172.382 Y198.969
M204 S1800
M205 X8 Y8
G1 F900 X171.943 Y198.53 E60.2898
M204 S3000
M205 X10 Y10
G0 F2700 X171.585 Y198.738
M204 S1800
M205 X8 Y8
G1 F900 X172.024 Y199.177 E60.31024
M204 S3000
M205 X10 Y10
G0 F2700 X171.665 Y199.384
M204 S1800
M205 X8 Y8
G1 F900 X171.226 Y198.945 E60.33068
M204 S3000
M205 X10 Y10
G0 F2700 X170.868 Y199.152
M204 S1800
M205 X8 Y8
G1 F900 X171.306 Y199.59 E60.35108
M204 S3000
M205 X10 Y10
G0 F2700 X170.948 Y199.797
M204 S1800
M205 X8 Y8
G1 F900 X170.509 Y199.359 E60.3715
M204 S3000
M205 X10 Y10
G0 F2700 X170.15 Y199.566
M204 S1800
M205 X8 Y8
G1 F900 X170.589 Y200.005 E60.39194
M204 S3000
M205 X10 Y10
G0 F2700 X170.231 Y200.212
M204 S1800
M205 X8 Y8
G1 F900 X169.791 Y199.773 E60.41241
M204 S3000
M205 X10 Y10
G0 F2700 X169.433 Y199.98
M204 S1800
M205 X8 Y8
G1 F900 X169.871 Y200.418 E60.43281
M204 S3000
M205 X10 Y10
G0 F2700 X169.513 Y200.625
M204 S1800
M205 X8 Y8
G1 F900 X169.074 Y200.187 E60.45322
M204 S3000
M205 X10 Y10
G0 F2700 X168.716 Y200.394
M204 S1800
M205 X8 Y8
G1 F900 X169.154 Y200.833 E60.47364
M204 S3000
M205 X10 Y10
G0 F2700 X168.796 Y201.04
M204 S1800
M205 X8 Y8
G1 F900 X168.357 Y200.601 E60.49409
M204 S3000
M205 X10 Y10
G0 F2700 X167.998 Y200.808
M204 S1800
M205 X8 Y8
G1 F900 X168.437 Y201.247 E60.51453
M204 S3000
M205 X10 Y10
G0 F2700 X168.078 Y201.454
M204 S1800
M205 X8 Y8
G1 F900 X167.64 Y201.015 E60.53495
M204 S3000
M205 X10 Y10
G0 F2700 X167.281 Y201.222
M204 S1800
M205 X8 Y8
G1 F900 X167.72 Y201.661 E60.55539
M204 S3000
M205 X10 Y10
G0 F2700 X167.361 Y201.868
M204 S1800
M205 X8 Y8
G1 F900 X166.923 Y201.429 E60.57581
M204 S3000
M205 X10 Y10
G0 F2700 X166.564 Y201.637
M204 S1800
M205 X8 Y8
G1 F900 X167.003 Y202.075 E60.59623
M204 S3000
M205 X10 Y10
G0 F2700 X166.644 Y202.282
M204 S1800
M205 X8 Y8
G1 F900 X166.205 Y201.843 E60.61667
M204 S3000
M205 X10 Y10
G0 F2700 X165.846 Y202.05
M204 S1800
M205 X8 Y8
G1 F900 X166.285 Y202.489 E60.63712
M204 S3000
M205 X10 Y10
G0 F2700 X165.926 Y202.696
M204 S1800
M205 X8 Y8
G1 F900 X165.488 Y202.257 E60.65754
M204 S3000
M205 X10 Y10
G0 F2700 X165.129 Y202.465
M204 S1800
M205 X8 Y8
G1 F900 X165.568 Y202.903 E60.67796
M204 S3000
M205 X10 Y10
G0 F2700 X165.209 Y203.11
M204 S1800
M205 X8 Y8
G1 F900 X164.771 Y202.672 E60.69835
M204 S3000
M205 X10 Y10
G0 F2700 X164.412 Y202.878
M204 S1800
M205 X8 Y8
G1 F900 X164.851 Y203.317 E60.71879
M204 S3000
M205 X10 Y10
G0 F2700 X164.492 Y203.524
M204 S1800
M205 X8 Y8
G1 F900 X164.053 Y203.086 E60.73921
M204 S3000
M205 X10 Y10
G0 F2700 X163.695 Y203.293
M204 S1800
M205 X8 Y8
G1 F900 X164.133 Y203.731 E60.75961
M204 S3000
M205 X10 Y10
G0 F2700 X163.775 Y203.938
M204 S1800
M205 X8 Y8
G1 F900 X163.336 Y203.5 E60.78003
M204 S3000
M205 X10 Y10
G0 F2700 X162.978 Y203.707
M204 S1800
M205 X8 Y8
G1 F900 X163.416 Y204.145 E60.80043
M204 S3000
M205 X10 Y10
G0 F2700 X163.058 Y204.353
M204 S1800
M205 X8 Y8
G1 F900 X162.619 Y203.914 E60.82087
M204 S3000
M205 X10 Y10
G0 F2700 X162.26 Y204.121
M204 S1800
M205 X8 Y8
G1 F900 X162.698 Y204.559 E60.84126
M204 S3000
M205 X10 Y10
G0 F2700 X162.34 Y204.766
M204 S1800
M205 X8 Y8
G1 F900 X161.901 Y204.328 E60.86168
M204 S3000
M205 X10 Y10
G0 F2700 X161.543 Y204.535
M204 S1800
M205 X8 Y8
G1 F900 X161.981 Y204.973 E60.88208
M204 S3000
M205 X10 Y10
G0 F2700 X161.623 Y205.181
M204 S1800
M205 X8 Y8
G1 F900 X161.184 Y204.742 E60.90252
M204 S3000
M205 X10 Y10
G0 F2700 X160.826 Y204.949
M204 S1800
M205 X8 Y8
G1 F900 X161.264 Y205.387 E60.92292
M204 S3000
M205 X10 Y10
G0 F2700 X160.905 Y205.594
M204 S1800
M205 X8 Y8
G1 F900 X160.467 Y205.156 E60.94331
M204 S3000
M205 X10 Y10
G0 F2700 X160.108 Y205.363
M204 S1800
M205 X8 Y8
G1 F900 X160.547 Y205.802 E60.96376
M204 S3000
M205 X10 Y10
G0 F2700 X160.188 Y206.009
M204 S1800
M205 X8 Y8
G1 F900 X159.75 Y205.57 E60.98418
M204 S3000
M205 X10 Y10
G0 F2700 X159.391 Y205.777
M204 S1800
M205 X8 Y8
G1 F900 X159.83 Y206.216 E61.00462
M204 S3000
M205 X10 Y10
G0 F2700 X159.47 Y206.422
M204 S1800
M205 X8 Y8
G1 F900 X159.033 Y205.985 E61.02497
M204 S3000
M205 X10 Y10
G0 F2700 X158.674 Y206.191
M204 S1800
M205 X8 Y8
G1 F900 X159.112 Y206.63 E61.04539
M204 S3000
M205 X10 Y10
G0 F2700 X158.753 Y206.837
M204 S1800
M205 X8 Y8
G1 F900 X158.315 Y206.398 E61.06581
M204 S3000
M205 X10 Y10
G0 F2700 X157.957 Y206.605
M204 S1800
M205 X8 Y8
G1 F900 X158.395 Y207.044 E61.08623
M204 S3000
M205 X10 Y10
G0 F2700 X158.036 Y207.251
M204 S1800
M205 X8 Y8
G1 F900 X157.598 Y206.813 E61.10662
M204 S3000
M205 X10 Y10
G0 F2700 X157.24 Y207.02
M204 S1800
M205 X8 Y8
G1 F900 X157.677 Y207.458 E61.127
M204 S3000
M205 X10 Y10
G0 F2700 X157.319 Y207.665
M204 S1800
M205 X8 Y8
G1 F900 X156.881 Y207.227 E61.14739
M204 S3000
M205 X10 Y10
G0 F2700 X156.522 Y207.434
M204 S1800
M205 X8 Y8
G1 F900 X156.96 Y207.872 E61.16779
M204 S3000
M205 X10 Y10
G0 F2700 X156.602 Y208.079
M204 S1800
M205 X8 Y8
G1 F900 X156.163 Y207.641 E61.18821
M204 S3000
M205 X10 Y10
G0 F2700 X155.805 Y207.848
M204 S1800
M205 X8 Y8
G1 F900 X156.243 Y208.286 E61.2086
M204 S3000
M205 X10 Y10
G0 F2700 X155.884 Y208.493
M204 S1800
M205 X8 Y8
G1 F900 X155.446 Y208.055 E61.229
M204 S3000
M205 X10 Y10
G0 F2700 X155.088 Y208.262
M204 S1800
M205 X8 Y8
G1 F900 X155.526 Y208.7 E61.2494
M204 S3000
M205 X10 Y10
G0 F2700 X155.167 Y208.907
M204 S1800
M205 X8 Y8
G1 F900 X154.729 Y208.469 E61.26979
M204 S3000
M205 X10 Y10
G0 F2700 X154.573 Y208.879
M204 S1800
M205 X8 Y8
G1 F900 X154.809 Y209.114 E61.28076
M204 S3000
M205 X10 Y10
G0 F2700 X190.045 Y189.342
G0 X209.819 Y211.516
M204 S1800
M205 X8 Y8
G1 F900 X210.123 Y211.82 E61.29492
M204 S3000
M205 X10 Y10
G0 F2700 X210.482 Y211.613
M204 S1800
M205 X8 Y8
G1 F900 X210.043 Y211.174 E61.31536
M204 S3000
M205 X10 Y10
G0 F2700 X210.401 Y210.967
M204 S1800
M205 X8 Y8
G1 F900 X210.84 Y211.406 E61.3358
M204 S3000
M205 X10 Y10
G0 F2700 X211.199 Y211.199
M204 S1800
M205 X8 Y8
G1 F900 X210.76 Y210.76 E61.35624
M204 S3000
M205 X10 Y10
G0 F2700 X211.118 Y210.553
M204 S1800
M205 X8 Y8
G1 F900 X211.557 Y210.992 E61.37669
M204 S3000
M205 X10 Y10
G0 F2700 X211.916 Y210.784
M204 S1800
M205 X8 Y8
G1 F900 X211.477 Y210.346 E61.39711
M204 S3000
M205 X10 Y10
G0 F2700 X211.836 Y210.139
M204 S1800
M205 X8 Y8
G1 F900 X212.275 Y210.578 E61.41755
M204 S3000
M205 X10 Y10
G0 F2700 X212.634 Y210.371
M204 S1800
M205 X8 Y8
G1 F900 X212.194 Y209.932 E61.43801
M204 S3000
M205 X10 Y10
G0 F2700 X212.553 Y209.725
M204 S1800
M205 X8 Y8
G1 F900 X212.992 Y210.164 E61.45846
M204 S3000
M205 X10 Y10
G0 F2700 X213.351 Y209.956
M204 S1800
M205 X8 Y8
G1 F900 X212.911 Y209.517 E61.47892
M204 S3000
M205 X10 Y10
G0 F2700 X213.27 Y209.31
M204 S1800
M205 X8 Y8
G1 F900 X213.709 Y209.749 E61.49937
M204 S3000
M205 X10 Y10
G0 F2700 X214.068 Y209.543
M204 S1800
M205 X8 Y8
G1 F900 X213.629 Y209.104 E61.51981
M204 S3000
M205 X10 Y10
G0 F2700 X213.988 Y208.897
M204 S1800
M205 X8 Y8
G1 F900 X214.427 Y209.336 E61.54025
M204 S3000
M205 X10 Y10
G0 F2700 X214.785 Y209.128
M204 S1800
M205 X8 Y8
G1 F900 X214.346 Y208.689 E61.56069
M204 S3000
M205 X10 Y10
G0 F2700 X214.705 Y208.482
M204 S1800
M205 X8 Y8
G1 F900 X215.144 Y208.921 E61.58114
M204 S3000
M205 X10 Y10
G0 F2700 X215.502 Y208.714
M204 S1800
M205 X8 Y8
G1 F900 X215.063 Y208.275 E61.60158
M204 S3000
M205 X10 Y10
