;FLAVOR:Marlin
;TIME:17683
;Filament used: 71.2468m
;Layer height: 0.5
;MINX:13.961
;MINY:1.43
;MINZ:0.2
;MAXX:385.421
;MAXY:372.969
;MAXZ:35.2
;Generated with Cura_SteamEngine 4.11.0
M140 S70
M105
M190 S70
M104 S210
M105
M109 S210
M82 ;absolute extrusion mode
M107 ;Start with the fan off
G21 ;Set units to millimeters
G91 ;Change to relative positioning mode for retract filament and nozzle lifting
G1 F200 E-3 ;Retract 3mm filament for a clean start
G92 E0 ;Zero the extruded length
G1 F1000 Z5 ;Lift the nozzle 5mm before homing axes
G90 ;Absolute positioning
M82 ;Set extruder to absolute mode too
G28 X0 Y0 ;First move X/Y to min endstops
G28 Z0 ;Then move Z to min endstops
G1 F1000 Z15 ;After homing lift the nozzle 15mm before start printing

G92 E0
G92 E0
G1 F1200 E-3
;LAYER_COUNT:71
;LAYER:0
M107
M204 S3000
M205 X10 Y10
G1 F600 Z0.275
G0 F2700 X215.636 Y327.58 Z0.275
M204 S1800
M205 X8 Y8
;TYPE:SUPPORT-INTERFACE
G1 F600 Z0.2
G1 F2700 E0
G1 F900 X340.019 Y203.197 E16.21785
G1 X339.253 Y207.543 E16.62471
G1 X339.496 Y207.89 E16.66377
G1 X220.328 Y327.057 E32.20159
G1 X219.981 Y326.814 E32.24065
G1 X215.636 Y327.58 E32.64742
M204 S3000
M205 X10 Y10
G1 F1200 E29.64742
G0 F2700 X36.887 Y276.803
G0 X13.961 Y298.717
G0 X87.022 Y372.79
G0 X223.419 Y349.017
G0 X223.044 Y336.218
M204 S1800
M205 X8 Y8
G1 F2700 E32.64742
G1 F900 X348.658 Y210.604 E49.02578
G1 X352.202 Y211.229 E49.35756
G1 X223.669 Y339.762 E66.11652
G1 X223.044 Y336.218 E66.44831
M204 S3000
M205 X10 Y10
G1 F1200 E63.44831
G0 F2700 X223.999 Y348.187
G0 X87.593 Y372.969
G0 X13.961 Y299.729
G0 X35.875 Y276.803
G0 X338.238 Y207.769
M204 S1800
M205 X8 Y8
G1 F2700 E66.44831
G1 F900 X338.247 Y207.781 E66.44969
G1 X220.219 Y325.808 E81.83887
G1 X220.207 Y325.799 E81.84025
G1 X218.468 Y326.106 E82.00306
G1 X338.545 Y206.029 E97.65947
G1 X338.238 Y207.769 E97.82237
M204 S3000
M205 X10 Y10
G1 F1200 E94.82237
G0 F2700 X289.269 Y24.422
G0 X311.182 Y1.496
G0 X385.234 Y74.551
G0 X361.456 Y210.978
G0 X348.984 Y211.636
M204 S1800
M205 X8 Y8
G1 F2700 E97.82237
G1 F900 X350.219 Y211.854 E97.93799
G1 X224.294 Y337.779 E114.3569
G1 X224.076 Y336.544 E114.47252
G1 X348.984 Y211.636 E130.75882
M204 S3000
M205 X10 Y10
G1 F1200 E127.75882
;MESH:Part_30_Chamber_Carrying_Handle_23.04.2021.stl
G0 F2700 X344.532 Y208.15
G0 X258.526 Y294.698
M204 S1800
M205 X8 Y8
;TYPE:WALL-INNER
G1 F2700 E130.75882
G1 F900 X344.968 Y208.258 E142.02955
G1 X344.725 Y207.486 E142.10417
G1 X344.356 Y206.313 E142.21754
G1 X343.595 Y206.179 E142.28878
G1 X343.044 Y206.082 E142.34036
G1 X343.141 Y205.531 E142.3737
G1 X366.123 Y75.2 E154.57522
G1 X331.486 Y40.563 E159.09142
G1 X325.375 Y46.674 E159.88821
G1 X325.011 Y47.038 E159.93567
G1 X324.564 Y47.485 E159.99395
G1 X324.502 Y47.546 E160.00197
G1 X324.527 Y47.449
G1 X324.576 Y46.603 E160.03525
G1 X324.512 Y46.092 E160.0731
G1 X324.492 Y45.938 E160.08741
G1 X338.514 Y31.918 E161.91556
G1 X338.91 Y31.523 E161.96713
G1 X339.305 Y31.919 E162.00046
G1 X382.953 Y75.584 E167.69267
G1 X359.433 Y208.97 E180.18019
G1 X346.695 Y206.726 E181.37268
G1 X345.638 Y207.783 E181.5105
G1 X345.066 Y208.355 E181.55707
G1 X258.624 Y294.795 E182.9358
G1 X220.795 Y332.626 E187.86832
G1 X220.224 Y333.197 E187.94277
G1 X219.165 Y334.256 E188.08085
G1 X221.411 Y346.994 E189.27337
G1 X88.055 Y370.509 E201.75809
G1 X45.985 Y328.44 E207.24338
G1 X40.296 Y322.754 E207.98495
G1 X21.36 Y303.817 E210.45402
G1 X35.577 Y289.599 E212.30778
G1 X35.652 Y289.613 E212.31482
G1 X36.529 Y289.614 E212.39567
G1 X37.397 Y289.448 E212.47715
G1 X38.214 Y289.124 E212.55818
G1 X38.959 Y288.651 E212.63955
G1 X39.603 Y288.048 E212.72089
G1 X40.124 Y287.333 E212.80245
G1 X40.497 Y286.536 E212.88358
G1 X40.716 Y285.682 E212.96486
G1 X40.733 Y285.413 E212.98972
G1 X40.771 Y284.802 E213.04616
G1 X40.662 Y283.929 E213.12727
G1 X40.643 Y283.87 E213.13298
G1 X40.681 Y283.909
G1 X41.172 Y284.4 E213.15549
G1 X41.604 Y284.832 E213.19911
G1 X60.056 Y303.284 E215.605
G1 X60.311 Y303.539 E215.63825
G1 X60.762 Y303.99 E215.69706
G1 X61.371 Y304.599 E215.77646
G1 X61.871 Y305.099 E215.84166
G1 X62.379 Y305.607 E215.90789
G1 X62.954 Y306.182 E215.98286
G1 X63.388 Y306.616 E216.03945
G1 X64.41 Y307.638 E216.17271
G1 X63.374 Y308.674 E216.30779
G1 X63.255 Y308.793 E216.3233
G1 X62.839 Y309.209 E216.37754
G1 X62.256 Y309.792 E216.45356
G1 X61.747 Y310.301 E216.51993
G1 X61.107 Y310.941 E216.60337
G1 X60.483 Y311.565 E216.68473
G1 X59.943 Y312.105 E216.75514
G1 X59.813 Y312.235 E216.77209
G1 X53.423 Y318.625 E217.60526
G1 X53.027 Y319.021 E217.65689
G1 X53.422 Y319.416 E217.69015
G1 X87.682 Y353.675 E222.15712
G1 X217.968 Y330.702 E234.35441
G1 X218.519 Y330.605 E234.406
G1 X218.616 Y331.156 E234.43933
G1 X218.75 Y331.916 E234.51048
G1 X219.925 Y332.286 E234.62406
G1 X220.696 Y332.528 E234.67068
G1 X258.526 Y294.698 E235.27843
M204 S3000
M205 X10 Y10
G0 F2700 X220.593 Y332.111
G0 X87.806 Y353.283
G0 X53.553 Y319.021
G0 X56.299 Y310.372
M204 S1800
M205 X8 Y8
G1 F900 X56.999 Y310.916 E235.36017
G1 X57.659 Y311.228 E235.42747
G1 X58.53 Y311.422 E235.50975
G1 X59.074 Y311.422 E235.5599
G1 X59.259 Y311.422 E235.57588
G1 X60.142 Y311.225 E235.64053
G1 X60.969 Y310.803 E235.67264
G1 X61.649 Y310.203 E235.68511
G1 X62.077 Y309.613 E235.69729
G1 X62.429 Y308.8 E235.73024
G1 X62.562 Y308.1 E235.7785
G1 X62.562 Y307.931 E235.79319
G1 X62.563 Y307.408 E235.84141
G1 X62.544 Y307.31 E235.85061
G1 X62.429 Y306.707 E235.89807
G1 X62.082 Y305.904 E235.94191
G1 X61.656 Y305.315 E235.96394
G1 X61.141 Y304.83 E235.98226
G1 X60.376 Y304.376 E236.01527
G1 X59.695 Y304.155 E236.05893
G1 X59.337 Y304.111 E236.08868
G1 X59.044 Y304.075 E236.1159
G1 X58.715 Y304.073 E236.14623
G1 X57.88 Y304.208 E236.22422
G1 X57.202 Y304.476 E236.29144
G1 X56.469 Y304.975 E236.37319
G1 X55.983 Y305.493 E236.43868
G1 X55.61 Y306.079 E236.50272
G1 X55.354 Y306.726 E236.56687
G1 X55.219 Y307.441 E236.63396
G1 X55.25 Y308.311 E236.71422
G1 X55.428 Y309.016 E236.78126
G1 X55.835 Y309.811 E236.8636
G1 X56.299 Y310.372 E236.93072
M204 S3000
M205 X10 Y10
G0 F2700 X39.066 Y282.924
G0 X37.517 Y281.644
G0 X36.225 Y280.591
G0 X34.869 Y281.563
G0 X33.206 Y281.679
G0 X31.425 Y285.389
M204 S1800
M205 X8 Y8
G1 F900 X31.519 Y285.888 E236.97754
G1 X31.551 Y286.056 E236.99331
G1 X17.574 Y300.03 E238.81552
G1 X17.162 Y299.619 E238.86918
G1 X16.766 Y299.223 E238.92081
G1 X17.161 Y298.828 E238.95406
G1 X30.653 Y285.336 E240.71323
G1 X31.012 Y284.977 E240.75011
G1 X31.424 Y284.565 E240.80383
G1 X31.425 Y285.389 E240.8354
M204 S3000
M205 X10 Y10
G0 F2700 X32.645 Y282.276
G0 X36.381 Y279.608
M204 S1800
M205 X8 Y8
G1 F900 X36.637 Y279.864 E240.86878
G1 X37.129 Y280.356 E240.93293
G1 X37.168 Y280.395 E240.93802
G1 X37.11 Y280.376
G1 X36.297 Y280.273 E240.96391
G1 X36.236 Y280.265
G1 X35.689 Y280.3 E241.00254
G1 X35.98 Y280.009 E241.00569
G1 X36.361 Y279.628 E241.03477
G1 X36.381 Y279.608
M204 S3000
M205 X10 Y10
G0 F2700 X65.954 Y307.638
G0 X54.571 Y319.021
G0 X88.05 Y352.509
G0 X220.393 Y331.294
G0 X343.734 Y207.955
G0 X364.957 Y75.568
G0 X331.486 Y42.107
G0 X320.103 Y53.489
G0 X295.356 Y26.331
M204 S1800
M205 X8 Y8
G1 F900 X296.16 Y26.744 E241.1181
G1 X296.546 Y26.83 E241.15456
G1 X297.068 Y26.946 E241.20386
G1 X297.971 Y26.915 E241.28717
G1 X298.678 Y26.736 E241.35441
G1 X299.49 Y26.322 E241.43844
G1 X300.166 Y25.724 E241.52165
G1 X300.594 Y25.135 E241.58878
G1 X300.949 Y24.318 E241.67091
G1 X301.087 Y23.575 E241.74058
G1 X301.056 Y22.711 E241.82029
G1 X300.876 Y22.005 E241.88746
G1 X300.47 Y21.212 E241.9696
G1 X300.005 Y20.651 E242.03678
G1 X299.306 Y20.109 E242.11833
G1 X298.647 Y19.797 E242.18555
G1 X297.904 Y19.63 E242.25577
G1 X297.804 Y19.608 E242.26521
G1 X297.441 Y19.59 E242.29872
G1 X296.605 Y19.672 E242.37616
G1 X296.155 Y19.834 E242.42026
G1 X296.461 Y19.528 E242.42282
G1 X296.92 Y19.069 E242.4451
G1 X297.092 Y18.897 E242.45072
G1 X297.164 Y18.825 E242.45969
G1 X311.688 Y4.301 E244.35342
G1 X335.124 Y27.737 E247.40915
G1 X320.714 Y42.148 E249.28809
G1 X320.625 Y42.126 E249.29654
G1 X319.749 Y42.071 E249.37746
G1 X318.871 Y42.18 E249.45903
G1 X318.033 Y42.453 E249.54029
G1 X317.255 Y42.881 E249.62216
G1 X316.554 Y43.467 E249.7064
G1 X316.019 Y44.119 E249.78416
G1 X315.594 Y44.892 E249.86549
G1 X315.347 Y45.649 E249.9389
G1 X315.319 Y45.735 E249.94724
G1 X315.211 Y46.643 E250.03154
G1 X315.24 Y47.082 E250.07211
G1 X315.006 Y46.848 E250.07355
G1 X314.606 Y46.448 E250.09967
G1 X314.542 Y46.384 E250.10765
G1 X295.811 Y27.653 E252.54992
G1 X295.531 Y27.373 E252.58093
G1 X294.923 Y26.765 E252.63372
G1 X294.41 Y26.252 E252.70061
G1 X293.789 Y25.631 E252.78158
G1 X293.299 Y25.141 E252.84547
G1 X293.033 Y24.875 E252.88016
G1 X292.074 Y23.916 E253.0052
G1 X292.96 Y23.03 E253.12072
G1 X293.049 Y22.941 E253.13232
G1 X293.404 Y22.586 E253.17861
G1 X293.809 Y22.181 E253.23142
G1 X293.957 Y22.033 E253.25071
G1 X293.873 Y22.245 E253.2528
G1 X293.744 Y22.925 E253.27505
G1 X293.743 Y23.635 E253.32252
G1 X293.77 Y23.758 E253.3335
G1 X293.855 Y24.136 E253.36922
G1 X293.936 Y24.504 E253.40068
G1 X294.25 Y25.17 E253.4486
G1 X294.794 Y25.867 E253.49224
G1 X295.356 Y26.331 E253.52701
M204 S3000
M205 X10 Y10
G0 F2700 X317.223 Y50.2
G0 X319.973 Y51.815
M204 S1800
M205 X8 Y8
G1 F900 X319.576 Y51.418 E253.57877
G1 X320.099 Y51.415 E253.58952
G1 X320.375 Y51.413 E253.59652
G1 X320.7 Y51.348 E253.61763
G1 X320.505 Y51.543 E253.6184
G1 X320.103 Y51.945 E253.64599
G1 X319.973 Y51.815
M204 S3000
M205 X10 Y10
G0 F2700 X316.624 Y49.637
G0 X299.996 Y25.448
G0 X299.332 Y24.966
M204 S1800
M205 X8 Y8
;TYPE:WALL-OUTER
G1 F900 X299.616 Y24.576 E253.69047
G1 X299.871 Y23.989 E253.74948
G1 X299.963 Y23.492 E253.79608
G1 X299.941 Y22.871 E253.85337
G1 X299.822 Y22.404 E253.8978
G1 X299.529 Y21.832 E253.95706
G1 X299.221 Y21.46 E254.00158
G1 X298.717 Y21.069 E254.06039
G1 X298.281 Y20.863 E254.10485
G1 X297.653 Y20.722 E254.16419
G1 X297.468 Y20.713 E254.18127
G1 X296.853 Y20.773 E254.23824
G1 X296.249 Y20.991 E254.29744
G1 X295.841 Y21.251 E254.34205
G1 X295.492 Y21.579 E254.38621
G1 X295.132 Y22.108 E254.4452
G1 X294.954 Y22.558 E254.48982
G1 X294.864 Y23.032 E254.5343
G1 X294.863 Y23.513 E254.57865
G1 X295.002 Y24.139 E254.63777
G1 X295.21 Y24.579 E254.68264
G1 X295.602 Y25.082 E254.74143
G1 X295.975 Y25.39 E254.78603
G1 X296.544 Y25.682 E254.845
G1 X297.172 Y25.822 E254.90432
G1 X297.812 Y25.8 E254.96336
G1 X298.281 Y25.681 E255.00797
G1 X298.854 Y25.389 E255.06726
G1 X299.332 Y24.966 E255.12611
M204 S3000
M205 X10 Y10
G0 F2700 X299.567 Y24.643
G0 X300.231 Y25.124
G0 X320.103 Y53.489
G0 X331.486 Y42.107
G0 X364.957 Y75.568
G0 X343.734 Y207.955
G0 X220.393 Y331.294
G0 X88.05 Y352.509
G0 X54.571 Y319.021
G0 X40.231 Y286.36
G0 X39.438 Y286.156
M204 S1800
M205 X8 Y8
G1 F900 X39.605 Y285.506 E255.18799
G1 X39.647 Y284.837 E255.24979
G1 X39.564 Y284.173 E255.31148
G1 X39.357 Y283.535 E255.37332
G1 X39.033 Y282.946 E255.4353
G1 X38.606 Y282.432 E255.49691
G1 X38.092 Y282.004 E255.55858
G1 X37.502 Y281.68 E255.62064
G1 X36.865 Y281.474 E255.68236
G1 X36.201 Y281.39 E255.74407
G1 X35.532 Y281.433 E255.80587
G1 X34.882 Y281.6 E255.86775
G1 X34.277 Y281.883 E255.92933
G1 X33.735 Y282.278 E255.99116
G1 X33.277 Y282.766 E256.05286
G1 X32.916 Y283.334 E256.11491
G1 X32.67 Y283.955 E256.1765
G1 X32.544 Y284.614 E256.23836
G1 X32.545 Y285.283 E256.30004
G1 X32.67 Y285.942 E256.36188
G1 X32.824 Y286.367 E256.40355
G1 X17.574 Y301.614 E258.39175
G1 X15.578 Y299.618 E258.652
G1 X15.577 Y299.617 E258.65213
G1 X15.182 Y299.223 E258.70357
G1 X15.577 Y298.828 E258.73684
G1 X35.986 Y278.419 E261.3979
G1 X36.381 Y278.024 E261.4494
G1 X36.776 Y278.419 E261.48268
G1 X65.994 Y307.638 E265.29237
G1 X55.007 Y318.625 E266.72493
G1 X54.611 Y319.021 E266.77656
G1 X55.006 Y319.416 E266.80981
G1 X88.062 Y352.471 E271.1198
G1 X218.877 Y329.405 E283.36661
G1 X219.428 Y329.308 E283.41819
G1 X219.525 Y329.859 E283.45153
G1 X219.662 Y330.637 E283.52436
G1 X219.735 Y331.052 E283.56321
G1 X220.384 Y331.256 E283.62593
G1 X220.682 Y330.958 E283.66479
G1 X343.397 Y208.245 E299.66502
G1 X343.696 Y207.946 E299.70401
G1 X343.492 Y207.298 E299.76664
G1 X343.076 Y207.225 E299.80558
G1 X341.747 Y206.99 E299.93001
G1 X364.919 Y75.58 E312.23255
G1 X331.486 Y42.147 E316.59176
G1 X320.103 Y53.529 E318.07588
G1 X316.958 Y50.384 E318.48595
G1 X316.927 Y50.353 E318.48999
G1 X316.453 Y49.879 E318.55179
G1 X316.313 Y49.739 E318.57005
G1 X290.49 Y23.916 E321.93701
G1 X311.293 Y3.112 E324.64951
G1 X311.688 Y2.717 E324.70101
G1 X312.083 Y3.112 E324.73428
G1 X336.708 Y27.737 E327.94505
G1 X321.056 Y43.39 E329.98592
G1 X320.451 Y43.237 E330.04345
G1 X319.783 Y43.195 E330.10516
G1 X319.116 Y43.278 E330.16713
G1 X318.48 Y43.485 E330.2288
G1 X317.89 Y43.81 E330.2909
G1 X317.353 Y44.259 E330.35544
G1 X316.95 Y44.75 E330.414
G1 X316.626 Y45.339 E330.47598
G1 X316.418 Y45.977 E330.53785
G1 X316.335 Y46.672 E330.60238
G1 X316.378 Y47.312 E330.66152
G1 X316.556 Y47.992 E330.72633
G1 X316.83 Y48.569 E330.78522
G1 X317.106 Y48.948 E330.82844
G1 X317.223 Y49.108 E330.84647
G1 X317.712 Y49.568 E330.90723
G1 X317.749 Y49.591 E330.91123
G1 X318.279 Y49.926 E330.96904
G1 X318.898 Y50.172 E331.03045
G1 X319.558 Y50.298 E331.0924
G1 X320.261 Y50.294 E331.15721
G1 X320.919 Y50.162 E331.21909
G1 X321.51 Y49.925 E331.2778
G1 X322.076 Y49.565 E331.33964
G1 X322.564 Y49.107 E331.40134
G1 X322.959 Y48.565 E331.46318
G1 X323.242 Y47.96 E331.52476
G1 X323.415 Y47.277 E331.58972
G1 X323.452 Y46.641 E331.64845
G1 X323.368 Y45.975 E331.71034
G1 X323.256 Y45.59 E331.74731
G1 X338.91 Y29.939 E333.78818
G1 X341.827 Y32.855 E334.16845
G1 X384.157 Y75.204 E339.68895
G1 X360.341 Y210.267 E352.33348
G1 X347.075 Y207.93 E353.5754
G1 X259.416 Y295.587 E365.00481
G1 X220.369 Y334.636 E370.09613
G1 X222.708 Y347.902 E371.33808
G1 X87.675 Y371.713 E383.97981
G1 X45.193 Y329.232 E389.51882
G1 X39.504 Y323.546 E390.26039
G1 X19.776 Y303.817 E392.83272
G1 X35.199 Y288.393 E394.84373
G1 X35.753 Y288.493 E394.89563
G1 X36.424 Y288.494 E394.9575
G1 X37.083 Y288.368 E395.01936
G1 X37.703 Y288.122 E395.08085
G1 X38.27 Y287.762 E395.14278
G1 X38.76 Y287.303 E395.20468
G1 X39.155 Y286.761 E395.26651
G1 X39.438 Y286.156 E395.32809
M204 S3000
M205 X10 Y10
G0 F2700 X39.537 Y285.769
G0 X40.33 Y285.973
G0 X61.383 Y305.552
G0 X61.352 Y307.038
M204 S1800
M205 X8 Y8
G1 F900 X61.103 Y306.461 E395.38603
G1 X60.811 Y306.058 E395.43191
G1 X60.463 Y305.73 E395.476
G1 X59.912 Y305.403 E395.53508
G1 X59.452 Y305.254 E395.57966
G1 X58.972 Y305.195 E395.62425
G1 X58.801 Y305.194 E395.64001
G1 X58.179 Y305.294 E395.69809
G1 X57.73 Y305.472 E395.74262
G1 X57.201 Y305.832 E395.80162
G1 X56.871 Y306.183 E395.84604
G1 X56.612 Y306.59 E395.89051
G1 X56.435 Y307.038 E395.93493
G1 X56.343 Y307.526 E395.98071
G1 X56.365 Y308.152 E396.03846
G1 X56.483 Y308.619 E396.08287
G1 X56.776 Y309.192 E396.14221
G1 X57.083 Y309.563 E396.1866
G1 X57.589 Y309.956 E396.24567
G1 X58.025 Y310.162 E396.29013
G1 X58.653 Y310.302 E396.34945
G1 X59.136 Y310.302 E396.39398
G1 X59.76 Y310.163 E396.45293
G1 X60.334 Y309.87 E396.51234
G1 X60.815 Y309.445 E396.57152
G1 X61.098 Y309.055 E396.61595
G1 X61.352 Y308.469 E396.67483
G1 X61.442 Y307.994 E396.7194
G1 X61.443 Y307.513 E396.76375
G1 X61.352 Y307.038 E396.80834
M204 S3000
M205 X10 Y10
G0 F2700 X61.194 Y306.671
G0 X61.947 Y306.347
G0 X58.23 Y303.027
M204 S1800
M205 X8 Y8
;TYPE:SKIN
G1 F900 X57.584 Y303.132 E396.86868
G1 X56.679 Y303.489 E396.95838
G1 X55.743 Y304.127 E397.06281
G1 X55.103 Y304.809 E397.14904
G1 X54.617 Y305.572 E397.23245
G1 X54.283 Y306.416 E397.31613
G1 X54.105 Y307.356 E397.40434
G1 X54.144 Y308.468 E397.50693
G1 X54.383 Y309.41 E397.59653
G1 X54.902 Y310.425 E397.70163
G1 X55.522 Y311.173 E397.7912
G1 X56.414 Y311.867 E397.8954
G1 X57.296 Y312.284 E397.98535
G1 X58.03 Y312.448 E398.05469
G1 X51.457 Y319.021 E398.91172
G1 X87.306 Y354.868 E403.58581
G1 X217.618 Y331.891 E415.78553
G1 X217.775 Y332.773 E415.86813
G1 X218.767 Y333.085 E415.96401
G1 X217.972 Y333.88 E416.06766
G1 X220.125 Y346.094 E417.21112
G1 X88.431 Y369.315 E429.54023
G1 X46.77 Y327.655 E434.97219
