;FLAVOR:Marlin
;TIME:415
;Filament used: 1.4598m
;Layer height: 0.5
;MINX:184.749
;MINY:185.335
;MINZ:0.2
;MAXX:214.598
;MAXY:214.653
;MAXZ:10.2
;Generated with Cura_SteamEngine 4.11.0
M140 S70
M105
M190 S70
M104 S210
M105
M109 S210
M82 ;absolute extrusion mode
M107 ;Start with the fan off
G21 ;Set units to millimeters
G91 ;Change to relative positioning mode for retract filament and nozzle lifting
G1 F200 E-3 ;Retract 3mm filament for a clean start
G92 E0 ;Zero the extruded length
G1 F1000 Z5 ;Lift the nozzle 5mm before homing axes
G90 ;Absolute positioning
M82 ;Set extruder to absolute mode too
G28 X0 Y0 ;First move X/Y to min endstops
G28 Z0 ;Then move Z to min endstops
G1 F1000 Z15 ;After homing lift the nozzle 15mm before start printing

G92 E0
G92 E0
G1 F1200 E-3
;LAYER_COUNT:21
;LAYER:0
M107
M204 S3000
M205 X10 Y10
G1 F600 Z0.275
;MESH:latch bottom portion adjusted 1mm less width 27.07.2020.stl
G0 F2700 X191.259 Y187.68 Z0.275
M204 S1800
M205 X8 Y8
;TYPE:WALL-INNER
G1 F600 Z0.2
G1 F2700 E0
G1 F900 X209.3 Y187.68 E1.66333
G1 X209.3 Y189.32 E1.81453
G1 X190.7 Y189.32 E3.5294
G1 X190.699 Y188.24 E3.62897
G1 X190.699 Y187.68 E3.6806
G1 X191.259 Y187.68 E3.714
M204 S3000
M205 X10 Y10
G0 F2700 X209.607 Y189.692
G0 X209.607 Y210.308
G0 X209.301 Y210.68
M204 S1800
M205 X8 Y8
G1 F900 X209.301 Y212.32 E3.8652
G1 X190.7 Y212.32 E5.58016
G1 X190.699 Y211.24 E5.67973
G1 X190.699 Y210.68 E5.73136
G1 X191.259 Y210.68 E5.76476
G1 X209.301 Y210.68 E7.42818
M204 S3000
M205 X10 Y10
G0 F2700 X209.631 Y212.65
G0 X209.861 Y213.44
M204 S1800
M205 X8 Y8
;TYPE:WALL-OUTER
G1 F900 X189.58 Y213.44 E9.29803
G1 X189.579 Y210.12 E9.60413
G1 X189.579 Y209.56 E9.65576
G1 X190.139 Y209.56 E9.68915
G1 X209.579 Y209.56 E11.48147
G1 X209.579 Y190.44 E13.24427
G1 X189.58 Y190.44 E15.08812
G1 X189.579 Y187.12 E15.39422
G1 X189.579 Y186.56 E15.44585
G1 X190.139 Y186.56 E15.47925
G1 X210.42 Y186.56 E17.3491
G1 X210.42 Y190.44 E17.70682
G1 X210.42 Y209.559 E19.03042
G1 X210.421 Y212.88 E19.33661
G1 X210.421 Y213.44 E19.38824
G1 X209.861 Y213.44 E19.42164
M204 S3000
M205 X10 Y10
G0 F2700 X209.461 Y213.44
G0 X209.461 Y212.62
G0 X208.631 Y211.798
M204 S1800
M205 X8 Y8
;TYPE:SKIN
G1 F900 X208.031 Y211.199 E19.4998
M204 S3000
M205 X10 Y10
G0 F2700 X207.047 Y211.798
M204 S1800
M205 X8 Y8
G1 F900 X206.447 Y211.199 E19.57797
M204 S3000
M205 X10 Y10
G0 F2700 X205.463 Y211.798
M204 S1800
M205 X8 Y8
G1 F900 X204.863 Y211.199 E19.65614
M204 S3000
M205 X10 Y10
G0 F2700 X203.879 Y211.798
M204 S1800
M205 X8 Y8
G1 F900 X203.279 Y211.199 E19.7343
M204 S3000
M205 X10 Y10
G0 F2700 X202.295 Y211.798
M204 S1800
M205 X8 Y8
G1 F900 X201.695 Y211.199 E19.81247
M204 S3000
M205 X10 Y10
G0 F2700 X200.711 Y211.798
M204 S1800
M205 X8 Y8
G1 F900 X200.111 Y211.199 E19.89064
M204 S3000
M205 X10 Y10
G0 F2700 X199.127 Y211.798
M204 S1800
M205 X8 Y8
G1 F900 X198.528 Y211.199 E19.96874
M204 S3000
M205 X10 Y10
G0 F2700 X197.543 Y211.798
M204 S1800
M205 X8 Y8
G1 F900 X196.944 Y211.199 E20.04684
M204 S3000
M205 X10 Y10
G0 F2700 X195.959 Y211.798
M204 S1800
M205 X8 Y8
G1 F900 X195.36 Y211.199 E20.12494
M204 S3000
M205 X10 Y10
G0 F2700 X194.375 Y211.798
M204 S1800
M205 X8 Y8
G1 F900 X193.776 Y211.199 E20.20304
M204 S3000
M205 X10 Y10
G0 F2700 X192.791 Y211.798
M204 S1800
M205 X8 Y8
G1 F900 X192.192 Y211.199 E20.28114
M204 S3000
M205 X10 Y10
G0 F2700 X209.607 Y210.308
G0 X209.607 Y189.692
G0 X191.367 Y188.2
M204 S1800
M205 X8 Y8
G1 F900 X191.967 Y188.799 E20.35931
M204 S3000
M205 X10 Y10
G0 F2700 X192.951 Y188.2
M204 S1800
M205 X8 Y8
G1 F900 X193.551 Y188.799 E20.43748
M204 S3000
M205 X10 Y10
G0 F2700 X194.535 Y188.2
M204 S1800
M205 X8 Y8
G1 F900 X195.135 Y188.799 E20.51564
M204 S3000
M205 X10 Y10
G0 F2700 X196.119 Y188.2
M204 S1800
M205 X8 Y8
G1 F900 X196.719 Y188.799 E20.59381
M204 S3000
M205 X10 Y10
G0 F2700 X197.703 Y188.2
M204 S1800
M205 X8 Y8
G1 F900 X198.303 Y188.799 E20.67198
M204 S3000
M205 X10 Y10
G0 F2700 X199.287 Y188.2
M204 S1800
M205 X8 Y8
G1 F900 X199.887 Y188.799 E20.75014
M204 S3000
M205 X10 Y10
G0 F2700 X200.871 Y188.2
M204 S1800
M205 X8 Y8
G1 F900 X201.47 Y188.799 E20.82824
M204 S3000
M205 X10 Y10
G0 F2700 X202.455 Y188.2
M204 S1800
M205 X8 Y8
G1 F900 X203.054 Y188.799 E20.90635
M204 S3000
M205 X10 Y10
G0 F2700 X204.039 Y188.2
M204 S1800
M205 X8 Y8
G1 F900 X204.638 Y188.799 E20.98445
M204 S3000
M205 X10 Y10
G0 F2700 X205.623 Y188.2
M204 S1800
M205 X8 Y8
G1 F900 X206.222 Y188.799 E21.06255
M204 S3000
M205 X10 Y10
G0 F2700 X207.207 Y188.2
M204 S1800
M205 X8 Y8
G1 F900 X207.806 Y188.799 E21.14065
M204 S3000
M205 X10 Y10
G0 F2700 X207.806 Y188.6
;MESH:NONMESH
G0 F600 X207.806 Y188.6 Z0.7
G0 F2700 X209.607 Y189.692
G0 X209.631 Y212.65
G0 X210.864 Y212.8
;TIME_ELAPSED:27.288662
;LAYER:1
M140 S60
M106 S255
M204 S1800
M205 X8 Y8
;TYPE:WALL-INNER
;MESH:latch bottom portion adjusted 1mm less width 27.07.2020.stl
G1 F1650 X210.464 Y212.8 E21.20651
G1 X189.137 Y212.8 E24.71773
G1 X189.136 Y210.6 E25.07994
G1 X189.136 Y210.2 E25.14579
G1 X189.536 Y210.2 E25.18839
G1 X209.136 Y210.2 E28.41529
G1 X209.136 Y189.8 E31.7739
G1 X189.137 Y189.8 E35.06649
G1 X189.136 Y187.6 E35.42869
G1 X189.136 Y187.2 E35.49454
G1 X189.536 Y187.2 E35.53714
G1 X210.863 Y187.2 E39.04837
G1 X210.864 Y212.4 E43.19724
G1 X210.864 Y212.8 E43.23984
M204 S3000
M205 X10 Y10
G0 F4950 X210.794 Y212.73
G0 X189.206 Y210.27
G0 X188.736 Y209.4
M204 S1800
M205 X8 Y8
;TYPE:WALL-OUTER
G1 F1650 X208.336 Y209.4 E46.46674
G1 X208.336 Y190.6 E49.56193
G1 X188.337 Y190.6 E52.85452
G1 X188.336 Y186.8 E53.48014
G1 X188.336 Y186.4 E53.54599
G1 X188.736 Y186.4 E53.58859
G1 X211.663 Y186.4 E57.36324
G1 X211.664 Y213.2 E61.77553
G1 X211.664 Y213.6 E61.84139
G1 X211.264 Y213.6 E61.88399
G1 X188.337 Y213.6 E65.65863
G1 X188.336 Y209.8 E66.28426
G1 X188.336 Y209.4 E66.35011
G1 X188.736 Y209.4 E66.39271
M204 S3000
M205 X10 Y10
G0 F4950 X189.136 Y209.4
G0 X189.206 Y210.27
G0 X189.926 Y210.99
M204 S1800
M205 X8 Y8
;TYPE:SKIN
G1 F930 X209.926 Y210.99 E69.68547
G1 X209.926 Y189.01 E73.3042
G1 X189.927 Y189.01 E76.59679
G1 X189.926 Y187.99 E76.76472
G1 X210.073 Y187.99 E80.08168
G1 X210.074 Y212.01 E84.03627
G1 X189.927 Y212.01 E87.35323
G1 X189.926 Y210.99 E87.52116
M204 S3000
M205 X10 Y10
G0 F4950 X209.52 Y211.349
M204 S1800
M205 X8 Y8
G1 F930 X209.22 Y211.649 E87.59101
M204 S3000
M205 X10 Y10
G0 F4950 X208.389 Y211.349
M204 S1800
M205 X8 Y8
G1 F930 X208.089 Y211.649 E87.66086
M204 S3000
M205 X10 Y10
G0 F4950 X207.257 Y211.349
M204 S1800
M205 X8 Y8
G1 F930 X206.958 Y211.649 E87.73059
M204 S3000
M205 X10 Y10
G0 F4950 X206.126 Y211.349
M204 S1800
M205 X8 Y8
G1 F930 X205.826 Y211.649 E87.80044
M204 S3000
M205 X10 Y10
G0 F4950 X204.995 Y211.349
M204 S1800
M205 X8 Y8
G1 F930 X204.695 Y211.649 E87.87029
M204 S3000
M205 X10 Y10
G0 F4950 X203.863 Y211.349
M204 S1800
M205 X8 Y8
G1 F930 X203.564 Y211.649 E87.94003
M204 S3000
M205 X10 Y10
G0 F4950 X202.732 Y211.349
M204 S1800
M205 X8 Y8
G1 F930 X202.432 Y211.649 E88.00988
M204 S3000
M205 X10 Y10
G0 F4950 X201.601 Y211.349
M204 S1800
M205 X8 Y8
G1 F930 X201.301 Y211.649 E88.07973
M204 S3000
M205 X10 Y10
G0 F4950 X200.469 Y211.349
M204 S1800
M205 X8 Y8
G1 F930 X200.169 Y211.649 E88.14958
M204 S3000
M205 X10 Y10
G0 F4950 X199.338 Y211.349
M204 S1800
M205 X8 Y8
G1 F930 X199.038 Y211.649 E88.21942
M204 S3000
M205 X10 Y10
G0 F4950 X198.206 Y211.349
M204 S1800
M205 X8 Y8
G1 F930 X197.907 Y211.649 E88.28916
M204 S3000
M205 X10 Y10
G0 F4950 X197.075 Y211.349
M204 S1800
M205 X8 Y8
G1 F930 X196.775 Y211.649 E88.35901
M204 S3000
M205 X10 Y10
G0 F4950 X195.944 Y211.349
M204 S1800
M205 X8 Y8
G1 F930 X195.644 Y211.649 E88.42886
M204 S3000
M205 X10 Y10
G0 F4950 X194.812 Y211.349
M204 S1800
M205 X8 Y8
G1 F930 X194.513 Y211.649 E88.49859
M204 S3000
M205 X10 Y10
G0 F4950 X193.681 Y211.349
M204 S1800
M205 X8 Y8
G1 F930 X193.381 Y211.649 E88.56844
M204 S3000
M205 X10 Y10
G0 F4950 X192.55 Y211.349
M204 S1800
M205 X8 Y8
G1 F930 X192.25 Y211.649 E88.63829
M204 S3000
M205 X10 Y10
G0 F4950 X191.418 Y211.349
M204 S1800
M205 X8 Y8
G1 F930 X191.118 Y211.649 E88.70814
M204 S3000
M205 X10 Y10
G0 F4950 X209.164 Y210.228
G0 X209.164 Y189.772
G0 X191.49 Y188.65
M204 S1800
M205 X8 Y8
G1 F930 X191.789 Y188.35 E88.77787
M204 S3000
M205 X10 Y10
G0 F4950 X192.621 Y188.65
M204 S1800
M205 X8 Y8
G1 F930 X192.921 Y188.35 E88.84772
M204 S3000
M205 X10 Y10
G0 F4950 X193.752 Y188.65
M204 S1800
M205 X8 Y8
G1 F930 X194.052 Y188.35 E88.91757
M204 S3000
M205 X10 Y10
G0 F4950 X194.884 Y188.65
M204 S1800
M205 X8 Y8
G1 F930 X195.184 Y188.35 E88.98742
M204 S3000
M205 X10 Y10
G0 F4950 X196.015 Y188.65
M204 S1800
M205 X8 Y8
G1 F930 X196.315 Y188.35 E89.05727
M204 S3000
M205 X10 Y10
G0 F4950 X197.147 Y188.65
M204 S1800
M205 X8 Y8
G1 F930 X197.446 Y188.35 E89.12701
M204 S3000
M205 X10 Y10
G0 F4950 X198.278 Y188.65
M204 S1800
M205 X8 Y8
G1 F930 X198.578 Y188.35 E89.19686
M204 S3000
M205 X10 Y10
G0 F4950 X199.409 Y188.65
M204 S1800
M205 X8 Y8
G1 F930 X199.709 Y188.35 E89.26671
M204 S3000
M205 X10 Y10
G0 F4950 X200.541 Y188.65
M204 S1800
M205 X8 Y8
G1 F930 X200.84 Y188.35 E89.33644
M204 S3000
M205 X10 Y10
G0 F4950 X201.672 Y188.65
M204 S1800
M205 X8 Y8
G1 F930 X201.972 Y188.35 E89.40629
M204 S3000
M205 X10 Y10
G0 F4950 X202.803 Y188.65
M204 S1800
M205 X8 Y8
G1 F930 X203.103 Y188.35 E89.47614
M204 S3000
M205 X10 Y10
G0 F4950 X203.935 Y188.65
M204 S1800
M205 X8 Y8
G1 F930 X204.235 Y188.35 E89.54599
M204 S3000
M205 X10 Y10
G0 F4950 X205.066 Y188.65
M204 S1800
M205 X8 Y8
G1 F930 X205.366 Y188.35 E89.61584
M204 S3000
M205 X10 Y10
G0 F4950 X206.197 Y188.65
M204 S1800
M205 X8 Y8
G1 F930 X206.497 Y188.35 E89.68569
M204 S3000
M205 X10 Y10
G0 F4950 X207.329 Y188.65
M204 S1800
M205 X8 Y8
G1 F930 X207.629 Y188.35 E89.75554
M204 S3000
M205 X10 Y10
G0 F4950 X208.46 Y188.65
M204 S1800
M205 X8 Y8
G1 F930 X208.76 Y188.35 E89.82539
M204 S3000
M205 X10 Y10
G0 F4950 X209.592 Y188.65
M204 S1800
M205 X8 Y8
G1 F930 X209.712 Y188.53 E89.85333
M204 S3000
M205 X10 Y10
G0 F4950 X190.658 Y188.35
M204 S1800
M205 X8 Y8
G1 F930 X190.358 Y188.65 E89.92318
M204 S3000
M205 X10 Y10
;MESH:NONMESH
G0 F600 X190.358 Y188.65 Z1.2
G0 F4950 X209.164 Y189.772
G0 X210.794 Y212.73
G0 X211.717 Y212.8
;TIME_ELAPSED:50.211848
;LAYER:2
M204 S1800
M205 X8 Y8
;TYPE:WALL-INNER
;MESH:latch bottom portion adjusted 1mm less width 27.07.2020.stl
G1 F2400 X211.317 Y212.8 E89.98903
G1 X188.284 Y212.8 E93.78113
G1 X188.283 Y210.6 E94.14334
G1 X188.283 Y210.2 E94.20919
G1 X188.683 Y210.2 E94.25179
G1 X208.283 Y210.2 E97.47869
G1 X208.283 Y189.8 E100.8373
G1 X188.284 Y189.8 E104.12989
G1 X188.283 Y187.6 E104.49209
G1 X188.283 Y187.2 E104.55795
G1 X188.683 Y187.2 E104.60055
G1 X211.716 Y187.2 E108.39264
G1 X211.717 Y212.4 E112.54151
G1 X211.717 Y212.8 E112.58411
M204 S3000
M205 X10 Y10
G0 F7200 X211.647 Y212.73
G0 X188.353 Y210.27
G0 X187.883 Y209.4
M204 S1800
M205 X8 Y8
;TYPE:WALL-OUTER
G1 F2400 X207.483 Y209.4 E115.81101
G1 X207.483 Y190.6 E118.9062
G1 X187.484 Y190.6 E122.19879
G1 X187.483 Y186.8 E122.82441
G1 X187.483 Y186.4 E122.89027
G1 X187.883 Y186.4 E122.93287
G1 X212.516 Y186.4 E126.98839
G1 X212.517 Y213.2 E131.40068
G1 X212.517 Y213.6 E131.46653
G1 X212.117 Y213.6 E131.50913
G1 X187.484 Y213.6 E135.56465
G1 X187.483 Y209.8 E136.19027
G1 X187.483 Y209.4 E136.25613
G1 X187.883 Y209.4 E136.29873
M204 S3000
M205 X10 Y10
G0 F7200 X188.283 Y209.4
G0 X188.353 Y210.27
G0 X189.073 Y210.99
M204 S1800
M205 X8 Y8
;TYPE:SKIN
G1 F960 X209.073 Y210.99 E139.59148
G1 X209.073 Y189.01 E143.21022
G1 X189.074 Y189.01 E146.50281
G1 X189.073 Y187.99 E146.67074
G1 X210.926 Y187.99 E150.26857
G1 X210.927 Y212.01 E154.22316
G1 X189.074 Y212.01 E157.82099
G1 X189.073 Y210.99 E157.98892
M204 S3000
M205 X10 Y10
G0 F7200 X189.853 Y211.349
M204 S1800
M205 X8 Y8
G1 F960 X190.153 Y211.649 E158.05877
M204 S3000
M205 X10 Y10
G0 F7200 X190.984 Y211.349
M204 S1800
M205 X8 Y8
G1 F960 X191.284 Y211.649 E158.12862
M204 S3000
M205 X10 Y10
G0 F7200 X192.115 Y211.349
M204 S1800
M205 X8 Y8
G1 F960 X192.415 Y211.649 E158.19847
M204 S3000
M205 X10 Y10
G0 F7200 X193.247 Y211.349
M204 S1800
M205 X8 Y8
G1 F960 X193.547 Y211.649 E158.26832
M204 S3000
M205 X10 Y10
G0 F7200 X194.378 Y211.349
M204 S1800
M205 X8 Y8
G1 F960 X194.678 Y211.649 E158.33817
M204 S3000
M205 X10 Y10
G0 F7200 X195.51 Y211.349
M204 S1800
M205 X8 Y8
G1 F960 X195.809 Y211.649 E158.4079
M204 S3000
M205 X10 Y10
G0 F7200 X196.641 Y211.349
M204 S1800
M205 X8 Y8
G1 F960 X196.941 Y211.649 E158.47775
M204 S3000
M205 X10 Y10
G0 F7200 X197.772 Y211.349
M204 S1800
M205 X8 Y8
G1 F960 X198.072 Y211.649 E158.5476
M204 S3000
M205 X10 Y10
G0 F7200 X198.904 Y211.349
M204 S1800
M205 X8 Y8
G1 F960 X199.204 Y211.649 E158.61745
M204 S3000
M205 X10 Y10
G0 F7200 X200.035 Y211.349
M204 S1800
M205 X8 Y8
G1 F960 X200.335 Y211.649 E158.6873
M204 S3000
M205 X10 Y10
G0 F7200 X201.166 Y211.349
M204 S1800
M205 X8 Y8
G1 F960 X201.466 Y211.649 E158.75715
M204 S3000
M205 X10 Y10
G0 F7200 X202.298 Y211.349
M204 S1800
M205 X8 Y8
G1 F960 X202.598 Y211.649 E158.827
M204 S3000
M205 X10 Y10
G0 F7200 X203.429 Y211.349
M204 S1800
M205 X8 Y8
G1 F960 X203.729 Y211.649 E158.89685
M204 S3000
M205 X10 Y10
G0 F7200 X204.561 Y211.349
M204 S1800
M205 X8 Y8
G1 F960 X204.86 Y211.649 E158.96658
M204 S3000
M205 X10 Y10
G0 F7200 X205.692 Y211.349
M204 S1800
M205 X8 Y8
G1 F960 X205.992 Y211.649 E159.03643
M204 S3000
M205 X10 Y10
G0 F7200 X206.823 Y211.349
M204 S1800
M205 X8 Y8
G1 F960 X207.123 Y211.649 E159.10628
M204 S3000
M205 X10 Y10
G0 F7200 X207.955 Y211.349
M204 S1800
M205 X8 Y8
G1 F960 X208.254 Y211.649 E159.17602
M204 S3000
M205 X10 Y10
G0 F7200 X209.086 Y211.349
M204 S1800
M205 X8 Y8
G1 F960 X209.386 Y211.649 E159.24587
M204 S3000
M205 X10 Y10
G0 F7200 X209.432 Y210.563
M204 S1800
M205 X8 Y8
G1 F960 X210.517 Y211.649 E159.49861
M204 S3000
M205 X10 Y10
G0 F7200 X210.567 Y210.567
M204 S1800
M205 X8 Y8
G1 F960 X209.432 Y209.432 E159.76287
M204 S3000
M205 X10 Y10
G0 F7200 X209.432 Y208.3
M204 S1800
M205 X8 Y8
G1 F960 X210.567 Y209.435 E160.02714
M204 S3000
M205 X10 Y10
G0 F7200 X210.567 Y208.304
M204 S1800
M205 X8 Y8
G1 F960 X209.432 Y207.169 E160.2914
M204 S3000
M205 X10 Y10
G0 F7200 X209.432 Y206.038
M204 S1800
M205 X8 Y8
G1 F960 X210.567 Y207.173 E160.55567
M204 S3000
M205 X10 Y10
G0 F7200 X210.567 Y206.041
M204 S1800
M205 X8 Y8
G1 F960 X209.432 Y204.906 E160.81993
M204 S3000
M205 X10 Y10
G0 F7200 X209.432 Y203.775
M204 S1800
M205 X8 Y8
G1 F960 X210.567 Y204.91 E161.0842
M204 S3000
M205 X10 Y10
G0 F7200 X210.567 Y203.778
M204 S1800
M205 X8 Y8
G1 F960 X209.432 Y202.644 E161.34835
M204 S3000
M205 X10 Y10
G0 F7200 X209.432 Y201.512
M204 S1800
M205 X8 Y8
G1 F960 X210.567 Y202.647 E161.61261
M204 S3000
M205 X10 Y10
G0 F7200 X210.567 Y201.516
M204 S1800
M205 X8 Y8
G1 F960 X209.432 Y200.381 E161.87688
M204 S3000
M205 X10 Y10
G0 F7200 X209.432 Y199.249
M204 S1800
M205 X8 Y8
G1 F960 X210.567 Y200.384 E162.14114
M204 S3000
M205 X10 Y10
G0 F7200 X210.566 Y199.252
M204 S1800
M205 X8 Y8
G1 F960 X209.432 Y198.118 E162.40518
M204 S3000
M205 X10 Y10
G0 F7200 X209.432 Y196.987
M204 S1800
M205 X8 Y8
G1 F960 X210.566 Y198.121 E162.66921
M204 S3000
M205 X10 Y10
G0 F7200 X210.566 Y196.99
M204 S1800
M205 X8 Y8
G1 F960 X209.432 Y195.855 E162.93336
M204 S3000
M205 X10 Y10
G0 F7200 X209.432 Y194.724
M204 S1800
M205 X8 Y8
G1 F960 X210.566 Y195.858 E163.19739
M204 S3000
M205 X10 Y10
G0 F7200 X210.566 Y194.727
M204 S1800
M205 X8 Y8
G1 F960 X209.432 Y193.593 E163.46142
M204 S3000
M205 X10 Y10
G0 F7200 X209.432 Y192.461
M204 S1800
M205 X8 Y8
G1 F960 X210.566 Y193.595 E163.72545
M204 S3000
M205 X10 Y10
G0 F7200 X210.566 Y192.464
M204 S1800
M205 X8 Y8
G1 F960 X209.432 Y191.33 E163.98949
M204 S3000
M205 X10 Y10
G0 F7200 X209.432 Y190.198
M204 S1800
M205 X8 Y8
G1 F960 X210.566 Y191.333 E164.25364
M204 S3000
M205 X10 Y10
G0 F7200 X210.566 Y190.201
M204 S1800
M205 X8 Y8
G1 F960 X209.432 Y189.067 E164.51767
M204 S3000
M205 X10 Y10
G0 F7200 X209.014 Y188.649
M204 S1800
M205 X8 Y8
G1 F960 X208.714 Y188.349 E164.58752
M204 S3000
M205 X10 Y10
G0 F7200 X207.883 Y188.649
M204 S1800
M205 X8 Y8
G1 F960 X207.583 Y188.349 E164.65737
M204 S3000
M205 X10 Y10
