;FLAVOR:Marlin
;TIME:14110
;Filament used: 51.848m
;Layer height: 0.5
;MINX:96.403
;MINY:52.269
;MINZ:0.2
;MAXX:302.569
;MAXY:356.928
;MAXZ:35.2
;Generated with Cura_SteamEngine 4.11.0
M140 S70
M105
M190 S70
M104 S210
M105
M109 S210
M82 ;absolute extrusion mode
M107 ;Start with the fan off
G21 ;Set units to millimeters
G91 ;Change to relative positioning mode for retract filament and nozzle lifting
G1 F200 E-3 ;Retract 3mm filament for a clean start
G92 E0 ;Zero the extruded length
G1 F1000 Z5 ;Lift the nozzle 5mm before homing axes
G90 ;Absolute positioning
M82 ;Set extruder to absolute mode too
G28 X0 Y0 ;First move X/Y to min endstops
G28 Z0 ;Then move Z to min endstops
G1 F1000 Z15 ;After homing lift the nozzle 15mm before start printing

G92 E0
G92 E0
G1 F1200 E-3
;LAYER_COUNT:71
;LAYER:0
M107
M204 S3000
M205 X10 Y10
G1 F600 Z0.275
G0 F2700 X97.313 Y56.748 Z0.275
M204 S1800
M205 X8 Y8
;TYPE:SKIRT
G1 F600 Z0.2
G1 F2700 E0
G1 F2400 X97.711 Y56.213 E0.06148
G1 X98.17 Y55.73 E0.12291
G1 X98.684 Y55.306 E0.18434
G1 X99.245 Y54.946 E0.2458
G1 X99.846 Y54.656 E0.30732
G1 X100.476 Y54.439 E0.36875
G1 X101.155 Y54.296 E0.43273
G1 X101.37 Y54.266 E0.45274
G1 X101.964 Y54.195 E0.5079
G1 X118.762 Y52.364 E2.0658
G1 X119.446 Y52.299 E2.12915
G1 X120.112 Y52.276 E2.19059
G1 X120.776 Y52.333 E2.25203
G1 X121.429 Y52.468 E2.31351
G1 X122.061 Y52.681 E2.375
G1 X122.662 Y52.968 E2.4364
G1 X123.225 Y53.325 E2.49786
G1 X123.742 Y53.747 E2.55939
G1 X124.311 Y54.358 E2.63637
G1 X124.633 Y54.76 E2.68386
G1 X125.797 Y56.255 E2.85854
G1 X127.494 Y58.312 E3.1044
G1 X129.237 Y60.303 E3.34837
G1 X131.058 Y62.274 E3.59577
G1 X132.934 Y64.189 E3.84294
G1 X134.852 Y66.04 E4.08869
G1 X136.836 Y67.85 E4.33629
G1 X138.85 Y69.584 E4.58132
G1 X140.921 Y71.268 E4.82741
G1 X143.053 Y72.903 E5.07512
G1 X145.215 Y74.467 E5.32114
G1 X147.403 Y75.958 E5.56525
G1 X149.673 Y77.412 E5.81379
G1 X151.95 Y78.78 E6.0587
G1 X154.289 Y80.1 E6.30632
G1 X156.621 Y81.328 E6.54931
G1 X159.045 Y82.518 E6.79828
G1 X161.488 Y83.633 E7.04586
G1 X163.932 Y84.667 E7.29053
G1 X166.431 Y85.642 E7.53785
G1 X168.948 Y86.54 E7.78423
G1 X171.46 Y87.359 E8.02783
G1 X174.06 Y88.126 E8.27776
G1 X176.592 Y88.795 E8.51921
G1 X179.215 Y89.411 E8.76762
G1 X181.87 Y89.955 E9.01749
G1 X184.474 Y90.41 E9.26121
G1 X187.099 Y90.795 E9.50582
G1 X189.765 Y91.108 E9.7533
G1 X192.414 Y91.344 E9.9985
G1 X195.097 Y91.507 E10.24632
G1 X197.756 Y91.593 E10.4916
G1 X200.442 Y91.604 E10.73924
G1 X203.101 Y91.539 E10.98447
G1 X205.746 Y91.4 E11.22867
G1 X208.437 Y91.182 E11.47758
G1 X211.099 Y90.89 E11.72448
G1 X213.717 Y90.527 E11.96816
G1 X216.361 Y90.086 E12.2153
G1 X218.987 Y89.57 E12.46204
G1 X221.603 Y88.979 E12.70931
G1 X224.182 Y88.318 E12.95477
G1 X226.729 Y87.589 E13.19902
G1 X229.317 Y86.768 E13.44935
G1 X231.807 Y85.9 E13.69247
G1 X234.295 Y84.953 E13.93791
G1 X236.764 Y83.934 E14.18417
G1 X239.221 Y82.836 E14.43229
G1 X241.617 Y81.683 E14.67744
G1 X244.004 Y80.449 E14.92518
G1 X246.323 Y79.167 E15.16948
G1 X248.649 Y77.793 E15.41855
G1 X250.906 Y76.373 E15.6644
G1 X253.117 Y74.893 E15.9097
G1 X255.293 Y73.345 E16.15591
G1 X257.422 Y71.738 E16.40184
G1 X259.5 Y70.076 E16.64716
G1 X261.568 Y68.322 E16.89717
G1 X263.534 Y66.558 E17.1407
G1 X265.467 Y64.722 E17.38649
G1 X267.344 Y62.835 E17.63188
G1 X269.183 Y60.88 E17.87934
G1 X270.958 Y58.88 E18.12588
G1 X272.689 Y56.817 E18.37417
G1 X273.686 Y55.558 E18.52223
G1 X273.768 Y55.466 E18.5336
G1 X274.55 Y54.473 E18.65013
G1 X274.993 Y53.975 E18.71158
G1 X275.492 Y53.533 E18.77304
G1 X276.041 Y53.155 E18.83449
G1 X276.631 Y52.844 E18.89598
G1 X277.254 Y52.607 E18.95744
G1 X277.901 Y52.446 E19.01891
G1 X278.796 Y52.353 E19.10187
G1 X279.844 Y52.331 E19.19851
G1 X296.331 Y52.269 E20.71858
G1 X297.062 Y52.276 E20.78598
G1 X297.727 Y52.323 E20.84744
G1 X298.382 Y52.448 E20.90892
G1 X299.017 Y52.651 E20.97038
G1 X299.623 Y52.929 E21.03185
G1 X300.192 Y53.277 E21.09335
G1 X300.714 Y53.691 E21.15477
G1 X301.184 Y54.164 E21.21625
G1 X301.593 Y54.69 E21.27768
G1 X301.937 Y55.261 E21.33914
G1 X302.21 Y55.869 E21.40059
G1 X302.408 Y56.506 E21.46209
G1 X302.528 Y57.162 E21.52358
G1 X302.569 Y57.784 E21.58105
G1 X302.56 Y58.494 E21.64651
G1 X302.329 Y65.673 E22.30874
G1 X302.296 Y66.289 E22.36561
G1 X302.18 Y67.719 E22.49789
G1 X279.09 Y295.75 E43.62919
G1 X278.858 Y298.424 E43.87665
G1 X278.702 Y301.081 E44.12204
G1 X278.622 Y303.734 E44.36675
G1 X278.61 Y305.635 E44.54202
G1 X278.697 Y331.408 E46.91823
G1 X278.768 Y350.116 E48.64306
G1 X278.76 Y350.868 E48.7124
G1 X278.713 Y351.533 E48.77386
G1 X278.586 Y352.188 E48.83538
G1 X278.383 Y352.822 E48.89675
G1 X278.104 Y353.428 E48.95826
G1 X277.756 Y353.996 E49.01968
G1 X277.341 Y354.519 E49.08123
G1 X276.868 Y354.988 E49.14265
G1 X276.341 Y355.397 E49.20415
G1 X275.77 Y355.74 E49.26556
G1 X275.161 Y356.012 E49.32706
G1 X274.524 Y356.209 E49.38853
G1 X273.868 Y356.329 E49.45001
G1 X273.353 Y356.367 E49.49763
G1 X272.786 Y356.381 E49.54992
G1 X128.624 Y356.928 E62.84133
G1 X127.897 Y356.921 E62.90836
G1 X127.232 Y356.874 E62.96982
G1 X126.578 Y356.749 E63.03121
G1 X125.943 Y356.546 E63.09268
G1 X125.337 Y356.268 E63.15415
G1 X124.768 Y355.92 E63.21564
G1 X124.245 Y355.506 E63.27714
G1 X123.776 Y355.033 E63.33855
G1 X123.367 Y354.507 E63.39998
G1 X123.023 Y353.936 E63.46144
G1 X122.75 Y353.327 E63.52297
G1 X122.499 Y352.451 E63.60699
G1 X122.495 Y352.431 E63.60887
G1 X122.39 Y351.529 E63.69259
G1 X122.377 Y351.068 E63.73511
G1 X122.321 Y336.754 E65.05483
G1 X122.251 Y333.391 E65.36496
G1 X122.197 Y331.981 E65.49505
G1 X122.189 Y331.519 E65.53765
G1 X122.089 Y305.237 E67.96079
G1 X122.04 Y302.564 E68.20728
G1 X121.919 Y299.92 E68.4513
G1 X121.715 Y297.196 E68.70315
G1 X121.529 Y295.313 E68.8776
G1 X96.773 Y68.063 E89.95335
G1 X96.723 Y67.511 E90.00445
G1 X96.637 Y66.066 E90.13791
G1 X96.411 Y60.317 E90.66836
G1 X96.403 Y59.905 E90.70635
G1 X96.43 Y59.239 E90.7678
G1 X96.537 Y58.581 E90.82927
G1 X96.721 Y57.94 E90.89075
G1 X96.981 Y57.326 E90.95223
G1 X97.313 Y56.748 E91.01368
M204 S3000
M205 X10 Y10
G1 F1200 E88.01368
;MESH:short_chamber_folding_float_arm_v5_06.09.2022.stl
G0 F2700 X101.568 Y66.84
G0 X103.929 Y66.747
G0 X125.648 Y186.604
G1 F2700 E91.01368
G0 X125.654 Y186.703
M204 S1800
M205 X8 Y8
;TYPE:WALL-INNER
G1 F900 X125.07 Y186.78 E91.06799
G1 X124.503 Y186.928 E91.12202
G1 X123.956 Y187.147 E91.17634
G1 X123.441 Y187.434 E91.2307
G1 X122.969 Y187.779 E91.2846
G1 X122.541 Y188.182 E91.3388
G1 X122.168 Y188.639 E91.39319
G1 X121.854 Y189.135 E91.44731
G1 X121.605 Y189.67 E91.50172
G1 X121.426 Y190.231 E91.55601
G1 X121.318 Y190.808 E91.61013
G1 X121.284 Y191.393 E91.66416
G1 X121.321 Y191.977 E91.71811
G1 X121.435 Y192.561 E91.77297
G1 X121.619 Y193.116 E91.82688
G1 X121.87 Y193.647 E91.88103
G1 X122.188 Y194.145 E91.9355
G1 X122.567 Y194.597 E91.98989
G1 X122.995 Y194.996 E92.04383
G1 X123.472 Y195.341 E92.09811
G1 X123.99 Y195.623 E92.15249
G1 X124.536 Y195.835 E92.20649
G1 X125.107 Y195.981 E92.26083
G1 X125.692 Y196.051 E92.31515
G1 X126.279 Y196.05 E92.36927
G1 X126.865 Y195.973 E92.42376
G1 X127.434 Y195.825 E92.47796
G1 X127.977 Y195.607 E92.53191
G1 X128.493 Y195.321 E92.5863
G1 X128.969 Y194.972 E92.64072
G1 X129.395 Y194.567 E92.69491
G1 X129.766 Y194.114 E92.7489
G1 X130.081 Y193.616 E92.80323
G1 X130.329 Y193.081 E92.85759
G1 X130.507 Y192.521 E92.91177
G1 X130.615 Y191.945 E92.9658
G1 X130.65 Y191.36 E93.01983
G1 X130.611 Y190.769 E93.07444
G1 X130.499 Y190.191 E93.12872
G1 X130.312 Y189.632 E93.18307
G1 X130.061 Y189.105 E93.23688
G1 X129.744 Y188.609 E93.29115
G1 X129.367 Y188.157 E93.34542
G1 X128.937 Y187.756 E93.39963
G1 X128.46 Y187.412 E93.45385
G1 X127.945 Y187.133 E93.50785
G1 X127.396 Y186.915 E93.56231
G1 X126.824 Y186.774 E93.61663
G1 X126.246 Y186.701 E93.67034
G1 X125.654 Y186.703 E93.72492
M204 S3000
M205 X10 Y10
G0 F2700 X125.648 Y186.604
G0 X133.713 Y187.042
G0 X146.046 Y333.009
G0 X254.861 Y332.597
G0 X270.931 Y194.511
G0 X270.994 Y194.434
M204 S1800
M205 X8 Y8
G1 F900 X271.471 Y194.779 E93.7792
G1 X271.989 Y195.061 E93.83357
G1 X272.534 Y195.273 E93.88749
G1 X273.106 Y195.419 E93.94192
G1 X273.691 Y195.489 E93.99624
G1 X274.278 Y195.488 E94.05036
G1 X274.863 Y195.411 E94.10476
G1 X275.43 Y195.263 E94.15878
G1 X275.976 Y195.045 E94.21299
G1 X276.492 Y194.759 E94.26738
G1 X276.968 Y194.41 E94.3218
G1 X277.394 Y194.005 E94.37599
G1 X277.765 Y193.552 E94.42998
G1 X278.08 Y193.054 E94.4843
G1 X278.328 Y192.519 E94.53867
G1 X278.506 Y191.959 E94.59285
G1 X278.614 Y191.383 E94.64688
G1 X278.649 Y190.798 E94.70091
G1 X278.61 Y190.207 E94.75552
G1 X278.498 Y189.629 E94.8098
G1 X278.311 Y189.07 E94.86414
G1 X278.06 Y188.543 E94.91796
G1 X277.743 Y188.047 E94.97223
G1 X277.366 Y187.595 E95.0265
G1 X276.936 Y187.194 E95.08071
G1 X276.459 Y186.85 E95.13493
G1 X275.944 Y186.571 E95.18893
G1 X275.395 Y186.353 E95.24339
G1 X274.823 Y186.212 E95.29771
G1 X274.245 Y186.139 E95.35142
G1 X273.653 Y186.141 E95.406
G1 X273.069 Y186.218 E95.46031
G1 X272.502 Y186.366 E95.51434
G1 X271.955 Y186.585 E95.56866
G1 X271.44 Y186.872 E95.62302
G1 X270.968 Y187.217 E95.67692
G1 X270.54 Y187.62 E95.73112
G1 X270.167 Y188.077 E95.78551
G1 X269.853 Y188.573 E95.83963
G1 X269.604 Y189.108 E95.89404
G1 X269.425 Y189.669 E95.94833
G1 X269.317 Y190.246 E96.00245
G1 X269.283 Y190.831 E96.05647
G1 X269.32 Y191.415 E96.11043
G1 X269.434 Y191.999 E96.16529
G1 X269.618 Y192.554 E96.21919
G1 X269.869 Y193.085 E96.27334
G1 X270.187 Y193.584 E96.3279
G1 X270.566 Y194.036 E96.38228
G1 X270.994 Y194.434 E96.43617
M204 S3000
M205 X10 Y10
G0 F2700 X270.931 Y194.511
G0 X254.805 Y299.07
G0 X254.706 Y299.066
M204 S1800
M205 X8 Y8
G1 F900 X256.316 Y283.178 E97.9085
G1 X256.359 Y283.178 E97.91246
G1 X274.617 Y102.877 E114.6207
G1 X278.553 Y103.207 E114.98486
G1 X278.554 Y103.208 E114.98499
G1 X279.139 Y103.256 E115.03911
G1 X279.159 Y102.669 E115.07368
G1 X279.212 Y101.112 E115.21732
G1 X280.547 Y59.569 E119.04944
G1 X294.704 Y59.514 E120.35468
G1 X294.705 Y59.513 E120.35481
G1 X295.284 Y59.512 E120.40819
G1 X295.266 Y60.091 E120.44241
G1 X295.073 Y66.034 E120.99063
G1 X271.352 Y300.289 E142.69871
G1 X271.457 Y331.435 E145.5703
G1 X271.523 Y348.585 E147.15149
G1 X271.525 Y349.145 E147.20312
G1 X270.966 Y349.147 E147.25466
G1 X129.611 Y349.685 E160.28727
G1 X129.537 Y330.285 E162.07591
G1 X129.425 Y330.286 E162.08623
G1 X129.309 Y299.878 E164.88978
G1 X103.91 Y66.748 E186.51088
G1 X103.693 Y61.289 E187.01458
G1 X117.773 Y59.753 E188.32042
G1 X118.368 Y59.689 E188.37559
G1 X118.391 Y60.287 E188.41061
G1 X120.101 Y103.275 E192.37711
G1 X120.124 Y103.863 E192.43136
G1 X120.71 Y103.81 E192.46594
G1 X124.648 Y103.447 E192.83055
G1 X144.273 Y283.592 E209.53766
G1 X144.316 Y283.592 E209.54162
G1 X145.943 Y298.532 E210.92719
G1 X146.074 Y332.981 E214.10331
G1 X254.273 Y332.571 E224.07902
G1 X254.833 Y332.569 E224.13065
G1 X254.831 Y332.009 E224.16405
G1 X254.706 Y299.066 E227.20132
M204 S3000
M205 X10 Y10
G0 F2700 X254.805 Y299.07
G0 X254.861 Y332.597
G0 X204.99 Y342.836
G0 X204.897 Y342.8
M204 S1800
M205 X8 Y8
G1 F900 X205.076 Y342.241 E227.25543
G1 X205.184 Y341.664 E227.30955
G1 X205.219 Y341.078 E227.36368
G1 X205.18 Y340.49 E227.41801
G1 X205.068 Y339.913 E227.4722
G1 X204.883 Y339.349 E227.52692
G1 X204.628 Y338.82 E227.58107
G1 X204.314 Y338.327 E227.63496
G1 X203.936 Y337.874 E227.68935
G1 X203.507 Y337.476 E227.74331
G1 X203.03 Y337.129 E227.79769
G1 X202.509 Y336.848 E227.85227
G1 X201.964 Y336.635 E227.90621
G1 X201.398 Y336.492 E227.96004
G1 X200.815 Y336.419 E228.01421
G1 X200.223 Y336.421 E228.06879
G1 X199.639 Y336.498 E228.1231
G1 X199.072 Y336.646 E228.17713
G1 X198.527 Y336.864 E228.23124
G1 X198.01 Y337.15 E228.28572
G1 X197.538 Y337.498 E228.33978
G1 X197.11 Y337.9 E228.39392
G1 X196.737 Y338.357 E228.44831
G1 X196.423 Y338.853 E228.50243
G1 X196.174 Y339.388 E228.55684
G1 X195.995 Y339.949 E228.61113
G1 X195.887 Y340.526 E228.66525
G1 X195.853 Y341.111 E228.71928
G1 X195.89 Y341.696 E228.77332
G1 X196.005 Y342.279 E228.8281
G1 X196.188 Y342.834 E228.88198
G1 X196.439 Y343.364 E228.93605
G1 X196.758 Y343.864 E228.99073
G1 X197.136 Y344.314 E229.04492
G1 X197.562 Y344.713 E229.09873
G1 X198.043 Y345.059 E229.15336
G1 X198.559 Y345.339 E229.20748
G1 X199.104 Y345.553 E229.26147
G1 X199.676 Y345.699 E229.31589
G1 X200.261 Y345.769 E229.37021
G1 X200.846 Y345.768 E229.42415
G1 X201.431 Y345.693 E229.47853
G1 X202.005 Y345.542 E229.53325
G1 X202.547 Y345.323 E229.58714
G1 X203.061 Y345.039 E229.64129
G1 X203.538 Y344.689 E229.69583
G1 X203.963 Y344.285 E229.7499
G1 X204.335 Y343.832 E229.80394
G1 X204.649 Y343.333 E229.8583
G1 X204.897 Y342.8 E229.9125
M204 S3000
M205 X10 Y10
G0 F2700 X204.99 Y342.836
G0 X203.717 Y344.554
G0 X202.065 Y344.31
M204 S1800
M205 X8 Y8
;TYPE:WALL-OUTER
G1 F900 X202.456 Y344.094 E229.95368
G1 X202.818 Y343.828 E229.9951
G1 X203.142 Y343.52 E230.03631
G1 X203.425 Y343.176 E230.07738
G1 X203.663 Y342.797 E230.11864
G1 X203.852 Y342.391 E230.15993
G1 X203.988 Y341.966 E230.20107
G1 X204.07 Y341.527 E230.24225
G1 X204.097 Y341.082 E230.28335
G1 X204.067 Y340.634 E230.32475
G1 X203.982 Y340.195 E230.36597
G1 X203.842 Y339.769 E230.40732
G1 X203.648 Y339.366 E230.44855
G1 X203.408 Y338.99 E230.48968
G1 X203.121 Y338.646 E230.53098
G1 X202.794 Y338.342 E230.57215
G1 X202.432 Y338.079 E230.6134
G1 X202.038 Y337.866 E230.65469
G1 X201.622 Y337.704 E230.69585
G1 X201.19 Y337.595 E230.73693
G1 X200.747 Y337.539 E230.7781
G1 X200.298 Y337.541 E230.8195
G1 X199.854 Y337.599 E230.86078
G1 X199.423 Y337.712 E230.90186
G1 X199.008 Y337.878 E230.94307
G1 X198.616 Y338.095 E230.98438
G1 X198.256 Y338.36 E231.02559
G1 X197.931 Y338.666 E231.06675
G1 X197.647 Y339.013 E231.10809
G1 X197.408 Y339.391 E231.14932
G1 X197.219 Y339.796 E231.19053
G1 X197.083 Y340.223 E231.23184
G1 X197.001 Y340.662 E231.27302
G1 X196.975 Y341.108 E231.31421
G1 X197.003 Y341.552 E231.35523
G1 X197.09 Y341.994 E231.39676
G1 X197.23 Y342.417 E231.43784
G1 X197.421 Y342.821 E231.47904
G1 X197.663 Y343.2 E231.5205
G1 X197.95 Y343.542 E231.56166
G1 X198.275 Y343.846 E231.60269
G1 X198.64 Y344.109 E231.64417
G1 X199.032 Y344.322 E231.6853
G1 X199.448 Y344.485 E231.72649
G1 X199.882 Y344.596 E231.76779
G1 X200.326 Y344.649 E231.80902
G1 X200.773 Y344.648 E231.85023
G1 X201.217 Y344.591 E231.8915
G1 X201.652 Y344.477 E231.93296
G1 X202.065 Y344.31 E231.97404
M204 S3000
M205 X10 Y10
G0 F2700 X202.415 Y344.117
G0 X203.004 Y345.184
G0 X254.861 Y332.597
G0 X269.187 Y190.758
G0 X270.405 Y190.828
M204 S1800
M205 X8 Y8
G1 F900 X270.433 Y191.271 E232.01496
G1 X270.52 Y191.714 E232.05658
G1 X270.66 Y192.138 E232.09775
G1 X270.851 Y192.542 E232.13895
G1 X271.092 Y192.92 E232.18028
G1 X271.38 Y193.263 E232.22158
G1 X271.706 Y193.567 E232.26267
G1 X272.069 Y193.829 E232.30395
G1 X272.462 Y194.043 E232.3452
G1 X272.877 Y194.205 E232.38628
G1 X273.312 Y194.316 E232.42767
G1 X273.756 Y194.369 E232.4689
G1 X274.204 Y194.368 E232.5102
G1 X274.648 Y194.31 E232.55148
G1 X275.079 Y194.197 E232.59256
G1 X275.495 Y194.031 E232.63386
G1 X275.887 Y193.814 E232.67517
G1 X276.248 Y193.549 E232.71646
G1 X276.572 Y193.241 E232.75767
G1 X276.855 Y192.896 E232.79881
G1 X277.094 Y192.517 E232.84012
G1 X277.282 Y192.112 E232.88129
G1 X277.418 Y191.685 E232.9226
G1 X277.5 Y191.246 E232.96378
G1 X277.527 Y190.801 E233.00488
G1 X277.497 Y190.352 E233.04637
G1 X277.412 Y189.914 E233.08751
G1 X277.27 Y189.489 E233.12882
G1 X277.079 Y189.087 E233.16985
G1 X276.838 Y188.71 E233.21111
G1 X276.551 Y188.366 E233.25241
G1 X276.224 Y188.061 E233.29364
G1 X275.862 Y187.8 E233.33478
G1 X275.469 Y187.587 E233.376
G1 X275.053 Y187.422 E233.41726
G1 X274.618 Y187.315 E233.45856
G1 X274.177 Y187.259 E233.49954
G1 X273.728 Y187.261 E233.54094
G1 X273.284 Y187.319 E233.58222
G1 X272.853 Y187.432 E233.6233
G1 X272.437 Y187.598 E233.6646
G1 X272.046 Y187.816 E233.70587
G1 X271.686 Y188.08 E233.74703
G1 X271.361 Y188.386 E233.78819
G1 X271.077 Y188.733 E233.82953
G1 X270.838 Y189.111 E233.87076
G1 X270.649 Y189.516 E233.91197
G1 X270.513 Y189.943 E233.95328
