;FLAVOR:Marlin
;TIME:760
;Filament used: 2.09751m
;Layer height: 0.5
;MINX:150.401
;MINY:195.4
;MINZ:0.2
;MAXX:249.599
;MAXY:204.6
;MAXZ:22.7
;Generated with Cura_SteamEngine 4.11.0
M140 S70
M105
M190 S70
M104 S210
M105
M109 S210
M82 ;absolute extrusion mode
M107 ;Start with the fan off
G21 ;Set units to millimeters
G91 ;Change to relative positioning mode for retract filament and nozzle lifting
G1 F200 E-3 ;Retract 3mm filament for a clean start
G92 E0 ;Zero the extruded length
G1 F1000 Z5 ;Lift the nozzle 5mm before homing axes
G90 ;Absolute positioning
M82 ;Set extruder to absolute mode too
G28 X0 Y0 ;First move X/Y to min endstops
G28 Z0 ;Then move Z to min endstops
G1 F1000 Z15 ;After homing lift the nozzle 15mm before start printing

G92 E0
G92 E0
G1 F1200 E-3
;LAYER_COUNT:46
;LAYER:0
M107
M204 S3000
M205 X10 Y10
G1 F600 Z0.275
;MESH:spring arms with spacers tall chamber 02.02.2021.stl
G0 F2700 X241.212 Y203.32 Z0.275
M204 S1800
M205 X8 Y8
;TYPE:WALL-INNER
G1 F600 Z0.2
G1 F2700 E0
G1 F900 X240.896 Y203.32 E0.02913
G1 X240.852 Y203.32 E0.03319
G1 X159.148 Y203.32 E7.56606
G1 X159.104 Y203.32 E7.57012
G1 X158.789 Y203.32 E7.59916
G1 X158.414 Y203.32 E7.63374
G1 X158.292 Y203.32 E7.64498
G1 X158.414 Y203.206 E7.64691
G1 X158.789 Y202.752 E7.67307
G1 X159.104 Y202.256 E7.71721
G1 X159.122 Y202.217 E7.72109
G1 X159.354 Y201.725 E7.77124
G1 X159.537 Y201.165 E7.82555
G1 X159.646 Y200.585 E7.87996
G1 X159.683 Y200 E7.93401
G1 X159.646 Y199.415 E7.98805
G1 X159.537 Y198.835 E8.04246
G1 X159.354 Y198.275 E8.09678
G1 X159.122 Y197.783 E8.14693
G1 X159.104 Y197.744 E8.15089
G1 X158.789 Y197.247 E8.20514
G1 X158.413 Y196.793 E8.25949
G1 X158.293 Y196.68 E8.27469
G1 X158.413 Y196.68
G1 X158.789 Y196.68 E8.28116
G1 X159.104 Y196.68 E8.28981
G1 X159.148 Y196.68 E8.29378
G1 X240.852 Y196.68 E15.82665
G1 X240.896 Y196.68 E15.83071
G1 X241.211 Y196.68 E15.85975
G1 X241.586 Y196.68 E15.89432
G1 X241.707 Y196.68 E15.90548
G1 X241.586 Y196.794 E15.9074
G1 X241.211 Y197.248 E15.93356
G1 X240.896 Y197.744 E15.9777
G1 X240.878 Y197.783 E15.98157
G1 X240.646 Y198.275 E16.03173
G1 X240.463 Y198.835 E16.08604
G1 X240.354 Y199.415 E16.14045
G1 X240.317 Y200 E16.1945
G1 X240.354 Y200.585 E16.24854
G1 X240.463 Y201.165 E16.30295
G1 X240.646 Y201.725 E16.35727
G1 X240.878 Y202.217 E16.40742
G1 X240.896 Y202.256 E16.41093
G1 X241.212 Y202.753 E16.45514
G1 X241.594 Y203.214 E16.48975
G1 X241.708 Y203.32 E16.50411
G1 X241.594 Y203.32
G1 X241.212 Y203.32 E16.51056
M204 S3000
M205 X10 Y10
G0 F2700 X245.283 Y204.351
G0 X247.344 Y203.676
G0 X248.208 Y201.763
G0 X248.121 Y201.715
M204 S1800
M205 X8 Y8
;TYPE:WALL-OUTER
G1 F900 X248.311 Y201.311 E16.55172
G1 X248.45 Y200.886 E16.59295
G1 X248.533 Y200.446 E16.63423
G1 X248.561 Y200 E16.67543
G1 X248.533 Y199.554 E16.71663
G1 X248.45 Y199.114 E16.75791
G1 X248.311 Y198.689 E16.79914
G1 X248.121 Y198.285 E16.8403
G1 X247.881 Y197.907 E16.88158
G1 X247.59 Y197.556 E16.92362
G1 X247.262 Y197.25 E16.96498
G1 X246.9 Y196.989 E17.00612
G1 X246.508 Y196.775 E17.0473
G1 X246.093 Y196.611 E17.08844
G1 X245.659 Y196.501 E17.12972
G1 X245.215 Y196.446 E17.17097
G1 X244.768 Y196.447 E17.21218
G1 X244.557 Y196.474 E17.23179
G1 X244.324 Y196.504 E17.25345
G1 X243.891 Y196.617 E17.29471
G1 X243.739 Y196.677 E17.30978
G1 X243.477 Y196.782 E17.3358
G1 X243.085 Y196.998 E17.37706
G1 X242.725 Y197.261 E17.41817
G1 X242.404 Y197.562 E17.45874
G1 X242.119 Y197.907 E17.5
G1 X241.879 Y198.285 E17.54128
G1 X241.689 Y198.689 E17.58244
G1 X241.55 Y199.114 E17.62367
G1 X241.467 Y199.554 E17.66495
G1 X241.439 Y200 E17.70615
G1 X241.467 Y200.446 E17.74735
G1 X241.55 Y200.886 E17.78863
G1 X241.689 Y201.311 E17.82986
G1 X241.879 Y201.715 E17.87102
G1 X242.119 Y202.093 E17.9123
G1 X242.41 Y202.444 E17.95434
G1 X242.738 Y202.75 E17.99569
G1 X243.1 Y203.011 E18.03684
G1 X243.492 Y203.225 E18.07802
G1 X243.907 Y203.389 E18.11916
G1 X244.341 Y203.499 E18.16044
G1 X244.552 Y203.525 E18.18004
G1 X244.785 Y203.554 E18.20168
G1 X245.232 Y203.553 E18.2429
G1 X245.676 Y203.496 E18.28417
G1 X246.109 Y203.383 E18.32543
G1 X246.523 Y203.218 E18.36652
G1 X246.915 Y203.002 E18.40778
G1 X247.275 Y202.739 E18.44889
G1 X247.596 Y202.438 E18.48946
G1 X247.881 Y202.093 E18.53071
G1 X248.121 Y201.715 E18.572
M204 S3000
M205 X10 Y10
G0 F2700 X248.291 Y201.353
G0 X248.381 Y201.396
G0 X248.573 Y199.552
G0 X247.86 Y197.821
G0 X245.851 Y195.747
G0 X245.877 Y195.651
M204 S1800
M205 X8 Y8
G1 F900 X246.311 Y195.763 E18.60433
G1 X246.379 Y195.781 E18.60675
G1 X246.417 Y195.796 E18.60696
G1 X246.831 Y195.961 E18.63908
G1 X246.892 Y195.985 E18.6413
G1 X246.93 Y196.005 E18.6417
G1 X247.322 Y196.221 E18.67401
G1 X247.39 Y196.259 E18.67708
G1 X247.418 Y196.28
G1 X247.778 Y196.543 E18.70922
G1 X247.834 Y196.584 E18.71158
G1 X247.862 Y196.61 E18.71159
G1 X248.189 Y196.917 E18.74393
G1 X248.235 Y196.96 E18.7459
G1 X248.266 Y196.998 E18.74653
G1 X248.556 Y197.35 E18.7794
G1 X248.592 Y197.393 E18.78087
G1 X248.62 Y197.437 E18.78176
G1 X248.86 Y197.815 E18.81401
G1 X248.89 Y197.862 E18.81517
G1 X248.913 Y197.912 E18.81657
G1 X249.103 Y198.315 E18.84865
G1 X249.126 Y198.363 E18.84963
G1 X249.144 Y198.42 E18.85111
G1 X249.281 Y198.844 E18.88315
G1 X249.3 Y198.9 E18.88484
G1 X249.309 Y198.95 E18.88584
G1 X249.393 Y199.388 E18.91791
G1 X249.404 Y199.442 E18.91906
G1 X249.407 Y199.5 E18.92047
G1 X249.435 Y199.945 E18.95256
G1 X249.439 Y200 E18.95372
G1 X249.436 Y200.054 E18.95481
G1 X249.408 Y200.5 E18.98704
G1 X249.404 Y200.558 E18.98869
G1 X249.394 Y200.61 E18.9896
G1 X249.31 Y201.05 E19.02187
G1 X249.3 Y201.1 E19.0226
G1 X249.283 Y201.154 E19.02385
G1 X249.145 Y201.58 E19.05617
G1 X249.126 Y201.637 E19.058
G1 X249.105 Y201.683 E19.05874
G1 X248.914 Y202.088 E19.09103
G1 X248.89 Y202.138 E19.09219
G1 X248.861 Y202.184 E19.09326
G1 X248.621 Y202.562 E19.12555
G1 X248.592 Y202.607 E19.12681
G1 X248.557 Y202.65 E19.12797
G1 X248.272 Y202.995 E19.16022
G1 X248.232 Y203.043 E19.16223
G1 X248.194 Y203.078 E19.16306
G1 X247.872 Y203.379 E19.19483
G1 X247.821 Y203.426 E19.19719
G1 X247.793 Y203.447
G1 X247.432 Y203.71 E19.22942
G1 X247.382 Y203.746 E19.2311
G1 X247.338 Y203.77 E19.23185
G1 X246.945 Y203.986 E19.26419
G1 X246.888 Y204.017 E19.26613
G1 X246.844 Y204.034 E19.26661
G1 X246.429 Y204.197 E19.29871
G1 X246.358 Y204.225 E19.30177
G1 X246.328 Y204.232
G1 X245.896 Y204.344 E19.33394
G1 X245.839 Y204.359 E19.33562
G1 X245.785 Y204.365 E19.33669
G1 X245.341 Y204.421 E19.36892
G1 X245.27 Y204.43 E19.3716
G1 X245.232 Y204.43 E19.37161
G1 X244.785 Y204.43 E19.40386
G1 X244.44 Y204.43 E19.43028
G1 X244.44 Y204.44
G1 X244.341 Y204.44 E19.43699
G1 X243.907 Y204.44 E19.46264
G1 X156.103 Y204.44 E27.55791
G1 X155.668 Y204.44 E27.59802
G1 X155.56 Y204.44 E27.60798
G1 X155.56 Y204.43
G1 X155.224 Y204.43 E27.63863
G1 X154.778 Y204.43 E27.66945
G1 X154.722 Y204.43 E27.6739
G1 X154.669 Y204.424 E27.67882
G1 X154.224 Y204.367 E27.72018
G1 X154.162 Y204.359 E27.72595
G1 X154.117 Y204.348 E27.73022
G1 X153.682 Y204.236 E27.77163
G1 X153.63 Y204.222 E27.7766
G1 X153.578 Y204.202 E27.78173
G1 X153.163 Y204.037 E27.82291
G1 X153.108 Y204.015 E27.82837
G1 X153.065 Y203.992 E27.83287
G1 X152.672 Y203.776 E27.87421
G1 X152.621 Y203.747 E27.87962
G1 X152.578 Y203.716 E27.88451
G1 X152.218 Y203.453 E27.92561
G1 X152.164 Y203.414 E27.93175
G1 X152.134 Y203.386 E27.93554
G1 X151.806 Y203.079 E27.97696
G1 X151.769 Y203.044 E27.98165
G1 X151.73 Y202.996 E27.98735
G1 X151.445 Y202.651 E28.02861
G1 X151.408 Y202.607 E28.03391
G1 X151.38 Y202.563 E28.03872
G1 X151.14 Y202.185 E28.08
G1 X151.11 Y202.138 E28.08514
G1 X151.087 Y202.088 E28.09022
G1 X150.897 Y201.685 E28.1313
G1 X150.874 Y201.637 E28.1362
G1 X150.856 Y201.58 E28.14171
G1 X150.719 Y201.156 E28.1828
G1 X150.7 Y201.1 E28.18825
G1 X150.691 Y201.05 E28.19293
G1 X150.607 Y200.612 E28.23405
G1 X150.596 Y200.558 E28.23913
G1 X150.593 Y200.5 E28.24449
G1 X150.565 Y200.055 E28.28559
G1 X150.561 Y200 E28.29068
G1 X150.564 Y199.946 E28.29566
G1 X150.592 Y199.5 E28.33687
G1 X150.596 Y199.442 E28.34223
G1 X150.606 Y199.39 E28.34711
G1 X150.69 Y198.95 E28.38841
G1 X150.7 Y198.9 E28.39311
G1 X150.717 Y198.846 E28.39833
G1 X150.855 Y198.42 E28.43961
G1 X150.874 Y198.363 E28.44515
G1 X150.895 Y198.317 E28.44981
G1 X151.086 Y197.912 E28.4911
G1 X151.11 Y197.862 E28.49621
G1 X151.139 Y197.816 E28.50123
G1 X151.379 Y197.438 E28.54251
G1 X151.408 Y197.393 E28.54744
G1 X151.444 Y197.349 E28.55268
G1 X151.729 Y197.005 E28.59387
G1 X151.767 Y196.959 E28.59937
G1 X151.805 Y196.924 E28.60414
G1 X152.131 Y196.618 E28.64536
G1 X152.177 Y196.575 E28.65116
G1 X152.214 Y196.548 E28.65539
G1 X152.576 Y196.285 E28.69664
G1 X152.62 Y196.253 E28.70166
G1 X152.671 Y196.225 E28.70702
G1 X153.061 Y196.012 E28.74799
G1 X153.115 Y195.982 E28.75369
G1 X153.16 Y195.964 E28.75815
G1 X153.575 Y195.801 E28.79926
G1 X153.632 Y195.778 E28.80493
G1 X153.678 Y195.767 E28.80929
G1 X154.113 Y195.654 E28.85073
G1 X154.163 Y195.641 E28.85549
G1 X154.223 Y195.634 E28.86106
G1 X154.667 Y195.578 E28.90232
G1 X154.73 Y195.57 E28.90817
G1 X154.776 Y195.57 E28.91241
G1 X155.222 Y195.57 E28.95353
G1 X155.56 Y195.57 E28.9847
G1 X155.56 Y195.56
G1 X155.666 Y195.56 E28.99405
G1 X156.1 Y195.56 E29.01983
G1 X243.727 Y195.56 E37.09878
G1 X243.891 Y195.56 E37.11257
G1 X244.324 Y195.56 E37.1482
G1 X244.44 Y195.56 E37.15619
G1 X244.44 Y195.568
G1 X244.771 Y195.569 E37.1817
G1 X245.218 Y195.57 E37.21404
G1 X245.293 Y195.571 E37.21691
G1 X245.324 Y195.575
G1 X245.769 Y195.631 E37.24928
G1 X245.829 Y195.639 E37.25089
G1 X245.877 Y195.651 E37.25185
M204 S3000
M205 X10 Y10
G0 F2700 X246.264 Y195.751
G0 X246.237 Y195.846
G0 X158.154 Y203.038
G0 X157.596 Y202.438
M204 S1800
M205 X8 Y8
G1 F900 X157.881 Y202.093 E37.29311
G1 X158.121 Y201.715 E37.33439
G1 X158.311 Y201.311 E37.37555
G1 X158.45 Y200.886 E37.41678
G1 X158.533 Y200.446 E37.45806
G1 X158.561 Y200 E37.49926
G1 X158.533 Y199.554 E37.54047
G1 X158.45 Y199.114 E37.58175
G1 X158.311 Y198.689 E37.62297
G1 X158.121 Y198.285 E37.66413
G1 X157.881 Y197.907 E37.70542
G1 X157.595 Y197.561 E37.7468
G1 X157.268 Y197.254 E37.78816
G1 X156.906 Y196.992 E37.82936
G1 X156.514 Y196.778 E37.87053
G1 X156.1 Y196.614 E37.91159
G1 X155.666 Y196.502 E37.94852
G1 X155.446 Y196.475 E37.96619
G1 X155.222 Y196.446 E37.98177
G1 X154.776 Y196.446 E38.01393
G1 X154.332 Y196.502 E38.04612
G1 X153.897 Y196.614 E38.07846
G1 X153.482 Y196.78 E38.11067
G1 X153.092 Y196.994 E38.14272
G1 X152.73 Y197.256 E38.17496
G1 X152.404 Y197.562 E38.20716
G1 X152.119 Y197.907 E38.2394
G1 X151.879 Y198.285 E38.27168
G1 X151.689 Y198.689 E38.30386
G1 X151.55 Y199.114 E38.33614
G1 X151.467 Y199.554 E38.3684
G1 X151.439 Y200 E38.40062
G1 X151.467 Y200.446 E38.43281
G1 X151.55 Y200.886 E38.46505
G1 X151.689 Y201.311 E38.49724
G1 X151.879 Y201.715 E38.52941
G1 X152.119 Y202.093 E38.56166
G1 X152.405 Y202.439 E38.594
G1 X152.732 Y202.746 E38.62633
G1 X153.094 Y203.008 E38.65852
G1 X153.486 Y203.222 E38.69071
G1 X153.9 Y203.386 E38.72283
G1 X154.334 Y203.498 E38.75521
G1 X154.778 Y203.554 E38.78744
G1 X155.224 Y203.554 E38.8196
G1 X155.444 Y203.527 E38.83483
G1 X155.668 Y203.498 E38.85134
G1 X156.103 Y203.386 E38.88835
G1 X156.518 Y203.22 E38.92956
G1 X156.908 Y203.006 E38.97057
G1 X157.27 Y202.744 E39.01177
G1 X157.596 Y202.438 E39.05299
M204 S3000
M205 X10 Y10
G0 F2700 X157.851 Y202.13
G0 X158.483 Y202.651
G0 X160.352 Y202.21
M204 S1800
M205 X8 Y8
;TYPE:SKIN
G1 F900 X160.387 Y202.135 E39.06062
G1 X160.615 Y201.441 E39.12797
G1 X160.75 Y200.723 E39.19533
G1 X160.795 Y200 E39.26212
G1 X160.75 Y199.277 E39.32891
G1 X160.615 Y198.559 E39.39626
G1 X160.387 Y197.865 E39.46361
G1 X160.352 Y197.79 E39.47124
G1 X239.648 Y197.79 E46.7821
G1 X239.613 Y197.865 E46.78973
G1 X239.385 Y198.559 E46.85708
G1 X239.25 Y199.277 E46.92444
G1 X239.205 Y200 E46.99123
G1 X239.25 Y200.723 E47.05802
G1 X239.385 Y201.441 E47.12537
G1 X239.613 Y202.135 E47.19272
G1 X239.648 Y202.21 E47.20035
G1 X160.352 Y202.21 E54.51121
M204 S3000
M205 X10 Y10
G0 F2700 X161.254 Y200.852
M204 S1800
M205 X8 Y8
G1 F900 X162.09 Y201.688 E54.62022
M204 S3000
M205 X10 Y10
G0 F2700 X163.674 Y201.688
M204 S1800
M205 X8 Y8
G1 F900 X161.271 Y199.285 E54.93354
M204 S3000
M205 X10 Y10
G0 F2700 X161.879 Y198.309
M204 S1800
M205 X8 Y8
G1 F900 X165.258 Y201.688 E55.37411
M204 S3000
M205 X10 Y10
G0 F2700 X166.842 Y201.688
M204 S1800
M205 X8 Y8
G1 F900 X163.463 Y198.309 E55.81469
M204 S3000
M205 X10 Y10
G0 F2700 X165.047 Y198.309
M204 S1800
M205 X8 Y8
G1 F900 X168.426 Y201.688 E56.25526
M204 S3000
M205 X10 Y10
G0 F2700 X170.01 Y201.688
M204 S1800
M205 X8 Y8
G1 F900 X166.631 Y198.309 E56.69584
M204 S3000
M205 X10 Y10
G0 F2700 X168.215 Y198.309
M204 S1800
M205 X8 Y8
G1 F900 X171.594 Y201.688 E57.13641
M204 S3000
M205 X10 Y10
G0 F2700 X173.178 Y201.688
M204 S1800
M205 X8 Y8
G1 F900 X169.798 Y198.309 E57.57706
M204 S3000
M205 X10 Y10
G0 F2700 X171.382 Y198.309
M204 S1800
M205 X8 Y8
G1 F900 X174.762 Y201.688 E58.0177
M204 S3000
M205 X10 Y10
G0 F2700 X176.346 Y201.688
M204 S1800
M205 X8 Y8
G1 F900 X172.966 Y198.309 E58.45834
M204 S3000
M205 X10 Y10
G0 F2700 X174.55 Y198.309
M204 S1800
M205 X8 Y8
G1 F900 X177.929 Y201.688 E58.89891
M204 S3000
M205 X10 Y10
G0 F2700 X179.513 Y201.688
M204 S1800
M205 X8 Y8
G1 F900 X176.134 Y198.309 E59.33949
M204 S3000
M205 X10 Y10
G0 F2700 X177.718 Y198.309
M204 S1800
M205 X8 Y8
G1 F900 X181.097 Y201.688 E59.78006
M204 S3000
M205 X10 Y10
G0 F2700 X182.681 Y201.688
M204 S1800
M205 X8 Y8
G1 F900 X179.302 Y198.309 E60.22064
M204 S3000
M205 X10 Y10
G0 F2700 X180.886 Y198.309
M204 S1800
M205 X8 Y8
G1 F900 X184.265 Y201.688 E60.66121
M204 S3000
M205 X10 Y10
G0 F2700 X185.849 Y201.688
M204 S1800
M205 X8 Y8
G1 F900 X182.47 Y198.309 E61.10179
M204 S3000
M205 X10 Y10
G0 F2700 X184.054 Y198.309
M204 S1800
M205 X8 Y8
G1 F900 X187.433 Y201.688 E61.54237
M204 S3000
M205 X10 Y10
G0 F2700 X189.017 Y201.688
M204 S1800
M205 X8 Y8
G1 F900 X185.638 Y198.309 E61.98294
M204 S3000
M205 X10 Y10
G0 F2700 X187.222 Y198.309
M204 S1800
M205 X8 Y8
G1 F900 X190.601 Y201.688 E62.42352
M204 S3000
M205 X10 Y10
G0 F2700 X192.185 Y201.688
M204 S1800
M205 X8 Y8
G1 F900 X188.805 Y198.309 E62.86416
M204 S3000
M205 X10 Y10
G0 F2700 X190.389 Y198.309
M204 S1800
M205 X8 Y8
G1 F900 X193.769 Y201.688 E63.3048
M204 S3000
M205 X10 Y10
G0 F2700 X195.353 Y201.688
M204 S1800
M205 X8 Y8
G1 F900 X191.973 Y198.309 E63.74544
M204 S3000
M205 X10 Y10
G0 F2700 X193.557 Y198.309
M204 S1800
M205 X8 Y8
G1 F900 X196.937 Y201.688 E64.18608
M204 S3000
M205 X10 Y10
G0 F2700 X198.52 Y201.688
M204 S1800
M205 X8 Y8
G1 F900 X195.141 Y198.309 E64.62666
M204 S3000
M205 X10 Y10
G0 F2700 X196.725 Y198.309
M204 S1800
M205 X8 Y8
G1 F900 X200.105 Y201.689 E65.06736
M204 S3000
M205 X10 Y10
G0 F2700 X201.689 Y201.689
M204 S1800
M205 X8 Y8
G1 F900 X198.309 Y198.309 E65.50807
M204 S3000
M205 X10 Y10
G0 F2700 X199.893 Y198.309
M204 S1800
M205 X8 Y8
G1 F900 X203.273 Y201.689 E65.94877
M204 S3000
M205 X10 Y10
G0 F2700 X204.857 Y201.689
M204 S1800
M205 X8 Y8
G1 F900 X201.478 Y198.31 E66.38935
M204 S3000
M205 X10 Y10
G0 F2700 X203.061 Y198.31
M204 S1800
M205 X8 Y8
G1 F900 X206.441 Y201.689 E66.82999
M204 S3000
M205 X10 Y10
G0 F2700 X208.025 Y201.689
M204 S1800
M205 X8 Y8
G1 F900 X204.645 Y198.31 E67.27063
M204 S3000
M205 X10 Y10
G0 F2700 X206.229 Y198.31
M204 S1800
M205 X8 Y8
G1 F900 X209.609 Y201.689 E67.71127
M204 S3000
M205 X10 Y10
G0 F2700 X211.192 Y201.689
M204 S1800
M205 X8 Y8
G1 F900 X207.813 Y198.31 E68.15185
M204 S3000
M205 X10 Y10
G0 F2700 X209.397 Y198.31
M204 S1800
M205 X8 Y8
G1 F900 X212.776 Y201.689 E68.59242
M204 S3000
M205 X10 Y10
G0 F2700 X214.36 Y201.689
M204 S1800
M205 X8 Y8
G1 F900 X210.981 Y198.31 E69.033
M204 S3000
M205 X10 Y10
G0 F2700 X212.565 Y198.31
M204 S1800
M205 X8 Y8
G1 F900 X215.944 Y201.689 E69.47357
M204 S3000
M205 X10 Y10
G0 F2700 X217.528 Y201.689
M204 S1800
M205 X8 Y8
G1 F900 X214.149 Y198.31 E69.91415
M204 S3000
M205 X10 Y10
G0 F2700 X215.733 Y198.31
M204 S1800
M205 X8 Y8
G1 F900 X219.112 Y201.689 E70.35472
M204 S3000
M205 X10 Y10
G0 F2700 X220.696 Y201.689
M204 S1800
