;FLAVOR:Marlin
;TIME:14264
;Filament used: 51.8159m
;Layer height: 0.5
;MINX:96.89
;MINY:51.726
;MINZ:0.2
;MAXX:303.066
;MAXY:356.406
;MAXZ:35.2
;Generated with Cura_SteamEngine 4.11.0
M140 S70
M105
M190 S70
M104 S210
M105
M109 S210
M82 ;absolute extrusion mode
M107 ;Start with the fan off
G21 ;Set units to millimeters
G91 ;Change to relative positioning mode for retract filament and nozzle lifting
G1 F200 E-3 ;Retract 3mm filament for a clean start
G92 E0 ;Zero the extruded length
G1 F1000 Z5 ;Lift the nozzle 5mm before homing axes
G90 ;Absolute positioning
M82 ;Set extruder to absolute mode too
G28 X0 Y0 ;First move X/Y to min endstops
G28 Z0 ;Then move Z to min endstops
G1 F1000 Z15 ;After homing lift the nozzle 15mm before start printing

G92 E0
G92 E0
G1 F1200 E-3
;LAYER_COUNT:71
;LAYER:0
M107
M204 S3000
M205 X10 Y10
G1 F600 Z0.275
G0 F2700 X122.199 Y55.259 Z0.275
M204 S1800
M205 X8 Y8
;TYPE:SKIRT
G1 F600 Z0.2
G1 F2700 E0
G1 F2400 X122.48 Y54.654 E0.0615
G1 X122.831 Y54.088 E0.12291
G1 X123.248 Y53.567 E0.18443
G1 X123.724 Y53.1 E0.24591
G1 X124.252 Y52.694 E0.30732
G1 X124.825 Y52.353 E0.3688
G1 X125.435 Y52.084 E0.43026
G1 X126.073 Y51.889 E0.49177
G1 X126.729 Y51.772 E0.5532
G1 X127.537 Y51.728 E0.62781
G1 X127.693 Y51.726 E0.64219
G1 X271.93 Y51.726 E13.94043
G1 X272.708 Y51.737 E14.01216
G1 X273.372 Y51.786 E14.07355
G1 X274.027 Y51.915 E14.1351
G1 X274.661 Y52.121 E14.19656
G1 X275.265 Y52.401 E14.25794
G1 X275.832 Y52.752 E14.31942
G1 X276.353 Y53.168 E14.38089
G1 X276.82 Y53.644 E14.44237
G1 X277.227 Y54.172 E14.50383
G1 X277.568 Y54.745 E14.56531
G1 X277.838 Y55.354 E14.62673
G1 X278.033 Y55.992 E14.68824
G1 X278.15 Y56.648 E14.74967
G1 X278.195 Y57.46 E14.82465
G1 X278.197 Y57.616 E14.83903
G1 X278.197 Y72.133 E16.17746
G1 X278.235 Y74.794 E16.42282
G1 X278.287 Y76.193 E16.55189
G1 X278.31 Y77.547 E16.67675
G1 X278.31 Y103.446 E19.06456
G1 X278.348 Y106.101 E19.30937
G1 X278.462 Y108.789 E19.55742
G1 X278.651 Y111.459 E19.8042
G1 X278.828 Y113.318 E19.97637
G1 X302.726 Y340.704 E41.05616
G1 X302.779 Y341.326 E41.11372
G1 X302.854 Y342.687 E41.23939
G1 X303.045 Y348.001 E41.72964
G1 X303.066 Y348.81 E41.80425
G1 X303.043 Y349.476 E41.86569
G1 X302.941 Y350.135 E41.92717
G1 X302.761 Y350.776 E41.98856
G1 X302.505 Y351.392 E42.05006
G1 X302.177 Y351.973 E42.11157
G1 X301.782 Y352.51 E42.17303
G1 X301.326 Y352.996 E42.23448
G1 X300.815 Y353.424 E42.29593
G1 X300.256 Y353.787 E42.35738
G1 X299.658 Y354.081 E42.41882
G1 X299.029 Y354.302 E42.48029
G1 X298.285 Y354.459 E42.55039
G1 X297.835 Y354.519 E42.59225
G1 X280.73 Y356.318 E44.17798
G1 X279.996 Y356.385 E44.24593
G1 X279.33 Y356.406 E44.30737
G1 X278.666 Y356.346 E44.36883
G1 X278.014 Y356.208 E44.43028
G1 X277.383 Y355.993 E44.49174
G1 X276.782 Y355.704 E44.55322
G1 X276.221 Y355.345 E44.61463
G1 X275.706 Y354.921 E44.67613
G1 X275.136 Y354.304 E44.75358
G1 X274.769 Y353.841 E44.80805
G1 X273.724 Y352.485 E44.96588
G1 X272.023 Y350.404 E45.21369
G1 X270.285 Y348.398 E45.45839
G1 X268.46 Y346.405 E45.70754
G1 X266.62 Y344.507 E45.95126
G1 X264.699 Y342.636 E46.1985
G1 X262.745 Y340.836 E46.44344
G1 X260.712 Y339.07 E46.69172
G1 X258.675 Y337.397 E46.93475
G1 X256.52 Y335.727 E47.18611
G1 X254.399 Y334.178 E47.42826
G1 X252.199 Y332.664 E47.67448
G1 X249.936 Y331.198 E47.92307
G1 X247.662 Y329.817 E48.16836
G1 X245.315 Y328.481 E48.41735
G1 X243.009 Y327.251 E48.65831
G1 X240.602 Y326.056 E48.90608
G1 X238.15 Y324.922 E49.15515
G1 X235.721 Y323.882 E49.39876
G1 X233.205 Y322.887 E49.64821
G1 X230.726 Y321.987 E49.89136
G1 X228.17 Y321.141 E50.13959
G1 X225.622 Y320.377 E50.38484
G1 X223.043 Y319.681 E50.63112
G1 X220.449 Y319.059 E50.87706
G1 X217.826 Y318.511 E51.12412
G1 X215.173 Y318.033 E51.37265
G1 X212.589 Y317.642 E51.6136
G1 X209.91 Y317.314 E51.86244
G1 X207.233 Y317.063 E52.11034
G1 X204.588 Y316.89 E52.35472
G1 X201.928 Y316.791 E52.60013
G1 X199.241 Y316.768 E52.84788
G1 X196.583 Y316.82 E53.09298
G1 X193.9 Y316.949 E53.34063
G1 X191.251 Y317.15 E53.58557
G1 X188.579 Y317.431 E53.83328
G1 X185.932 Y317.785 E54.07949
G1 X183.317 Y318.209 E54.32374
G1 X180.687 Y318.713 E54.57063
G1 X178.065 Y319.293 E54.81821
G1 X175.487 Y319.939 E55.06325
G1 X172.916 Y320.662 E55.30948
G1 X170.353 Y321.461 E55.557
G1 X167.849 Y322.322 E55.80112
G1 X165.336 Y323.265 E56.04859
G1 X162.827 Y324.288 E56.2984
G1 X160.446 Y325.338 E56.53832
G1 X157.989 Y326.506 E56.78914
G1 X155.608 Y327.723 E57.03568
G1 X153.291 Y328.99 E57.27915
G1 X150.966 Y330.347 E57.52735
G1 X148.722 Y331.746 E57.77115
G1 X146.485 Y333.228 E58.01855
G1 X144.272 Y334.788 E58.26818
G1 X142.177 Y336.353 E58.50928
G1 X140.056 Y338.034 E58.7588
G1 X138.028 Y339.735 E59.00284
G1 X136.025 Y341.517 E59.25001
G1 X134.066 Y343.361 E59.49806
G1 X132.177 Y345.241 E59.74377
G1 X130.362 Y347.154 E59.98689
G1 X128.564 Y349.159 E60.23519
G1 X126.817 Y351.223 E60.4845
G1 X124.877 Y353.646 E60.77068
G1 X124.43 Y354.14 E60.8321
G1 X123.926 Y354.577 E60.8936
G1 X123.375 Y354.951 E60.955
G1 X122.782 Y355.257 E61.01652
G1 X122.157 Y355.489 E61.07799
G1 X121.509 Y355.644 E61.13942
G1 X120.636 Y355.729 E61.22028
G1 X119.642 Y355.746 E61.31194
G1 X103.063 Y355.745 E62.84048
G1 X102.385 Y355.735 E62.90299
G1 X101.72 Y355.686 E62.96447
G1 X101.066 Y355.557 E63.02593
G1 X100.432 Y355.35 E63.08742
G1 X99.828 Y355.07 E63.1488
G1 X99.261 Y354.719 E63.21028
G1 X98.74 Y354.302 E63.27181
G1 X98.273 Y353.827 E63.33322
G1 X97.867 Y353.298 E63.3947
G1 X97.526 Y352.725 E63.45618
G1 X97.256 Y352.116 E63.5176
G1 X97.062 Y351.478 E63.57908
G1 X96.969 Y351.012 E63.62289
G1 X96.895 Y350.35 E63.6843
G1 X96.89 Y349.923 E63.72367
G1 X96.907 Y349.284 E63.78261
G1 X97.151 Y342.58 E64.40111
G1 X97.196 Y341.636 E64.48824
G1 X97.262 Y340.813 E64.56436
G1 X121.272 Y112.367 E85.74243
G1 X121.514 Y109.706 E85.98878
G1 X121.679 Y107.056 E86.23357
G1 X121.771 Y104.362 E86.4821
G1 X121.79 Y102.439 E86.6594
G1 X121.79 Y77.339 E88.97355
G1 X121.803 Y75.713 E89.12347
G1 X121.804 Y57.876 E90.76798
G1 X121.814 Y57.211 E90.8293
G1 X121.864 Y56.547 E90.8907
G1 X121.993 Y55.893 E90.95215
G1 X122.199 Y55.259 E91.01361
M204 S3000
M205 X10 Y10
G1 F1200 E88.01361
;MESH:v5 folding float arm angled downwards 29.09.2022.stl
G0 F2700 X126.698 Y58.98
G0 X129.057 Y58.98
G0 X196.952 Y70.971
G1 F2700 E91.01361
G0 X197.015 Y70.894
M204 S1800
M205 X8 Y8
;TYPE:WALL-INNER
G1 F900 X197.492 Y71.243 E91.06811
G1 X198.013 Y71.526 E91.12277
G1 X198.558 Y71.741 E91.17679
G1 X199.125 Y71.885 E91.23072
G1 X199.704 Y71.959 E91.28454
G1 X200.293 Y71.96 E91.33884
G1 X200.877 Y71.885 E91.39313
G1 X201.445 Y71.741 E91.44715
G1 X201.991 Y71.525 E91.50129
G1 X202.51 Y71.241 E91.55583
G1 X202.986 Y70.893 E91.6102
G1 X203.414 Y70.493 E91.66421
G1 X203.789 Y70.038 E91.71857
G1 X204.104 Y69.542 E91.77274
G1 X204.354 Y69.011 E91.82685
G1 X204.537 Y68.451 E91.88117
G1 X204.646 Y67.871 E91.93558
G1 X204.683 Y67.286 E91.98962
G1 X204.646 Y66.701 E92.04367
G1 X204.537 Y66.121 E92.09808
G1 X204.354 Y65.561 E92.15239
G1 X204.105 Y65.033 E92.20622
G1 X203.791 Y64.535 E92.2605
G1 X203.413 Y64.08 E92.31503
G1 X202.985 Y63.677 E92.36923
G1 X202.508 Y63.331 E92.42356
G1 X201.994 Y63.048 E92.47766
G1 X201.448 Y62.833 E92.53176
G1 X200.878 Y62.686 E92.58603
G1 X200.293 Y62.612 E92.6404
G1 X199.705 Y62.612 E92.69461
G1 X199.121 Y62.686 E92.74888
G1 X198.551 Y62.832 E92.80313
G1 X198.005 Y63.048 E92.85727
G1 X197.489 Y63.333 E92.91162
G1 X197.013 Y63.679 E92.96587
G1 X196.585 Y64.082 E93.02007
G1 X196.211 Y64.532 E93.07402
G1 X195.892 Y65.035 E93.12893
G1 X195.645 Y65.566 E93.18293
G1 X195.463 Y66.123 E93.23695
G1 X195.354 Y66.703 E93.29136
G1 X195.317 Y67.288 E93.34541
G1 X195.354 Y67.874 E93.39954
G1 X195.464 Y68.457 E93.45424
G1 X195.649 Y69.014 E93.50835
G1 X195.896 Y69.542 E93.5621
G1 X196.212 Y70.039 E93.6164
G1 X196.587 Y70.494 E93.67076
G1 X197.015 Y70.894 E93.72477
M204 S3000
M205 X10 Y10
G0 F2700 X196.952 Y70.971
G0 X145.642 Y75.578
G0 X125.7 Y212.513
G0 X125.706 Y212.612
M204 S1800
M205 X8 Y8
G1 F900 X125.122 Y212.686 E93.77904
G1 X124.554 Y212.831 E93.83309
G1 X124.005 Y213.047 E93.88748
G1 X123.486 Y213.335 E93.94221
G1 X123.016 Y213.678 E93.99585
G1 X122.585 Y214.079 E94.05013
G1 X122.208 Y214.537 E94.10482
G1 X121.895 Y215.033 E94.15889
G1 X121.646 Y215.561 E94.21271
G1 X121.463 Y216.123 E94.26721
G1 X121.354 Y216.701 E94.32144
G1 X121.317 Y217.287 E94.37557
G1 X121.354 Y217.875 E94.42989
G1 X121.464 Y218.453 E94.48414
G1 X121.647 Y219.013 E94.53845
G1 X121.898 Y219.544 E94.5926
G1 X122.212 Y220.039 E94.64665
G1 X122.587 Y220.494 E94.70101
G1 X123.017 Y220.896 E94.75528
G1 X123.492 Y221.242 E94.80946
G1 X124.01 Y221.525 E94.86388
G1 X124.555 Y221.74 E94.9179
G1 X125.125 Y221.887 E94.97217
G1 X125.706 Y221.959 E95.02615
G1 X126.291 Y221.96 E95.08008
G1 X126.877 Y221.886 E95.13454
G1 X127.446 Y221.741 E95.18868
G1 X127.995 Y221.524 E95.2431
G1 X128.51 Y221.239 E95.29737
G1 X128.983 Y220.895 E95.35129
G1 X129.414 Y220.493 E95.40563
G1 X129.789 Y220.038 E95.45999
G1 X130.104 Y219.542 E95.51416
G1 X130.354 Y219.01 E95.56836
G1 X130.536 Y218.451 E95.62256
G1 X130.646 Y217.874 E95.67672
G1 X130.683 Y217.286 E95.73104
G1 X130.646 Y216.7 E95.78517
G1 X130.537 Y216.122 E95.8394
G1 X130.354 Y215.56 E95.89389
G1 X130.104 Y215.031 E95.94784
G1 X129.791 Y214.536 E96.00183
G1 X129.412 Y214.078 E96.05664
G1 X128.983 Y213.677 E96.11078
G1 X128.51 Y213.333 E96.16471
G1 X127.995 Y213.048 E96.21897
G1 X127.446 Y212.831 E96.2734
G1 X126.877 Y212.686 E96.32754
G1 X126.293 Y212.612 E96.38181
G1 X125.706 Y212.612 E96.43593
M204 S3000
M205 X10 Y10
G0 F2700 X125.7 Y212.513
G0 X145.642 Y75.578
G0 X254.458 Y75.578
G0 X265.911 Y218.509
G0 X271.994 Y221.561
G0 X274.293 Y221.999
G0 X276.531 Y221.272
G0 X277.837 Y219.977
G0 X278.354 Y219.01
M204 S1800
M205 X8 Y8
G1 F900 X278.536 Y218.451 E96.49013
G1 X278.646 Y217.874 E96.54429
G1 X278.683 Y217.288 E96.59842
G1 X278.648 Y216.702 E96.65255
G1 X278.536 Y216.121 E96.7071
G1 X278.354 Y215.561 E96.76139
G1 X278.104 Y215.031 E96.81541
G1 X277.789 Y214.533 E96.86974
G1 X277.413 Y214.078 E96.92416
G1 X276.983 Y213.676 E96.97843
G1 X276.51 Y213.333 E97.0323
G1 X275.995 Y213.048 E97.08657
G1 X275.446 Y212.831 E97.141
G1 X274.877 Y212.686 E97.19513
G1 X274.293 Y212.612 E97.24941
G1 X273.706 Y212.612 E97.30353
G1 X273.122 Y212.686 E97.3578
G1 X272.554 Y212.831 E97.41185
G1 X272.005 Y213.047 E97.46624
G1 X271.486 Y213.335 E97.52096
G1 X271.016 Y213.678 E97.57461
G1 X270.585 Y214.079 E97.62888
G1 X270.208 Y214.537 E97.68358
G1 X269.895 Y215.033 E97.73765
G1 X269.646 Y215.561 E97.79147
G1 X269.463 Y216.123 E97.84596
G1 X269.354 Y216.701 E97.90019
G1 X269.317 Y217.287 E97.95433
G1 X269.354 Y217.875 E98.00865
G1 X269.464 Y218.453 E98.06289
G1 X269.647 Y219.013 E98.11721
G1 X269.898 Y219.544 E98.17136
G1 X270.212 Y220.039 E98.22541
G1 X270.587 Y220.494 E98.27977
G1 X271.017 Y220.896 E98.33404
G1 X271.492 Y221.242 E98.38822
G1 X272.01 Y221.525 E98.44264
G1 X272.555 Y221.74 E98.49666
G1 X273.125 Y221.887 E98.55093
G1 X273.706 Y221.959 E98.60491
G1 X274.291 Y221.96 E98.65884
G1 X274.877 Y221.886 E98.7133
G1 X275.446 Y221.741 E98.76743
G1 X275.995 Y221.524 E98.82186
G1 X276.51 Y221.239 E98.87613
G1 X276.983 Y220.895 E98.93005
G1 X277.414 Y220.493 E98.98439
G1 X277.789 Y220.038 E99.03875
G1 X278.104 Y219.542 E99.09292
G1 X278.354 Y219.01 E99.14712
M204 S3000
M205 X10 Y10
G0 F2700 X278.446 Y219.046
G0 X295.706 Y347.392
G0 X295.781 Y347.457
M204 S1800
M205 X8 Y8
G1 F900 X281.696 Y348.938 E100.45287
G1 X281.101 Y349 E100.50803
G1 X281.08 Y348.402 E100.54304
G1 X279.585 Y306.852 E104.37631
G1 X279.583 Y306.838 E104.37761
G1 X279.535 Y305.4 E104.51026
G1 X279.516 Y304.81 E104.56469
G1 X278.928 Y304.862 E104.59935
G1 X274.985 Y305.211 E104.9643
G1 X256.04 Y124.959 E121.67455
G1 X255.997 Y124.96 E121.67852
G1 X254.43 Y110.053 E123.06047
G1 X254.43 Y75.606 E126.23638
G1 X145.67 Y75.606 E136.26374
G1 X145.67 Y109.1 E139.35179
G1 X143.995 Y125.031 E140.82868
G1 X143.953 Y125.032 E140.83255
G1 X125.016 Y305.21 E157.53594
G1 X121.076 Y304.863 E157.9006
G1 X120.49 Y304.812 E157.95483
G1 X120.469 Y305.4 E157.98943
G1 X118.917 Y348.506 E161.96625
G1 X104.76 Y348.506 E163.27148
G1 X104.759 Y348.506 E163.27158
G1 X104.18 Y348.506 E163.32496
G1 X104.2 Y347.927 E163.35916
G1 X104.415 Y342.012 E163.90487
G1 X129.03 Y107.822 E185.61544
G1 X129.03 Y78.356 E188.33212
G1 X129.043 Y78.356 E188.33332
G1 X129.043 Y58.966 E190.12102
G1 X270.957 Y58.966 E203.20508
G1 X270.957 Y78.34 E204.99131
G1 X271.07 Y78.341 E205.00173
G1 X271.07 Y108.773 E207.80747
G1 X295.587 Y342.036 E229.4321
G1 X295.781 Y347.457 E229.93222
M204 S3000
M205 X10 Y10
G0 F2700 X295.706 Y347.392
G0 X276.106 Y221.576
G0 X275.516 Y220.509
M204 S1800
M205 X8 Y8
;TYPE:WALL-OUTER
G1 F900 X275.908 Y220.292 E229.97353
G1 X276.269 Y220.03 E230.01466
G1 X276.596 Y219.724 E230.05595
G1 X276.881 Y219.379 E230.09721
G1 X277.121 Y219.001 E230.13849
G1 X277.311 Y218.597 E230.17965
G1 X277.449 Y218.172 E230.22085
G1 X277.533 Y217.733 E230.26205
G1 X277.561 Y217.287 E230.30326
G1 X277.534 Y216.842 E230.34436
G1 X277.449 Y216.4 E230.38586
G1 X277.311 Y215.974 E230.42714
G1 X277.121 Y215.571 E230.46822
G1 X276.881 Y215.192 E230.50958
G1 X276.596 Y214.847 E230.55084
G1 X276.269 Y214.542 E230.59206
G1 X275.908 Y214.28 E230.63319
G1 X275.516 Y214.063 E230.6745
G1 X275.1 Y213.899 E230.71572
G1 X274.667 Y213.788 E230.75694
G1 X274.223 Y213.732 E230.7982
G1 X273.776 Y213.732 E230.83941
G1 X273.332 Y213.788 E230.88067
G1 X272.899 Y213.899 E230.92188
G1 X272.484 Y214.062 E230.96299
G1 X272.09 Y214.281 E231.00455
G1 X271.73 Y214.543 E231.0456
G1 X271.403 Y214.848 E231.08683
G1 X271.118 Y215.194 E231.12815
G1 X270.879 Y215.573 E231.16946
G1 X270.689 Y215.975 E231.21046
G1 X270.55 Y216.402 E231.25186
G1 X270.467 Y216.841 E231.29305
G1 X270.439 Y217.287 E231.33425
G1 X270.467 Y217.734 E231.37555
G1 X270.551 Y218.173 E231.41675
G1 X270.69 Y218.598 E231.45798
G1 X270.881 Y219.003 E231.49926
G1 X271.12 Y219.38 E231.54042
G1 X271.405 Y219.725 E231.58168
G1 X271.732 Y220.031 E231.62297
G1 X272.093 Y220.294 E231.66415
G1 X272.486 Y220.509 E231.70545
G1 X272.901 Y220.673 E231.74659
G1 X273.334 Y220.784 E231.7878
G1 X273.777 Y220.839 E231.82896
G1 X274.222 Y220.84 E231.86999
G1 X274.667 Y220.784 E231.91134
G1 X275.1 Y220.673 E231.95255
G1 X275.516 Y220.509 E231.99378
M204 S3000
M205 X10 Y10
G0 F2700 X275.866 Y220.316
G0 X276.456 Y221.383
G0 X274.293 Y221.999
G0 X266.169 Y220.953
G0 X254.458 Y75.578
G0 X145.642 Y75.578
G0 X121.848 Y214.922
G0 X122.879 Y215.573
M204 S1800
M205 X8 Y8
G1 F900 X122.689 Y215.975 E232.03477
G1 X122.55 Y216.402 E232.07617
G1 X122.467 Y216.841 E232.11736
G1 X122.439 Y217.287 E232.15856
G1 X122.467 Y217.734 E232.19986
G1 X122.551 Y218.173 E232.24107
G1 X122.69 Y218.598 E232.28229
G1 X122.881 Y219.003 E232.32358
G1 X123.12 Y219.38 E232.36473
G1 X123.405 Y219.725 E232.40599
G1 X123.732 Y220.031 E232.44728
G1 X124.093 Y220.294 E232.48846
G1 X124.486 Y220.509 E232.52976
G1 X124.901 Y220.673 E232.5709
G1 X125.334 Y220.784 E232.61211
G1 X125.777 Y220.839 E232.65327
G1 X126.222 Y220.84 E232.6943
G1 X126.667 Y220.784 E232.73565
G1 X127.1 Y220.673 E232.77686
G1 X127.516 Y220.509 E232.81809
G1 X127.908 Y220.292 E232.8594
G1 X128.269 Y220.03 E232.90052
G1 X128.596 Y219.724 E232.94181
G1 X128.881 Y219.379 E232.98307
G1 X129.121 Y219.001 E233.02435
G1 X129.311 Y218.597 E233.06551
G1 X129.449 Y218.172 E233.10671
G1 X129.533 Y217.733 E233.14792
G1 X129.561 Y217.286 E233.18921
G1 X129.533 Y216.84 E233.23041
G1 X129.45 Y216.401 E233.2716
G1 X129.311 Y215.974 E233.313
G1 X129.121 Y215.571 E233.35408
G1 X128.883 Y215.195 E233.39511
G1 X128.595 Y214.847 E233.43676
G1 X128.269 Y214.542 E233.47792
G1 X127.908 Y214.28 E233.51904
G1 X127.516 Y214.063 E233.56035
G1 X127.1 Y213.899 E233.60158
G1 X126.667 Y213.788 E233.64279
G1 X126.223 Y213.732 E233.68405
G1 X125.776 Y213.732 E233.72526
G1 X125.332 Y213.788 E233.76652
G1 X124.899 Y213.899 E233.80773
G1 X124.484 Y214.062 E233.84884
G1 X124.09 Y214.281 E233.8904
G1 X123.73 Y214.543 E233.93145
