;FLAVOR:Marlin
;TIME:3876
;Filament used: 15.5491m
;Layer height: 0.5
;MINX:111.605
;MINY:174.986
;MINZ:0.2
;MAXX:287.56
;MAXY:231.003
;MAXZ:55.7
;Generated with Cura_SteamEngine 4.11.0
M140 S70
M105
M190 S70
M104 S210
M105
M109 S210
M82 ;absolute extrusion mode
M107 ;Start with the fan off
G21 ;Set units to millimeters
G91 ;Change to relative positioning mode for retract filament and nozzle lifting
G1 F200 E-3 ;Retract 3mm filament for a clean start
G92 E0 ;Zero the extruded length
G1 F1000 Z5 ;Lift the nozzle 5mm before homing axes
G90 ;Absolute positioning
M82 ;Set extruder to absolute mode too
G28 X0 Y0 ;First move X/Y to min endstops
G28 Z0 ;Then move Z to min endstops
G1 F1000 Z15 ;After homing lift the nozzle 15mm before start printing

G92 E0
G92 E0
G1 F1200 E-3
;LAYER_COUNT:112
;LAYER:0
M107
M204 S3000
M205 X10 Y10
G1 F600 Z0.275
G0 F2700 X116.194 Y181.354 Z0.275
M204 S1800
M205 X8 Y8
;TYPE:SKIRT
G1 F600 Z0.2
G1 F2700 E0
G1 F2400 X116.76 Y181.002 E0.06145
G1 X117.364 Y180.72 E0.12291
G1 X117.998 Y180.513 E0.1844
G1 X118.652 Y180.383 E0.24588
G1 X119.306 Y180.333 E0.30635
G1 X120.294 Y180.316 E0.39745
G1 X120.801 Y180.317 E0.4442
G1 X121.502 Y180.327 E0.50883
G1 X122.268 Y180.391 E0.5797
G1 X122.916 Y180.528 E0.64077
G1 X123.73 Y180.752 E0.71861
G1 X126.338 Y181.429 E0.96702
G1 X128.935 Y182.025 E1.21268
G1 X131.607 Y182.561 E1.46394
G1 X134.209 Y183.006 E1.70732
G1 X136.229 Y183.299 E1.89551
G1 X136.594 Y183.348 E1.92946
G1 X139.217 Y183.663 E2.17303
G1 X140.329 Y183.763 E2.27597
G1 X140.516 Y183.791 E2.2934
G1 X141.75 Y183.908 E2.40769
G1 X142.06 Y183.946 E2.43648
G1 X143.221 Y184.122 E2.54474
G1 X143.59 Y184.184 E2.57924
G1 X146.245 Y184.55 E2.82634
G1 X148.618 Y184.815 E3.04648
G1 X149.155 Y184.869 E3.09624
G1 X149.813 Y184.975 E3.15769
G1 X150.517 Y185.182 E3.22535
G1 X151.132 Y185.408 E3.28575
G1 X152.547 Y185.954 E3.42559
G1 X155.076 Y186.848 E3.67289
G1 X157.596 Y187.66 E3.917
G1 X160.152 Y188.404 E4.16243
G1 X162.746 Y189.081 E4.4096
G1 X165.359 Y189.685 E4.65686
G1 X167.977 Y190.21 E4.90304
G1 X170.61 Y190.662 E5.14935
G1 X173.248 Y191.039 E5.39504
G1 X175.889 Y191.341 E5.64011
G1 X178.566 Y191.57 E5.88783
G1 X181.223 Y191.722 E6.1332
G1 X183.907 Y191.799 E6.38075
G1 X186.562 Y191.801 E6.62554
G1 X189.255 Y191.726 E6.87392
G1 X191.9 Y191.578 E7.11816
G1 X195.298 Y191.278 E7.43267
G1 X196.624 Y191.137 E7.55561
G1 X197.112 Y191.107 E7.60069
G1 X198.112 Y191.09 E7.6929
G1 X200.022 Y191.091 E7.86899
G1 X200.72 Y191.101 E7.93335
G1 X201.18 Y191.126 E7.97583
G1 X202.123 Y191.218 E8.06318
G1 X202.328 Y191.242 E8.08221
G1 X204.983 Y191.478 E8.32796
G1 X207.667 Y191.641 E8.57587
G1 X210.322 Y191.726 E8.82078
G1 X213.013 Y191.738 E9.06889
G1 X215.67 Y191.673 E9.31393
G1 X218.316 Y191.534 E9.55822
G1 X221.003 Y191.316 E9.80677
G1 X223.648 Y191.026 E10.05209
G1 X226.314 Y190.658 E10.30022
G1 X228.931 Y190.221 E10.54484
G1 X231.557 Y189.705 E10.79158
G1 X234.173 Y189.114 E11.03884
G1 X236.729 Y188.459 E11.28211
G1 X239.322 Y187.717 E11.53077
G1 X241.844 Y186.918 E11.77469
G1 X245.462 Y185.633 E12.12867
G1 X246.256 Y185.334 E12.20689
G1 X246.893 Y185.136 E12.26839
G1 X247.63 Y185.007 E12.33738
G1 X249.001 Y184.861 E12.46449
G1 X251.663 Y184.54 E12.7117
G1 X254.395 Y184.13 E12.9664
G1 X254.811 Y184.064 E13.00524
G1 X256.254 Y183.871 E13.13946
G1 X258.937 Y183.47 E13.38957
G1 X261.528 Y183.007 E13.63224
G1 X264.147 Y182.463 E13.87886
G1 X266.745 Y181.845 E14.12507
G1 X269.347 Y181.149 E14.3734
G1 X271.898 Y180.388 E14.61884
G1 X272.97 Y180.036 E14.72287
G1 X273.774 Y179.784 E14.80055
G1 X274.421 Y179.623 E14.86202
G1 X275.338 Y179.53 E14.947
G1 X276.338 Y179.513 E15.03921
G1 X276.766 Y179.513 E15.07867
G1 X277.54 Y179.524 E15.15003
G1 X278.205 Y179.573 E15.21151
G1 X278.859 Y179.702 E15.27297
G1 X279.493 Y179.908 E15.33443
G1 X280.098 Y180.188 E15.3959
G1 X280.653 Y180.531 E15.45605
G1 X281.485 Y181.116 E15.54982
G1 X281.831 Y181.369 E15.58934
G1 X282.417 Y181.806 E15.65673
G1 X282.926 Y182.236 E15.71817
G1 X283.381 Y182.723 E15.77961
G1 X283.774 Y183.262 E15.84112
G1 X284.099 Y183.844 E15.90257
G1 X284.353 Y184.46 E15.96401
G1 X284.62 Y185.239 E16.03993
G1 X284.817 Y185.844 E16.09859
G1 X285.03 Y186.531 E16.1649
G1 X285.178 Y187.124 E16.22125
G1 X285.251 Y187.503 E16.25684
G1 X285.634 Y189.69 E16.46154
G1 X286.167 Y192.291 E16.70633
G1 X287.052 Y195.978 E17.05592
G1 X287.37 Y197.199 E17.17225
G1 X287.499 Y197.853 E17.2337
G1 X287.547 Y198.433 E17.28736
G1 X287.56 Y198.93 E17.3332
G1 X287.56 Y219.933 E19.26961
G1 X287.551 Y220.66 E19.33665
G1 X287.502 Y221.325 E19.39812
G1 X287.375 Y221.979 E19.45955
G1 X287.17 Y222.613 E19.52098
G1 X286.891 Y223.219 E19.58249
G1 X286.541 Y223.786 E19.64392
G1 X286.126 Y224.308 E19.7054
G1 X285.651 Y224.776 E19.76688
G1 X285.124 Y225.184 E19.82833
G1 X284.552 Y225.526 E19.88978
G1 X283.943 Y225.797 E19.95123
G1 X283.306 Y225.993 E20.01268
G1 X282.625 Y226.115 E20.07646
G1 X281.584 Y226.234 E20.17307
G1 X278.938 Y226.576 E20.41905
G1 X276.282 Y226.995 E20.66695
G1 X273.683 Y227.481 E20.91073
G1 X271.06 Y228.05 E21.15818
G1 X268.484 Y228.683 E21.40275
G1 X265.86 Y229.409 E21.65376
G1 X264.193 Y229.92 E21.81451
G1 X262.74 Y230.339 E21.95394
G1 X262.571 Y230.385 E21.97008
G1 X261.915 Y230.552 E22.03249
G1 X261.26 Y230.678 E22.09399
G1 X260.595 Y230.724 E22.15545
G1 X259.952 Y230.697 E22.21478
G1 X259.372 Y230.647 E22.26846
G1 X258.372 Y230.548 E22.3611
G1 X257.651 Y230.467 E22.428
G1 X256.725 Y230.283 E22.51504
G1 X255.909 Y230.047 E22.59336
G1 X253.302 Y229.333 E22.84257
G1 X250.705 Y228.7 E23.08901
G1 X248.099 Y228.142 E23.33472
G1 X245.499 Y227.661 E23.5785
G1 X242.834 Y227.246 E23.82717
G1 X240.178 Y226.91 E24.074
G1 X237.553 Y226.652 E24.31718
G1 X234.842 Y226.464 E24.56773
G1 X232.225 Y226.356 E24.80921
G1 X229.524 Y226.321 E25.05826
G1 X226.033 Y226.389 E25.38018
G1 X225.299 Y226.397 E25.44785
G1 X224.259 Y226.347 E25.54385
G1 X223.418 Y226.295 E25.62154
G1 X220.735 Y226.206 E25.86904
G1 X218.045 Y226.192 E26.11705
G1 X215.405 Y226.254 E26.36052
G1 X213.599 Y226.339 E26.52721
G1 X213.242 Y226.359 E26.56018
G1 X212.575 Y226.357 E26.62167
G1 X212.14 Y226.313 E26.66198
G1 X211.596 Y226.235 E26.71265
G1 X208.934 Y225.894 E26.96008
G1 X206.253 Y225.626 E27.2085
G1 X203.607 Y225.438 E27.45307
G1 X200.919 Y225.323 E27.70112
G1 X198.264 Y225.284 E27.94593
G1 X195.61 Y225.321 E28.19064
G1 X192.915 Y225.434 E28.43933
G1 X190.276 Y225.619 E28.68324
G1 X189.171 Y225.732 E28.78565
G1 X187.75 Y225.861 E28.9172
G1 X187.206 Y225.889 E28.96742
G1 X183.803 Y225.974 E29.28126
G1 X181.845 Y226.06 E29.46196
G1 X179.997 Y226.104 E29.63239
G1 X177.261 Y226.209 E29.88482
G1 X174.58 Y226.387 E30.13255
G1 X173.131 Y226.514 E30.26666
G1 X172.546 Y226.534 E30.32062
G1 X171.518 Y226.516 E30.41542
G1 X168.784 Y226.507 E30.66748
G1 X166.134 Y226.573 E30.91188
G1 X163.475 Y226.715 E31.15738
G1 X160.798 Y226.933 E31.40501
G1 X158.131 Y227.227 E31.65239
G1 X155.478 Y227.597 E31.89936
G1 X152.87 Y228.034 E32.14316
G1 X150.236 Y228.554 E32.39069
G1 X147.644 Y229.142 E32.63574
G1 X145.054 Y229.807 E32.88228
G1 X142.456 Y230.552 E33.13146
G1 X142.206 Y230.629 E33.15558
G1 X141.672 Y230.785 E33.20687
G1 X141.022 Y230.933 E33.26833
G1 X140.359 Y231.003 E33.3298
G1 X139.693 Y230.992 E33.39121
G1 X138.711 Y230.828 E33.483
G1 X137.855 Y230.605 E33.56455
G1 X136.923 Y230.346 E33.65374
G1 X135.985 Y230.071 E33.74386
G1 X133.655 Y229.354 E33.96862
G1 X131.098 Y228.646 E34.21324
G1 X128.526 Y228.012 E34.45747
G1 X125.867 Y227.433 E34.70836
G1 X123.273 Y226.949 E34.95165
G1 X120.626 Y226.53 E35.19873
G1 X117.973 Y226.187 E35.44537
G1 X117.295 Y226.105 E35.50833
G1 X116.64 Y225.98 E35.56981
G1 X116.005 Y225.777 E35.63128
G1 X115.398 Y225.5 E35.69279
G1 X114.83 Y225.152 E35.75421
G1 X114.307 Y224.739 E35.81565
G1 X113.837 Y224.266 E35.87712
G1 X113.427 Y223.74 E35.93861
G1 X113.083 Y223.169 E36.00007
G1 X112.81 Y222.561 E36.06152
G1 X112.611 Y221.925 E36.12296
G1 X112.491 Y221.269 E36.18445
G1 X112.451 Y220.741 E36.23326
G1 X112.44 Y220.258 E36.27781
G1 X112.44 Y201.886 E37.97165
G1 X112.402 Y199.231 E38.21646
G1 X112.288 Y196.542 E38.4646
G1 X112.1 Y193.888 E38.70991
G1 X111.835 Y191.218 E38.95728
G1 X111.646 Y189.674 E39.1007
G1 X111.605 Y189.009 E39.16212
G1 X111.644 Y188.343 E39.22363
G1 X111.762 Y187.687 E39.28508
G1 X111.85 Y187.364 E39.31595
G1 X112.133 Y186.445 E39.40461
G1 X112.287 Y185.972 E39.45047
G1 X112.522 Y185.283 E39.51758
G1 X112.774 Y184.666 E39.57903
G1 X113.099 Y184.084 E39.64049
G1 X113.491 Y183.545 E39.70194
G1 X113.945 Y183.056 E39.76346
G1 X114.438 Y182.638 E39.82305
G1 X115.22 Y182.049 E39.91331
G1 X115.595 Y181.778 E39.95597
G1 X116.194 Y181.354 E40.02363
M204 S3000
M205 X10 Y10
G0 F2700 X198.801 Y201.761
M204 S1800
M205 X8 Y8
G1 F2400 X198.899 Y201.69 E40.03479
G1 X199.009 Y201.69 E40.04493
G1 X199.107 Y201.761 E40.05608
G1 X199.142 Y201.869 E40.06655
G1 X199.107 Y201.977 E40.07702
G1 X199.009 Y202.048 E40.08818
G1 X198.899 Y202.048 E40.09832
G1 X198.801 Y201.977 E40.10947
G1 X198.766 Y201.869 E40.11994
G1 X198.801 Y201.761 E40.13041
M204 S3000
M205 X10 Y10
G0 F2700 X197.849 Y201.069
M204 S1800
M205 X8 Y8
G1 F2400 X198.534 Y200.57 E40.20854
G1 X199.374 Y200.57 E40.28599
G1 X200.059 Y201.069 E40.36413
G1 X200.319 Y201.869 E40.44168
G1 X200.059 Y202.669 E40.51924
G1 X199.374 Y203.168 E40.59737
G1 X198.534 Y203.168 E40.67482
G1 X197.849 Y202.669 E40.75295
G1 X197.589 Y201.869 E40.83051
G1 X197.849 Y201.069 E40.90806
M204 S3000
M205 X10 Y10
G0 F2700 X196.896 Y200.378
M204 S1800
M205 X8 Y8
G1 F2400 X198.171 Y199.45 E41.05345
G1 X199.737 Y199.45 E41.19783
G1 X201.012 Y200.378 E41.34323
G1 X201.497 Y201.869 E41.48778
G1 X201.012 Y203.36 E41.63234
G1 X199.737 Y204.288 E41.77773
G1 X198.171 Y204.288 E41.92211
G1 X196.896 Y203.36 E42.0675
G1 X196.411 Y201.869 E42.21206
G1 X196.896 Y200.378 E42.35661
M204 S3000
M205 X10 Y10
G0 F2700 X195.944 Y199.685
M204 S1800
M205 X8 Y8
G1 F2400 X197.806 Y198.33 E42.56893
G1 X200.102 Y198.33 E42.78061
G1 X201.964 Y199.685 E42.99293
G1 X202.675 Y201.869 E43.20469
G1 X201.964 Y204.053 E43.41645
G1 X200.102 Y205.408 E43.62876
G1 X197.806 Y205.408 E43.84045
G1 X195.944 Y204.053 E44.05276
G1 X195.233 Y201.869 E44.26452
G1 X195.944 Y199.685 E44.47628
M204 S3000
M205 X10 Y10
G0 F2700 X194.991 Y198.994
M204 S1800
M205 X8 Y8
G1 F2400 X197.442 Y197.21 E44.75578
G1 X200.466 Y197.21 E45.03458
G1 X202.917 Y198.994 E45.31408
G1 X203.853 Y201.869 E45.59284
G1 X202.917 Y204.744 E45.8716
G1 X200.466 Y206.528 E46.1511
G1 X197.442 Y206.528 E46.4299
G1 X194.991 Y204.744 E46.7094
G1 X194.055 Y201.869 E46.98816
G1 X194.991 Y198.994 E47.26692
M204 S3000
M205 X10 Y10
G0 F2700 X199.883 Y210.28
M204 S1800
M205 X8 Y8
G1 F2400 X200.487 Y211.111 E47.36163
G1 X199.883 Y211.942 E47.45635
G1 X198.906 Y211.624 E47.55108
G1 X198.906 Y210.598 E47.64567
G1 X199.883 Y210.28 E47.7404
M204 S3000
M205 X10 Y10
G0 F2700 X209.108 Y215.912
M204 S1800
M205 X8 Y8
G1 F2400 X209.597 Y215.752 E47.78783
G1 X209.9 Y216.169 E47.83536
G1 X209.597 Y216.586 E47.88288
G1 X209.108 Y216.426 E47.93032
G1 X209.108 Y215.912 E47.97771
M204 S3000
M205 X10 Y10
G0 F2700 X210.636 Y217.602
M204 S1800
M205 X8 Y8
G1 F2400 X211.304 Y217.384 E48.04249
G1 X213.381 Y218.907 E48.27995
G1 X213.571 Y218.997 E48.29933
G1 X213.878 Y218.99 E48.32765
G1 X216.309 Y218.238 E48.56226
G1 X218.167 Y218.441 E48.73458
G1 X218.366 Y218.427 E48.75297
G1 X219.978 Y218.016 E48.90635
G1 X221.205 Y218.735 E49.03746
G1 X221.403 Y218.806 E49.05686
G1 X221.592 Y218.802 E49.07429
G1 X225.149 Y218.127 E49.40808
G1 X226.419 Y218.932 E49.54671
G1 X226.615 Y219.009 E49.56613
G1 X226.917 Y218.983 E49.59408
G1 X228.708 Y218.307 E49.77057
G1 X232.138 Y219.319 E50.10028
G1 X232.347 Y219.34 E50.11965
G1 X232.55 Y219.281 E50.13914
G1 X232.695 Y219.174 E50.15576
G1 X233.414 Y218.442 E50.25036
G1 X236.809 Y218.752 E50.56467
G1 X236.92 Y218.751 E50.5749
G1 X240.126 Y218.403 E50.87222
G1 X243.722 Y218.762 E51.20541
G1 X243.932 Y218.743 E51.22485
G1 X244.12 Y218.648 E51.24427
G1 X244.274 Y218.465 E51.26632
G1 X244.827 Y217.407 E51.37639
G1 X246.165 Y218.149 E51.51745
G1 X246.442 Y218.219 E51.54379
G1 X250.207 Y218.184 E51.89092
G1 X253.848 Y218.577 E52.22856
G1 X253.919 Y218.58 E52.23512
G1 X256.172 Y218.536 E52.44288
G1 X257.093 Y220.826 E52.67044
G1 X257.058 Y221.333 E52.7173
G1 X257.084 Y221.543 E52.73681
G1 X257.229 Y221.776 E52.76211
G1 X258.974 Y223.454 E52.98531
G1 X259.15 Y223.569 E53.00469
G1 X259.283 Y223.604 E53.01737
G1 X261.503 Y223.922 E53.22414
G1 X261.503 Y224.334 E53.26212
G1 X260.493 Y224.608 E53.35861
G1 X258.551 Y224.417 E53.53852
G1 X256.713 Y222.259 E53.79986
G1 X256.741 Y221.85 E53.83766
G1 X256.715 Y221.64 E53.85717
G1 X256.635 Y221.482 E53.8735
G1 X255.959 Y220.551 E53.97957
G1 X255.951 Y220.019 E54.02863
G1 X255.908 Y219.813 E54.04803
G1 X255.793 Y219.637 E54.06741
G1 X255.62 Y219.516 E54.08688
G1 X255.415 Y219.468 E54.10629
G1 X255.255 Y219.484 E54.12112
G1 X253.991 Y219.799 E54.24122
G1 X249.98 Y219.22 E54.61485
G1 X249.77 Y219.229 E54.63423
G1 X249.64 Y219.278 E54.64704
G1 X248.289 Y219.985 E54.78762
G1 X245.145 Y219.393 E55.08259
G1 X244.912 Y219.398 E55.10407
G1 X242.584 Y219.948 E55.32462
G1 X238.804 Y219.694 E55.67391
G1 X235.041 Y219.624 E56.0209
G1 X234.981 Y219.626 E56.02644
G1 X231.048 Y219.98 E56.39052
G1 X228.003 Y219.82 E56.67164
G1 X227.867 Y219.829 E56.68421
G1 X225.598 Y220.273 E56.89737
G1 X224.008 Y219.679 E57.05386
G1 X223.8 Y219.644 E57.07331
G1 X223.638 Y219.672 E57.08847
G1 X222.523 Y220.036 E57.1966
G1 X218.955 Y219.207 E57.53433
G1 X218.628 Y219.229 E57.56454
G1 X217.208 Y219.771 E57.70468
G1 X215.216 Y219.515 E57.88984
G1 X214.966 Y219.539 E57.913
G1 X212.99 Y220.205 E58.10525
G1 X210.453 Y218.681 E58.37811
G1 X210.636 Y217.602 E58.47901
M204 S3000
M205 X10 Y10
G0 F2700 X190.654 Y215.919
M204 S1800
M205 X8 Y8
G1 F2400 X190.885 Y216.237 E58.51525
G1 X190.343 Y216.983 E58.60027
G1 X190.283 Y217.087 E58.61134
G1 X189.725 Y218.357 E58.73923
G1 X189.679 Y218.551 E58.75761
G1 X189.641 Y219.23 E58.82031
G1 X188.475 Y219.412 E58.92911
G1 X188.409 Y219.426 E58.93533
G1 X187.201 Y219.766 E59.05104
G1 X184.659 Y219.507 E59.28661
G1 X184.312 Y219.299 E59.32391
G1 X184.115 Y219.227 E59.34325
G1 X183.904 Y219.233 E59.36271
G1 X183.776 Y219.278 E59.37522
G1 X182.472 Y219.924 E59.50939
G1 X178.74 Y220.013 E59.85357
G1 X176.63 Y219.901 E60.04838
G1 X173.506 Y219.042 E60.34709
G1 X173.279 Y219.018 E60.36814
G1 X173.895 Y218.17 E60.46477
G1 X177.182 Y218.129 E60.76785
G1 X179.411 Y218.821 E60.98303
G1 X179.616 Y218.845 E61.00206
G1 X183.105 Y218.601 E61.32452
G1 X183.255 Y218.569 E61.33866
G1 X184.564 Y218.099 E61.46689
G1 X185.248 Y218.607 E61.54544
G1 X185.438 Y218.698 E61.56487
G1 X185.756 Y218.689 E61.5942
G1 X186.85 Y218.332 E61.7003
G1 X187.961 Y218.669 E61.80734
G1 X188.171 Y218.691 E61.8268
G1 X188.374 Y218.634 E61.84624
G1 X188.541 Y218.506 E61.86564
G1 X188.627 Y218.378 E61.87986
G1 X189.449 Y216.693 E62.05271
G1 X190.654 Y215.919 E62.18475
M204 S3000
M205 X10 Y10
G0 F2700 X172.922 Y219.233
M204 S1800
M205 X8 Y8
G1 F2400 X172.858 Y219.328 E62.19531
G1 X172.361 Y220.304 E62.29629
G1 X171.748 Y220.104 E62.35574
G1 X171.444 Y219.693 E62.40287
G1 X171.253 Y219.602 E62.42238
G1 X171.071 Y219.585 E62.43923
G1 X169.156 Y219.724 E62.61626
G1 X168.386 Y219.17 E62.70371
G1 X168.195 Y219.082 E62.7231
G1 X167.898 Y219.089 E62.75049
G1 X164.475 Y220.12 E63.08009
G1 X163.135 Y219.7 E63.20956
G1 X162.926 Y219.676 E63.22895
G1 X162.792 Y219.702 E63.24154
G1 X161.617 Y220.09 E63.35562
G1 X158.066 Y220.022 E63.68307
G1 X155.604 Y220.007 E63.91007
G1 X155.201 Y219.063 E64.0047
G1 X155.083 Y218.888 E64.02416
G1 X154.909 Y218.77 E64.04354
G1 X154.704 Y218.723 E64.06294
G1 X154.507 Y218.752 E64.08129
G1 X150.848 Y219.984 E64.43725
G1 X147.84 Y219.534 E64.71767
G1 X147.472 Y219.238 E64.76121
G1 X147.179 Y219.203 E64.78842
G1 X145.199 Y219.502 E64.97304
G1 X144.328 Y219.652 E65.05452
G1 X144.131 Y219.726 E65.07392
G1 X143.975 Y219.868 E65.09337
G1 X143.868 Y220.129 E65.11938
G1 X143.617 Y221.987 E65.29224
G1 X141.133 Y224.443 E65.6143
