;FLAVOR:Marlin
;TIME:18203
;Filament used: 66.0197m
;Layer height: 0.5
;MINX:103.016
;MINY:3.579
;MINZ:0.2
;MAXX:297.001
;MAXY:396.462
;MAXZ:35.2
;Generated with Cura_SteamEngine 4.11.0
M140 S70
M105
M190 S70
M104 S210
M105
M109 S210
M82 ;absolute extrusion mode
M107 ;Start with the fan off
G21 ;Set units to millimeters
G91 ;Change to relative positioning mode for retract filament and nozzle lifting
G1 F200 E-3 ;Retract 3mm filament for a clean start
G92 E0 ;Zero the extruded length
G1 F1000 Z5 ;Lift the nozzle 5mm before homing axes
G90 ;Absolute positioning
M82 ;Set extruder to absolute mode too
G28 X0 Y0 ;First move X/Y to min endstops
G28 Z0 ;Then move Z to min endstops
G1 F1000 Z15 ;After homing lift the nozzle 15mm before start printing

G92 E0
G92 E0
G1 F1200 E-3
;LAYER_COUNT:71
;LAYER:0
M107
M204 S3000
M205 X10 Y10
G1 F600 Z0.275
;MESH:float arms taller 10.05.2022.stl
G0 F2700 X118.993 Y5.137 Z0.275
M204 S1800
M205 X8 Y8
;TYPE:WALL-INNER
G1 F600 Z0.2
G1 F2700 E0
G1 F900 X119.002 Y5.748 E0.05634
G1 X119.751 Y56.378 E4.72479
G1 X119.76 Y56.987 E4.78094
G1 X120.366 Y56.926 E4.81642
G1 X125.796 Y56.374 E5.31963
G1 X145.414 Y243.028 E22.62338
G1 X145.121 Y243.059 E22.65054
G1 X145.289 Y246.242 E22.94441
G1 X145.629 Y246.242 E22.97576
G1 X145.63 Y378.542 E35.17344
G1 X254.37 Y378.542 E45.19895
G1 X254.371 Y246.242 E57.39662
G1 X254.711 Y246.242 E57.42797
G1 X254.879 Y243.059 E57.72184
G1 X254.586 Y243.028 E57.74901
G1 X274.203 Y56.374 E75.05274
G1 X279.633 Y56.924 E75.55594
G1 X280.239 Y56.985 E75.61209
G1 X280.248 Y56.376 E75.64757
G1 X281.001 Y5.642 E80.32561
G1 X295.17 Y5.642 E81.63195
G1 X295.171 Y5.642 E81.63204
G1 X295.738 Y5.642 E81.68432
G1 X295.731 Y6.209 E81.71802
G1 X295.73 Y6.21 E81.71815
G1 X295.65 Y11.511 E82.20694
G1 X271.01 Y245.946 E103.94022
G1 X271.01 Y392.882 E117.48729
G1 X270.957 Y392.882 E117.49218
G1 X270.957 Y395.182 E117.70423
G1 X129.043 Y395.182 E130.78829
G1 X129.043 Y392.882 E131.00035
G1 X128.99 Y392.882 E131.00523
G1 X128.99 Y245.946 E144.5523
G1 X104.348 Y11.488 E166.28771
G1 X104.277 Y6.686 E166.73049
G1 X118.385 Y5.201 E168.0384
G1 X118.993 Y5.137 E168.07396
M204 S3000
M205 X10 Y10
G0 F2700 X118.927 Y5.211
G0 X119.734 Y57.016
G0 X121.313 Y137.449
G0 X122.179 Y139.638
G0 X123.996 Y141.136
G0 X125.705 Y141.634
G0 X125.711 Y141.535
M204 S1800
M205 X8 Y8
G1 F900 X126.293 Y141.535 E168.12762
G1 X126.877 Y141.463 E168.18187
G1 X127.454 Y141.315 E168.23679
G1 X127.996 Y141.097 E168.29065
G1 X128.509 Y140.816 E168.34458
G1 X128.987 Y140.469 E168.39904
G1 X129.414 Y140.067 E168.45311
G1 X129.789 Y139.615 E168.50725
G1 X130.104 Y139.118 E168.5615
G1 X130.354 Y138.587 E168.61561
G1 X130.537 Y138.027 E168.66993
G1 X130.646 Y137.447 E168.72434
G1 X130.683 Y136.862 E168.77839
G1 X130.646 Y136.277 E168.83243
G1 X130.537 Y135.697 E168.88684
G1 X130.354 Y135.137 E168.94116
G1 X130.104 Y134.606 E168.99527
G1 X129.789 Y134.11 E169.04944
G1 X129.415 Y133.656 E169.10367
G1 X128.984 Y133.251 E169.1582
G1 X128.504 Y132.903 E169.21286
G1 X127.988 Y132.623 E169.26699
G1 X127.447 Y132.409 E169.32063
G1 X126.876 Y132.262 E169.37499
G1 X126.291 Y132.188 E169.42935
G1 X125.705 Y132.188 E169.48338
G1 X125.12 Y132.262 E169.53775
G1 X124.546 Y132.409 E169.59237
G1 X124.002 Y132.628 E169.64644
G1 X123.493 Y132.907 E169.69996
G1 X123.016 Y133.251 E169.75418
G1 X122.584 Y133.657 E169.80884
G1 X122.21 Y134.11 E169.863
G1 X121.896 Y134.606 E169.91712
G1 X121.646 Y135.137 E169.97123
G1 X121.463 Y135.697 E170.02555
G1 X121.354 Y136.276 E170.07987
G1 X121.317 Y136.86 E170.13382
G1 X121.352 Y137.445 E170.18785
G1 X121.464 Y138.028 E170.24258
G1 X121.646 Y138.586 E170.2967
G1 X121.896 Y139.118 E170.35089
G1 X122.211 Y139.615 E170.40514
G1 X122.587 Y140.068 E170.45942
G1 X123.015 Y140.472 E170.51368
G1 X123.496 Y140.82 E170.56842
G1 X124.012 Y141.1 E170.62255
G1 X124.554 Y141.315 E170.67631
G1 X125.127 Y141.463 E170.73087
G1 X125.711 Y141.535 E170.78512
M204 S3000
M205 X10 Y10
G0 F2700 X125.705 Y141.634
G0 X145.262 Y246.271
G0 X145.602 Y378.57
G0 X254.398 Y378.57
G0 X265.325 Y141.216
G0 X274.295 Y141.574
G0 X276.04 Y141.186
G0 X275.998 Y141.096
M204 S1800
M205 X8 Y8
G1 F900 X276.508 Y140.816 E170.83876
G1 X276.986 Y140.47 E170.89316
G1 X277.414 Y140.067 E170.94736
G1 X277.789 Y139.615 E171.00151
G1 X278.104 Y139.118 E171.05576
G1 X278.354 Y138.587 E171.10987
G1 X278.537 Y138.027 E171.16419
G1 X278.646 Y137.447 E171.2186
G1 X278.683 Y136.862 E171.27264
G1 X278.646 Y136.277 E171.32669
G1 X278.537 Y135.697 E171.3811
G1 X278.354 Y135.137 E171.43542
G1 X278.104 Y134.606 E171.48953
G1 X277.789 Y134.11 E171.5437
G1 X277.415 Y133.656 E171.59793
G1 X276.982 Y133.249 E171.65272
G1 X276.503 Y132.903 E171.7072
G1 X275.988 Y132.624 E171.7612
G1 X275.447 Y132.409 E171.81487
G1 X274.876 Y132.262 E171.86923
G1 X274.291 Y132.188 E171.9236
G1 X273.705 Y132.188 E171.97763
G1 X273.12 Y132.262 E172.03199
G1 X272.546 Y132.41 E172.08664
G1 X272.004 Y132.627 E172.14047
G1 X271.492 Y132.907 E172.19427
G1 X271.015 Y133.253 E172.2486
G1 X270.584 Y133.657 E172.30307
G1 X270.21 Y134.11 E172.35723
G1 X269.896 Y134.606 E172.41135
G1 X269.646 Y135.137 E172.46546
G1 X269.463 Y135.697 E172.51978
G1 X269.354 Y136.276 E172.5741
G1 X269.317 Y136.86 E172.62805
G1 X269.352 Y137.445 E172.68208
G1 X269.464 Y138.028 E172.73681
G1 X269.646 Y138.586 E172.79093
G1 X269.896 Y139.118 E172.84512
G1 X270.211 Y139.615 E172.89937
G1 X270.587 Y140.068 E172.95365
G1 X271.015 Y140.471 E173.00785
G1 X271.495 Y140.82 E173.06257
G1 X272.012 Y141.101 E173.11682
G1 X272.554 Y141.315 E173.17054
G1 X273.127 Y141.463 E173.22511
G1 X273.711 Y141.535 E173.27936
G1 X274.293 Y141.535 E173.33302
G1 X274.877 Y141.463 E173.38727
G1 X275.453 Y141.315 E173.4421
G1 X275.998 Y141.096 E173.49625
M204 S3000
M205 X10 Y10
G0 F2700 X276.04 Y141.186
G0 X257.777 Y311.86
G0 X258.361 Y314.137
G0 X259.452 Y315.547
G0 X259.515 Y315.471
M204 S1800
M205 X8 Y8
G1 F900 X259.995 Y315.82 E173.55096
G1 X260.512 Y316.101 E173.60522
G1 X261.054 Y316.315 E173.65894
G1 X261.627 Y316.463 E173.7135
G1 X262.211 Y316.535 E173.76775
G1 X262.793 Y316.535 E173.82141
G1 X263.377 Y316.463 E173.87566
G1 X263.953 Y316.315 E173.93049
G1 X264.498 Y316.096 E173.98465
G1 X265.008 Y315.816 E174.03829
G1 X265.486 Y315.47 E174.09269
G1 X265.914 Y315.067 E174.14689
G1 X266.289 Y314.615 E174.20104
G1 X266.604 Y314.118 E174.25529
G1 X266.854 Y313.587 E174.3094
G1 X267.037 Y313.027 E174.36372
G1 X267.146 Y312.447 E174.41813
G1 X267.183 Y311.862 E174.47217
G1 X267.146 Y311.277 E174.52622
G1 X267.037 Y310.697 E174.58063
G1 X266.854 Y310.137 E174.63494
G1 X266.604 Y309.606 E174.68905
G1 X266.289 Y309.11 E174.74323
G1 X265.915 Y308.656 E174.79746
G1 X265.482 Y308.249 E174.85225
G1 X265.003 Y307.903 E174.90673
G1 X264.488 Y307.624 E174.96073
G1 X263.947 Y307.409 E175.0144
G1 X263.376 Y307.262 E175.06876
G1 X262.791 Y307.188 E175.12313
G1 X262.205 Y307.188 E175.17715
G1 X261.62 Y307.262 E175.23152
G1 X261.046 Y307.41 E175.28617
G1 X260.504 Y307.627 E175.34
G1 X259.992 Y307.907 E175.3938
G1 X259.515 Y308.253 E175.44813
G1 X259.084 Y308.657 E175.5026
G1 X258.71 Y309.11 E175.55676
G1 X258.396 Y309.606 E175.61088
G1 X258.146 Y310.137 E175.66499
G1 X257.963 Y310.697 E175.71931
G1 X257.854 Y311.276 E175.77363
G1 X257.817 Y311.86 E175.82758
G1 X257.852 Y312.445 E175.88161
G1 X257.964 Y313.028 E175.93634
G1 X258.146 Y313.586 E175.99046
G1 X258.396 Y314.118 E176.04465
G1 X258.711 Y314.615 E176.0989
G1 X259.087 Y315.068 E176.15318
G1 X259.515 Y315.471 E176.20738
M204 S3000
M205 X10 Y10
G0 F2700 X259.452 Y315.547
G0 X254.398 Y378.57
G0 X204.446 Y388.621
G0 X204.354 Y388.585
M204 S1800
M205 X8 Y8
G1 F900 X204.537 Y388.025 E176.2617
G1 X204.646 Y387.447 E176.31593
G1 X204.683 Y386.862 E176.36997
G1 X204.646 Y386.277 E176.42401
G1 X204.537 Y385.697 E176.47842
G1 X204.354 Y385.137 E176.53274
G1 X204.104 Y384.606 E176.58685
G1 X203.79 Y384.112 E176.64082
G1 X203.416 Y383.655 E176.69526
G1 X202.982 Y383.249 E176.75006
G1 X202.503 Y382.902 E176.80459
G1 X201.989 Y382.624 E176.85847
G1 X201.449 Y382.408 E176.91209
G1 X200.876 Y382.261 E176.96663
G1 X200.291 Y382.187 E177.02099
G1 X199.705 Y382.187 E177.07502
G1 X199.12 Y382.261 E177.12938
G1 X198.545 Y382.409 E177.18413
G1 X198.002 Y382.628 E177.23811
G1 X197.493 Y382.906 E177.29158
G1 X197.016 Y383.251 E177.34585
G1 X196.583 Y383.656 E177.40052
G1 X196.21 Y384.112 E177.45483
G1 X195.896 Y384.606 E177.5088
G1 X195.646 Y385.137 E177.56291
G1 X195.463 Y385.697 E177.61723
G1 X195.354 Y386.276 E177.67155
G1 X195.317 Y386.86 E177.7255
G1 X195.352 Y387.444 E177.77944
G1 X195.464 Y388.027 E177.83417
G1 X195.645 Y388.584 E177.88817
G1 X195.895 Y389.117 E177.94245
G1 X196.211 Y389.615 E177.99682
G1 X196.587 Y390.069 E178.05117
G1 X197.017 Y390.473 E178.10557
G1 X197.497 Y390.82 E178.16018
G1 X198.012 Y391.1 E178.21422
G1 X198.553 Y391.315 E178.2679
G1 X199.124 Y391.462 E178.32226
G1 X199.709 Y391.536 E178.37662
G1 X200.295 Y391.536 E178.43065
G1 X200.88 Y391.462 E178.48502
G1 X201.454 Y391.315 E178.53964
G1 X201.998 Y391.096 E178.59371
G1 X202.508 Y390.816 E178.64735
G1 X202.984 Y390.471 E178.70155
G1 X203.414 Y390.068 E178.75589
G1 X203.789 Y389.614 E178.81018
G1 X204.105 Y389.117 E178.86448
G1 X204.354 Y388.585 E178.91863
M204 S3000
M205 X10 Y10
G0 F2700 X204.446 Y388.621
G0 X204.685 Y386.273
G0 X203.822 Y384.089
G0 X202.524 Y382.869
G0 X196.158 Y378.571
G0 X145.602 Y378.57
G0 X142.185 Y311.273
G0 X141.321 Y309.087
G0 X140.025 Y307.87
G0 X138.299 Y307.246
G0 X137.205 Y307.188
M204 S1800
M205 X8 Y8
G1 F900 X136.62 Y307.262 E178.973
G1 X136.046 Y307.409 E179.02763
G1 X135.502 Y307.628 E179.08169
G1 X134.993 Y307.907 E179.13521
G1 X134.516 Y308.251 E179.18943
G1 X134.084 Y308.657 E179.24409
G1 X133.71 Y309.11 E179.29825
G1 X133.396 Y309.606 E179.35237
G1 X133.146 Y310.137 E179.40648
G1 X132.963 Y310.697 E179.4608
G1 X132.854 Y311.276 E179.51512
G1 X132.817 Y311.86 E179.56907
G1 X132.852 Y312.445 E179.6231
G1 X132.964 Y313.028 E179.67784
G1 X133.146 Y313.586 E179.73195
G1 X133.396 Y314.118 E179.78615
G1 X133.711 Y314.615 E179.8404
G1 X134.087 Y315.068 E179.89467
G1 X134.515 Y315.472 E179.94894
G1 X134.996 Y315.82 E180.00367
G1 X135.512 Y316.1 E180.0578
G1 X136.054 Y316.315 E180.11156
G1 X136.627 Y316.463 E180.16612
G1 X137.211 Y316.535 E180.22037
G1 X137.793 Y316.535 E180.27403
G1 X138.377 Y316.463 E180.32828
G1 X138.954 Y316.315 E180.3832
G1 X139.496 Y316.097 E180.43706
G1 X140.009 Y315.816 E180.49099
G1 X140.487 Y315.469 E180.54545
G1 X140.914 Y315.067 E180.59952
G1 X141.289 Y314.615 E180.65367
G1 X141.604 Y314.118 E180.70792
G1 X141.854 Y313.587 E180.76203
G1 X142.037 Y313.027 E180.81635
G1 X142.146 Y312.447 E180.87076
G1 X142.183 Y311.862 E180.9248
G1 X142.146 Y311.277 E180.97884
G1 X142.037 Y310.697 E181.03325
G1 X141.854 Y310.137 E181.08757
G1 X141.604 Y309.606 E181.14168
G1 X141.289 Y309.11 E181.19585
G1 X140.915 Y308.656 E181.25008
G1 X140.484 Y308.251 E181.30461
G1 X140.004 Y307.903 E181.35927
G1 X139.488 Y307.623 E181.4134
G1 X138.947 Y307.409 E181.46704
G1 X138.376 Y307.262 E181.5214
G1 X137.791 Y307.188 E181.57577
G1 X137.205 Y307.188 E181.62979
M204 S3000
M205 X10 Y10
G0 F2700 X137.199 Y307.089
G0 X135.433 Y307.655
G0 X135.23 Y309.117
M204 S1800
M205 X8 Y8
;TYPE:WALL-OUTER
G1 F900 X134.903 Y309.424 E181.67115
G1 X134.619 Y309.769 E181.71235
G1 X134.379 Y310.147 E181.75363
G1 X134.189 Y310.551 E181.79479
G1 X134.05 Y310.976 E181.83601
G1 X133.967 Y311.416 E181.8773
G1 X133.939 Y311.861 E181.91841
G1 X133.966 Y312.305 E181.95942
G1 X134.051 Y312.748 E182.001
G1 X134.189 Y313.173 E182.0422
G1 X134.379 Y313.577 E182.08336
G1 X134.619 Y313.955 E182.12465
G1 X134.905 Y314.3 E182.16596
G1 X135.231 Y314.607 E182.20725
G1 X135.595 Y314.871 E182.2487
G1 X135.987 Y315.084 E182.28984
G1 X136.401 Y315.248 E182.33089
G1 X136.836 Y315.36 E182.37231
G1 X137.28 Y315.415 E182.41355
G1 X137.724 Y315.415 E182.45449
G1 X138.168 Y315.36 E182.49574
G1 X138.604 Y315.248 E182.53724
G1 X139.017 Y315.082 E182.57828
G1 X139.409 Y314.868 E182.61946
G1 X139.771 Y314.605 E182.66071
G1 X140.096 Y314.299 E182.70186
G1 X140.381 Y313.955 E182.74305
G1 X140.621 Y313.577 E182.78433
G1 X140.811 Y313.173 E182.82549
G1 X140.95 Y312.748 E182.86672
G1 X141.033 Y312.308 E182.908
G1 X141.061 Y311.862 E182.9492
G1 X141.033 Y311.416 E182.9904
G1 X140.95 Y310.976 E183.03169
G1 X140.811 Y310.551 E183.07291
G1 X140.621 Y310.147 E183.11407
G1 X140.381 Y309.769 E183.15536
G1 X140.096 Y309.423 E183.19668
G1 X139.769 Y309.116 E183.23804
G1 X139.406 Y308.853 E183.27937
G1 X139.013 Y308.64 E183.32058
G1 X138.599 Y308.476 E183.36163
G1 X138.165 Y308.364 E183.40296
G1 X137.721 Y308.308 E183.44422
G1 X137.275 Y308.308 E183.48534
G1 X136.831 Y308.364 E183.5266
G1 X136.396 Y308.476 E183.56801
G1 X135.982 Y308.642 E183.60914
G1 X135.592 Y308.856 E183.65015
G1 X135.23 Y309.117 E183.6913
M204 S3000
M205 X10 Y10
G0 F2700 X134.939 Y309.391
G0 X134.104 Y308.502
G0 X132.925 Y310.688
G0 X132.926 Y313.037
G0 X145.602 Y378.57
G0 X195.223 Y386.784
G0 X196.439 Y386.861
M204 S1800
M205 X8 Y8
G1 F900 X196.466 Y387.304 E183.73221
G1 X196.551 Y387.747 E183.7738
G1 X196.689 Y388.172 E183.815
G1 X196.879 Y388.577 E183.85624
G1 X197.119 Y388.955 E183.89753
G1 X197.405 Y389.301 E183.93891
G1 X197.732 Y389.608 E183.98027
G1 X198.095 Y389.871 E184.0216
G1 X198.487 Y390.084 E184.06273
G1 X198.901 Y390.248 E184.10378
G1 X199.335 Y390.36 E184.14511
G1 X199.779 Y390.416 E184.18637
G1 X200.225 Y390.416 E184.22749
G1 X200.669 Y390.36 E184.26875
G1 X201.104 Y390.248 E184.31016
G1 X201.518 Y390.082 E184.35128
G1 X201.908 Y389.868 E184.3923
G1 X202.27 Y389.606 E184.4335
G1 X202.596 Y389.3 E184.47472
G1 X202.881 Y388.955 E184.51598
G1 X203.121 Y388.577 E184.55726
G1 X203.311 Y388.172 E184.5985
G1 X203.45 Y387.746 E184.63982
G1 X203.533 Y387.307 E184.68101
G1 X203.561 Y386.862 E184.72212
G1 X203.533 Y386.416 E184.76332
G1 X203.45 Y385.976 E184.8046
G1 X203.311 Y385.551 E184.84583
G1 X203.121 Y385.147 E184.88699
G1 X202.881 Y384.77 E184.92819
G1 X202.596 Y384.422 E184.96966
G1 X202.268 Y384.115 E185.01108
G1 X201.905 Y383.852 E185.05241
G1 X201.513 Y383.64 E185.0935
G1 X201.1 Y383.475 E185.1345
G1 X200.665 Y383.363 E185.17592
G1 X200.221 Y383.307 E185.21718
G1 X199.775 Y383.307 E185.2583
G1 X199.331 Y383.363 E185.29956
G1 X198.896 Y383.475 E185.34097
G1 X198.482 Y383.642 E185.38213
G1 X198.092 Y383.855 E185.4231
G1 X197.73 Y384.117 E185.4643
G1 X197.403 Y384.423 E185.50559
G1 X197.119 Y384.77 E185.54693
G1 X196.879 Y385.147 E185.58813
G1 X196.689 Y385.551 E185.6293
G1 X196.55 Y385.976 E185.67052
G1 X196.467 Y386.416 E185.7118
G1 X196.439 Y386.861 E185.75291
M204 S3000
M205 X10 Y10
G0 F2700 X196.463 Y387.261
G0 X195.246 Y387.333
G0 X195.609 Y385.123
G0 X196.554 Y383.629
G0 X202.622 Y378.572
G0 X254.398 Y378.57
G0 X257.852 Y312.977
G0 X259.051 Y312.748
M204 S1800
M205 X8 Y8
G1 F900 X259.189 Y313.173 E185.79411
G1 X259.379 Y313.577 E185.83527
G1 X259.619 Y313.955 E185.87655
G1 X259.905 Y314.3 E185.91787
G1 X260.231 Y314.607 E185.95916
G1 X260.594 Y314.871 E186.00054
G1 X260.987 Y315.084 E186.04175
G1 X261.401 Y315.248 E186.08281
G1 X261.836 Y315.36 E186.12422
G1 X262.28 Y315.415 E186.16547
G1 X262.724 Y315.415 E186.2064
G1 X263.168 Y315.36 E186.24765
G1 X263.604 Y315.248 E186.28916
G1 X264.018 Y315.082 E186.33028
G1 X264.408 Y314.868 E186.37129
G1 X264.771 Y314.605 E186.41262
G1 X265.096 Y314.299 E186.45378
G1 X265.381 Y313.955 E186.49496
G1 X265.621 Y313.577 E186.53625
G1 X265.811 Y313.173 E186.57741
G1 X265.95 Y312.748 E186.61863
G1 X266.033 Y312.308 E186.65992
G1 X266.061 Y311.862 E186.70112
G1 X266.033 Y311.416 E186.74232
G1 X265.95 Y310.976 E186.7836
G1 X265.811 Y310.551 E186.82483
G1 X265.621 Y310.147 E186.86599
G1 X265.381 Y309.769 E186.90727
G1 X265.096 Y309.423 E186.9486
G1 X264.768 Y309.115 E186.99008
G1 X264.405 Y308.853 E187.03136
G1 X264.013 Y308.64 E187.07249
G1 X263.599 Y308.476 E187.11354
G1 X263.165 Y308.364 E187.15487
G1 X262.721 Y308.308 E187.19613
G1 X262.275 Y308.308 E187.23725
G1 X261.831 Y308.364 E187.27851
G1 X261.396 Y308.476 E187.31992
