;FLAVOR:Marlin
;TIME:900
;Filament used: 3.30335m
;Layer height: 0.5
;MINX:176.262
;MINY:177.882
;MINZ:0.2
;MAXX:215.547
;MAXY:226.152
;MAXZ:33.2
;Generated with Cura_SteamEngine 4.11.0
M140 S70
M105
M190 S70
M104 S210
M105
M109 S210
M82 ;absolute extrusion mode
M107 ;Start with the fan off
G21 ;Set units to millimeters
G91 ;Change to relative positioning mode for retract filament and nozzle lifting
G1 F200 E-3 ;Retract 3mm filament for a clean start
G92 E0 ;Zero the extruded length
G1 F1000 Z5 ;Lift the nozzle 5mm before homing axes
G90 ;Absolute positioning
M82 ;Set extruder to absolute mode too
G28 X0 Y0 ;First move X/Y to min endstops
G28 Z0 ;Then move Z to min endstops
G1 F1000 Z15 ;After homing lift the nozzle 15mm before start printing

G92 E0
G92 E0
G1 F1200 E-3
;LAYER_COUNT:67
;LAYER:0
M107
M204 S3000
M205 X10 Y10
G1 F600 Z0.275
G0 F2700 X195.168 Y182.749 Z0.275
M204 S1800
M205 X8 Y8
;TYPE:SKIRT
G1 F600 Z0.2
G1 F2700 E0
G1 F2400 X195.802 Y182.207 E0.0769
G1 X196.595 Y181.612 E0.16831
G1 X197.016 Y181.307 E0.21624
G1 X197.586 Y180.904 E0.2806
G1 X198.204 Y180.515 E0.34792
G1 X198.862 Y180.196 E0.41534
G1 X199.551 Y179.951 E0.48276
G1 X200.262 Y179.783 E0.55012
G1 X201.322 Y179.679 E0.64832
G1 X202.33 Y179.662 E0.74127
G1 X202.758 Y179.662 E0.78073
G1 X203.548 Y179.673 E0.85357
G1 X204.277 Y179.723 E0.92094
G1 X204.996 Y179.853 E0.9883
G1 X205.697 Y180.061 E1.05572
G1 X206.371 Y180.343 E1.12308
G1 X207.288 Y180.883 E1.22119
G1 X208.139 Y181.481 E1.31709
G1 X208.496 Y181.743 E1.35791
G1 X209.078 Y182.177 E1.42485
G1 X209.639 Y182.645 E1.49221
G1 X210.146 Y183.172 E1.55963
G1 X210.592 Y183.751 E1.62701
G1 X210.972 Y184.375 E1.69437
G1 X211.404 Y185.366 E1.79404
G1 X211.705 Y186.245 E1.8797
G1 X211.875 Y186.771 E1.93067
G1 X212.089 Y187.457 E1.99692
G1 X212.268 Y188.165 E2.06425
G1 X212.335 Y188.577 E2.10274
G1 X212.441 Y189.387 E2.17805
G1 X212.838 Y192.104 E2.43121
G1 X213.29 Y194.691 E2.67334
G1 X213.821 Y197.288 E2.91773
G1 X214.409 Y199.809 E3.1564
G1 X215.18 Y202.71 E3.43314
G1 X215.301 Y203.136 E3.47397
G1 X215.462 Y203.849 E3.54137
G1 X215.545 Y204.575 E3.60874
G1 X215.547 Y205.305 E3.67604
G1 X215.47 Y206.032 E3.74344
G1 X215.314 Y206.746 E3.81082
G1 X215.081 Y207.438 E3.87814
G1 X214.773 Y208.101 E3.94555
G1 X214.352 Y208.789 E4.01991
G1 X213.672 Y209.76 E4.1292
G1 X213.454 Y210.06 E4.16339
G1 X212.944 Y210.738 E4.24161
G1 X211.261 Y212.921 E4.49575
G1 X209.74 Y215.013 E4.73422
G1 X208.233 Y217.215 E4.98023
G1 X206.807 Y219.43 E5.2231
G1 X205.31 Y221.911 E5.49026
G1 X205.083 Y222.3 E5.53178
G1 X204.681 Y222.91 E5.59914
G1 X204.215 Y223.473 E5.66652
G1 X203.69 Y223.981 E5.73387
G1 X203.113 Y224.429 E5.80122
G1 X202.49 Y224.811 E5.8686
G1 X201.489 Y225.251 E5.96941
G1 X200.804 Y225.487 E6.03621
G1 X200.609 Y225.55 E6.0551
G1 X200.081 Y225.714 E6.10608
G1 X199.373 Y225.893 E6.17341
G1 X198.593 Y225.997 E6.24596
G1 X198.324 Y226.016 E6.27082
G1 X196.434 Y226.125 E6.44536
G1 X196.172 Y226.143 E6.46957
G1 X195.441 Y226.152 E6.53698
G1 X194.714 Y226.081 E6.60432
G1 X194.115 Y225.961 E6.66065
G1 X193.629 Y225.837 E6.70689
G1 X192.192 Y225.433 E6.84451
G1 X191.539 Y225.238 E6.90734
G1 X191.011 Y225.056 E6.95883
G1 X190.216 Y224.743 E7.03761
G1 X189.967 Y224.64 E7.06245
G1 X189.318 Y224.363 E7.12751
G1 X188.662 Y224.04 E7.19492
G1 X188.046 Y223.647 E7.26229
G1 X187.477 Y223.189 E7.32964
G1 X187.025 Y222.742 E7.38824
G1 X186.132 Y221.771 E7.50987
G1 X185.871 Y221.48 E7.54591
G1 X184.065 Y219.572 E7.78813
G1 X182.187 Y217.7 E8.0326
G1 X180.265 Y215.887 E8.2762
G1 X179.09 Y214.827 E8.4221
G1 X178.524 Y214.324 E8.49192
G1 X178.005 Y213.81 E8.55926
G1 X177.545 Y213.241 E8.62672
G1 X177.15 Y212.626 E8.69411
G1 X176.825 Y211.972 E8.76144
G1 X176.573 Y211.286 E8.82882
G1 X176.398 Y210.577 E8.89615
G1 X176.301 Y209.852 E8.96359
G1 X176.282 Y209.46 E8.99977
G1 X176.262 Y208.346 E9.1025
G1 X176.263 Y207.867 E9.14666
G1 X176.273 Y207.193 E9.20881
G1 X176.324 Y206.464 E9.27618
G1 X176.454 Y205.745 E9.34355
G1 X176.662 Y205.044 E9.41096
G1 X176.945 Y204.371 E9.47827
G1 X177.3 Y203.732 E9.54567
G1 X177.722 Y203.136 E9.613
G1 X178.467 Y202.341 E9.71345
G1 X178.637 Y202.187 E9.7346
G1 X180.577 Y200.378 E9.97916
G1 X182.431 Y198.549 E10.21927
G1 X184.263 Y196.638 E10.46334
G1 X186.057 Y194.655 E10.70988
G1 X187.763 Y192.659 E10.95197
G1 X189.415 Y190.616 E11.1942
G1 X191.017 Y188.509 E11.43823
G1 X192.545 Y186.382 E11.67969
G1 X193.939 Y184.325 E11.90879
G1 X194.237 Y183.872 E11.95878
G1 X194.671 Y183.285 E12.02609
G1 X195.168 Y182.749 E12.09348
M204 S3000
M205 X10 Y10
G0 F2700 X196.032 Y183.472
M204 S1800
M205 X8 Y8
G1 F2400 X196.475 Y183.102 E12.1467
G1 X197.253 Y182.518 E12.23638
G1 X197.662 Y182.221 E12.28299
G1 X198.232 Y181.818 E12.34735
G1 X198.799 Y181.467 E12.40883
G1 X199.403 Y181.185 E12.47029
G1 X200.037 Y180.979 E12.53175
G1 X200.691 Y180.849 E12.59322
G1 X201.342 Y180.799 E12.65342
G1 X202.33 Y180.782 E12.74453
G1 X202.758 Y180.782 E12.78399
G1 X203.532 Y180.793 E12.85535
G1 X204.197 Y180.842 E12.91683
G1 X204.851 Y180.971 E12.97829
G1 X205.485 Y181.177 E13.03975
G1 X206.09 Y181.457 E13.10121
G1 X206.645 Y181.8 E13.16137
G1 X207.478 Y182.386 E13.25527
G1 X207.827 Y182.641 E13.29512
G1 X208.409 Y183.075 E13.36205
G1 X208.918 Y183.505 E13.42349
G1 X209.373 Y183.992 E13.48493
G1 X209.766 Y184.531 E13.54643
G1 X210.091 Y185.113 E13.60789
G1 X210.345 Y185.729 E13.66932
G1 X210.612 Y186.508 E13.74525
G1 X210.806 Y187.104 E13.80303
G1 X211.02 Y187.79 E13.86929
G1 X211.225 Y188.723 E13.95736
G1 X211.333 Y189.549 E14.03416
G1 X211.732 Y192.281 E14.28872
G1 X212.189 Y194.896 E14.53347
G1 X212.725 Y197.52 E14.78039
G1 X213.332 Y200.119 E15.02646
G1 X214.084 Y202.95 E15.29652
G1 X214.224 Y203.442 E15.34368
G1 X214.367 Y204.093 E15.40513
G1 X214.432 Y204.757 E15.46664
G1 X214.417 Y205.423 E15.52806
G1 X214.322 Y206.083 E15.58954
G1 X214.149 Y206.727 E15.65102
G1 X213.9 Y207.345 E15.71245
G1 X213.434 Y208.148 E15.79804
G1 X212.766 Y209.102 E15.90542
G1 X212.558 Y209.387 E15.93795
G1 X212.057 Y210.054 E16.01486
G1 X210.39 Y212.217 E16.26663
G1 X208.803 Y214.4 E16.51547
G1 X207.299 Y216.597 E16.76094
G1 X205.856 Y218.837 E17.0066
G1 X204.369 Y221.302 E17.27202
G1 X204.116 Y221.736 E17.31833
G1 X203.746 Y222.291 E17.37983
G1 X203.313 Y222.797 E17.44123
G1 X202.822 Y223.248 E17.5027
G1 X202.28 Y223.637 E17.56421
G1 X201.696 Y223.958 E17.62565
G1 X201.124 Y224.192 E17.68263
G1 X200.439 Y224.428 E17.74943
G1 X200.277 Y224.481 E17.76514
G1 X199.749 Y224.645 E17.81612
G1 X199.102 Y224.804 E17.87754
G1 X198.511 Y224.88 E17.93248
G1 X198.259 Y224.898 E17.95577
G1 X196.405 Y225.005 E18.12699
G1 X196.097 Y225.026 E18.15545
G1 X195.431 Y225.03 E18.21686
G1 X194.768 Y224.955 E18.27837
G1 X194.095 Y224.802 E18.34201
G1 X193.932 Y224.759 E18.35755
G1 X192.512 Y224.36 E18.49354
G1 X191.859 Y224.165 E18.55637
G1 X191.42 Y224.013 E18.5992
G1 X190.642 Y223.707 E18.67628
G1 X190.406 Y223.61 E18.69981
G1 X189.757 Y223.333 E18.76486
G1 X189.161 Y223.035 E18.8263
G1 X188.605 Y222.668 E18.88772
G1 X188.096 Y222.236 E18.94927
G1 X187.849 Y221.984 E18.98181
G1 X186.966 Y221.024 E19.10206
G1 X186.692 Y220.718 E19.13993
G1 X184.848 Y218.771 E19.38717
G1 X182.972 Y216.901 E19.63138
G1 X181.015 Y215.055 E19.87942
G1 X179.84 Y213.996 E20.02526
G1 X179.268 Y213.487 E20.09585
G1 X178.797 Y213.015 E20.15733
G1 X178.386 Y212.49 E20.2188
G1 X178.041 Y211.92 E20.28023
G1 X177.766 Y211.312 E20.34175
G1 X177.566 Y210.676 E20.40322
G1 X177.444 Y210.021 E20.46465
G1 X177.402 Y209.438 E20.51854
G1 X177.382 Y208.346 E20.61923
G1 X177.383 Y207.884 E20.66183
G1 X177.393 Y207.21 E20.72398
G1 X177.442 Y206.545 E20.78545
G1 X177.571 Y205.891 E20.84691
G1 X177.778 Y205.257 E20.9084
G1 X178.059 Y204.652 E20.9699
G1 X178.41 Y204.086 E21.03131
G1 X178.826 Y203.565 E21.09278
G1 X179.219 Y203.171 E21.14408
G1 X179.359 Y203.044 E21.16151
G1 X181.357 Y201.181 E21.41337
G1 X183.252 Y199.311 E21.65883
G1 X185.093 Y197.39 E21.90414
G1 X186.882 Y195.414 E22.1499
G1 X188.623 Y193.377 E22.39695
G1 X190.289 Y191.315 E22.64136
G1 X191.927 Y189.163 E22.89071
G1 X193.468 Y187.017 E23.13429
G1 X194.837 Y184.997 E23.35927
G1 X195.172 Y184.488 E23.41545
G1 X195.572 Y183.955 E23.47689
G1 X196.032 Y183.472 E23.53838
M204 S3000
M205 X10 Y10
G0 F2700 X202.256 Y189.217
M204 S1800
M205 X8 Y8
G1 F2400 X202.359 Y189.142 E23.55013
G1 X202.553 Y189.142 E23.56802
G1 X202.717 Y189.261 E23.5867
G1 X202.778 Y189.448 E23.60483
G1 X202.717 Y189.635 E23.62297
G1 X202.553 Y189.754 E23.64165
G1 X202.358 Y189.753 E23.65963
G1 X202.256 Y189.217 E23.70993
M204 S3000
M205 X10 Y10
G0 F2700 X201.085 Y189.057
M204 S1800
M205 X8 Y8
G1 F2400 X201.244 Y188.568 E23.75734
G1 X201.994 Y188.022 E23.84287
G1 X202.918 Y188.022 E23.92806
G1 X203.67 Y188.569 E24.01379
G1 X203.956 Y189.448 E24.09902
G1 X203.67 Y190.327 E24.18424
G1 X202.918 Y190.874 E24.26997
G1 X201.994 Y190.874 E24.35516
G1 X201.34 Y190.398 E24.42974
G1 X201.085 Y189.057 E24.55559
M204 S3000
M205 X10 Y10
G0 F2700 X199.931 Y188.983
M204 S1800
M205 X8 Y8
G1 F2400 X200.291 Y187.877 E24.66283
G1 X201.63 Y186.902 E24.81554
G1 X203.282 Y186.902 E24.96785
G1 X204.623 Y187.878 E25.12077
G1 X205.134 Y189.448 E25.27299
G1 X204.623 Y191.018 E25.42521
G1 X203.282 Y191.994 E25.57813
G1 X201.63 Y191.994 E25.73044
G1 X200.323 Y191.042 E25.87952
G1 X199.931 Y188.983 E26.07276
M204 S3000
M205 X10 Y10
G0 F2700 X207.473 Y203.982
M204 S1800
M205 X8 Y8
G1 F2400 X208.198 Y204.979 E26.18642
G1 X207.473 Y205.976 E26.30007
G1 X206.302 Y205.594 E26.41363
G1 X206.302 Y204.364 E26.52703
G1 X207.473 Y203.982 E26.6406
M204 S3000
M205 X10 Y10
G1 F1200 E23.6406
G0 F2700 X203.911 Y208.836
G0 X200.063 Y213.155
M204 S1800
M205 X8 Y8
G1 F2700 E26.6406
G1 F2400 X200.231 Y213.385 E26.66686
G1 X199.81 Y213.964 E26.73286
G1 X198.225 Y215.007 E26.90779
G1 X197.798 Y215.103 E26.94814
G1 X197.605 Y215.187 E26.96755
G1 X197.456 Y215.336 E26.98698
G1 X197.374 Y215.53 E27.00639
G1 X197.369 Y215.741 E27.02585
G1 X197.46 Y215.967 E27.04832
G1 X198.06 Y216.837 E27.14575
G1 X198.614 Y218.589 E27.31517
G1 X198.184 Y218.729 E27.35686
G1 X197.725 Y218.426 E27.40757
G1 X197.531 Y218.345 E27.42695
G1 X197.231 Y218.365 E27.45467
G1 X195.705 Y218.901 E27.60379
G1 X193.623 Y218.315 E27.8032
G1 X192.528 Y217.867 E27.91228
G1 X192.654 Y216.441 E28.04427
G1 X193.084 Y215.887 E28.10892
G1 X193.18 Y215.7 E28.1283
G1 X193.199 Y215.49 E28.14774
G1 X193.14 Y215.288 E28.16715
G1 X192.948 Y215.075 E28.19358
G1 X190.973 Y213.786 E28.41102
G1 X190.973 Y213.271 E28.45851
G1 X191.536 Y213.088 E28.51309
G1 X193.616 Y214.113 E28.72688
G1 X194.344 Y215.543 E28.87482
G1 X194.514 Y217.358 E29.04289
G1 X194.573 Y217.561 E29.06238
G1 X194.703 Y217.727 E29.08182
G1 X194.884 Y217.834 E29.1012
G1 X195.081 Y217.866 E29.11961
G1 X196.261 Y217.848 E29.22841
G1 X196.467 Y217.805 E29.24781
G1 X196.643 Y217.689 E29.26725
G1 X196.763 Y217.516 E29.28666
G1 X196.812 Y217.311 E29.30609
G1 X196.78 Y217.103 E29.32549
G1 X196.718 Y216.977 E29.33844
G1 X195.825 Y215.642 E29.48652
G1 X196.382 Y214.378 E29.61387
G1 X198.521 Y214.101 E29.81273
G1 X198.757 Y214.014 E29.83592
G1 X200.063 Y213.155 E29.98004
M204 S3000
M205 X10 Y10
G1 F1200 E26.98004
G0 F2700 X188.304 Y209.552
G0 X184.673 Y207.311
M204 S1800
M205 X8 Y8
G1 F2700 E29.98004
G1 F2400 X185.398 Y208.308 E30.09369
G1 X184.673 Y209.305 E30.20735
G1 X183.502 Y208.923 E30.32091
G1 X183.502 Y207.693 E30.43431
G1 X184.673 Y207.311 E30.54787
M204 S3000
M205 X10 Y10
G1 F1200 E27.54787
;MESH:fan bracket mod left 20.07.2022.stl
G0 F2700 X189.944 Y207.197
G1 F2700 E30.54787
G0 X190.49 Y207.211
M204 S1800
M205 X8 Y8
;TYPE:WALL-INNER
G1 F900 X189.93 Y207.211 E30.59951
G1 X189.93 Y206.651 E30.6329
G1 X189.93 Y204.669 E30.81564
G1 X189.93 Y204.109 E30.86727
G1 X190.49 Y204.109 E30.90067
G1 X201.57 Y204.11 E31.92221
G1 X201.57 Y207.21 E32.20802
G1 X190.49 Y207.211 E33.22957
M204 S3000
M205 X10 Y10
G0 F2700 X190.49 Y207.11
G0 X190 Y204.179
G0 X188.81 Y203.549
M204 S1800
M205 X8 Y8
;TYPE:WALL-OUTER
G1 F900 X188.81 Y202.989 E33.2812
G1 X189.37 Y202.989 E33.31459
G1 X202.69 Y202.99 E34.54266
G1 X202.69 Y208.33 E35.03499
G1 X189.37 Y208.331 E36.26306
G1 X188.81 Y208.331 E36.31469
G1 X188.81 Y207.771 E36.34809
G1 X188.81 Y203.549 E36.73734
M204 S3000
M205 X10 Y10
G0 F2700 X188.81 Y203.149
G0 X190 Y204.179
G0 X191.04 Y205.219
M204 S1800
M205 X8 Y8
;TYPE:SKIN
G1 F900 X200.46 Y205.22 E37.60584
G1 X200.46 Y206.1 E37.68697
G1 X191.04 Y206.101 E38.55547
G1 X191.04 Y205.219 E38.63679
M204 S3000
M205 X10 Y10
G0 F2700 X191.05 Y205.229
G1 F1200 E35.63679
;MESH:NONMESH
G0 F600 X191.05 Y205.229 Z0.7
G0 F2700 X200.083 Y204.129
G0 X200.083 Y201.764
G0 X200.086 Y187.412
;TIME_ELAPSED:25.875134
;LAYER:1
M140 S60
M106 S255
M204 S1800
M205 X8 Y8
;TYPE:SUPPORT
G1 F2700 E38.63679
G1 F1350 X201.513 Y186.373 E38.9274
G1 X203.245 Y186.373 E39.21255
G1 X204.645 Y187.392 E39.49764
G1 X205.181 Y189.037 E39.78248
G1 X204.645 Y190.682 E40.06732
G1 X203.245 Y191.701 E40.35241
G1 X201.513 Y191.701 E40.63756
G1 X200.105 Y190.676 E40.92429
G1 X199.382 Y188.784 E41.25775
G1 X200.086 Y187.412 E41.51163
M204 S3000
M205 X10 Y10
G1 F1200 E38.51163
G0 F4950 X208.71 Y183.906
G0 X211.786 Y183.899
G0 X212.411 Y197.577
G0 X206.177 Y204.494
M204 S1800
M205 X8 Y8
G1 F2700 E41.51163
G1 F1350 X207.521 Y204.056 E41.74436
G1 X208.352 Y205.2 E41.97715
G1 X207.521 Y206.344 E42.20995
G1 X206.177 Y205.906 E42.44267
G1 X206.177 Y204.494 E42.67514
M204 S3000
M205 X10 Y10
G1 F1200 E39.67514
G0 F4950 X203.911 Y210.238
G0 X199.383 Y213.307
M204 S1800
M205 X8 Y8
G1 F2700 E42.67514
G1 F1350 X200.044 Y213.788 E42.80973
G1 X199.605 Y214.392 E42.93266
G1 X198.252 Y215.793 E43.25332
G1 X199.289 Y217.947 E43.64691
G1 X198.427 Y219.057 E43.87829
G1 X195.89 Y218.799 E44.29813
G1 X194.046 Y219.15 E44.60717
G1 X193.051 Y218.551 E44.79838
G1 X192.12 Y218.247 E44.95962
G1 X192.13 Y216.404 E45.26305
G1 X193.388 Y215.537 E45.51459
G1 X191.128 Y213.67 E45.99722
G1 X191.435 Y213.247 E46.08327
G1 X193.607 Y213.843 E46.45408
G1 X194.435 Y214.113 E46.59746
G1 X194.469 Y216.361 E46.96761
G1 X195.495 Y217.573 E47.22905
G1 X196.051 Y217.31 E47.33031
G1 X195.538 Y214.514 E47.79832
G1 X196.803 Y213.856 E48.03308
G1 X198.786 Y214.128 E48.36261
G1 X199.383 Y213.307 E48.52974
M204 S3000
M205 X10 Y10
G1 F1200 E45.52974
G0 F4950 X188.21 Y210.86
G0 X185.552 Y208.049
M204 S1800
M205 X8 Y8
G1 F2700 E48.52974
G1 F1350 X184.721 Y209.193 E48.76253
G1 X183.377 Y208.755 E48.99526
G1 X183.377 Y207.343 E49.22773
G1 X184.721 Y206.905 E49.46045
G1 X185.552 Y208.049 E49.69324
M204 S3000
M205 X10 Y10
G1 F1200 E46.69324
;MESH:fan bracket mod left 20.07.2022.stl
G0 F4950 X187.589 Y197.497
G0 X189.097 Y196.884
G0 X190.564 Y198.351
G0 X190.95 Y185.766
M204 S1800
M205 X8 Y8
;TYPE:WALL-INNER
G1 F2700 E49.69324
G1 F1650 X191.55 Y185.766 E49.79203
G1 X191.55 Y195.737 E51.43363
G1 X202.05 Y195.737 E53.16232
G1 X209.95 Y195.737 E54.46296
G1 X209.95 Y185.767 E56.1044
G1 X210.55 Y185.767 E56.20318
G1 X210.55 Y195.737 E57.43426
G1 X210.55 Y196.337 E57.53304
G1 X209.95 Y196.337 E57.63183
G1 X202.05 Y196.337 E58.6073
G1 X202.05 Y208.998 E60.69178
G1 X189.85 Y208.999 E62.70036
G1 X189.45 Y208.999 E62.76622
G1 X189.45 Y208.599 E62.80882
G1 X189.45 Y198.737 E64.43247
G1 X190.95 Y198.737 E64.67943
G1 X190.95 Y195.737 E65.17334
G1 X190.95 Y185.766 E66.40454
M204 S3000
M205 X10 Y10
G0 F4950 X190.15 Y184.993
M204 S1800
M205 X8 Y8
;TYPE:WALL-OUTER
G1 F1650 X190.15 Y184.957 E66.41047
G1 X190.877 Y184.966 E66.53017
G1 X190.913 Y184.966 E66.53591
G1 X192.35 Y184.967 E66.7725
G1 X192.35 Y194.937 E68.41393
G1 X209.15 Y194.937 E71.17985
G1 X209.15 Y184.967 E72.82128
G1 X210.62 Y184.967 E73.0633
G1 X211.35 Y184.963 E73.18349
G1 X211.35 Y197.137 E75.18779
G1 X202.85 Y197.137 E76.58721
G1 X202.85 Y209.798 E78.67168
G1 X189.05 Y209.799 E80.94368
G1 X188.65 Y209.799 E81.00954
G1 X188.65 Y209.399 E81.05214
G1 X188.65 Y197.937 E82.93922
G1 X190.15 Y197.937 E83.18617
G1 X190.15 Y184.993 E85.31724
M204 S3000
M205 X10 Y10
G0 F4950 X190.15 Y184.957
G0 X190.514 Y184.961
G0 X190.366 Y185.059
G0 X191.74 Y196.527
M204 S1800
M205 X8 Y8
;TYPE:SKIN
