;FLAVOR:Marlin
;TIME:754
;Filament used: 0.525622m
;Layer height: 0.2
;MINX:188.342
;MINY:165.848
;MINZ:0.2
;MAXX:211.658
;MAXY:234.173
;MAXZ:8
;Generated with Cura_SteamEngine 4.11.0
M140 S60
M105
M190 S60
M104 S200
M105
M109 S200
M82 ;absolute extrusion mode
M107 ;Start with the fan off
G21 ;Set units to millimeters
G91 ;Change to relative positioning mode for retract filament and nozzle lifting
G1 F200 E-3 ;Retract 3mm filament for a clean start
G92 E0 ;Zero the extruded length
G1 F1000 Z5 ;Lift the nozzle 5mm before homing axes
G90 ;Absolute positioning
M82 ;Set extruder to absolute mode too
G28 X0 Y0 ;First move X/Y to min endstops
G28 Z0 ;Then move Z to min endstops
G1 F1000 Z15 ;After homing lift the nozzle 15mm before start printing

G92 E0
G92 E0
G1 F2400 E-6
;LAYER_COUNT:40
;LAYER:0
M106 S255
M204 S3000
M205 X10 Y10
G1 F600 Z0.275
G0 F3000 X191.428 Y169.47 Z0.275
M204 S1800
M205 X8 Y8
;TYPE:SKIRT
G1 F600 Z0.2
G1 F2400 E0
G1 X191.911 Y168.942 E0.03332
G1 X192.45 Y168.472 E0.06662
G1 X193.114 Y168.018 E0.10408
G1 X193.667 Y167.7 E0.13378
G1 X194.373 Y167.309 E0.17136
G1 X195.064 Y166.939 E0.20786
G1 X195.712 Y166.636 E0.24117
G1 X196.39 Y166.408 E0.27447
G1 X197.023 Y166.263 E0.30471
G1 X197.411 Y166.189 E0.32311
G1 X198.341 Y166.027 E0.36706
G1 X198.996 Y165.922 E0.39795
G1 X199.707 Y165.848 E0.43124
G1 X200.423 Y165.854 E0.46458
G1 X200.999 Y165.918 E0.49156
G1 X202.024 Y166.08 E0.53988
G1 X202.49 Y166.162 E0.56192
G1 X203.163 Y166.29 E0.59382
G1 X203.857 Y166.462 E0.62711
G1 X204.527 Y166.711 E0.66039
G1 X205.083 Y166.982 E0.68919
G1 X205.413 Y167.158 E0.70661
G1 X206.261 Y167.626 E0.75171
G1 X206.848 Y167.961 E0.78318
G1 X207.449 Y168.35 E0.81652
G1 X208.002 Y168.803 E0.8498
G1 X208.501 Y169.316 E0.88313
G1 X208.94 Y169.88 E0.91641
G1 X209.314 Y170.49 E0.94973
G1 X209.616 Y171.138 E0.98301
G1 X209.845 Y171.816 E1.01634
G1 X209.997 Y172.515 E1.04965
G1 X210.073 Y173.316 E1.08711
G1 X210.086 Y173.919 E1.1152
G1 X210.086 Y204.612 E2.54439
G1 X210.124 Y207.254 E2.66743
G1 X210.236 Y209.894 E2.79047
G1 X210.423 Y212.539 E2.91394
G1 X210.687 Y215.196 E3.03827
G1 X211.018 Y217.782 E3.15966
G1 X211.466 Y220.624 E3.29363
G1 X211.555 Y221.138 E3.31792
G1 X211.645 Y222.025 E3.35944
G1 X211.658 Y222.544 E3.38361
G1 X211.658 Y227.116 E3.5965
G1 X211.649 Y227.843 E3.63036
G1 X211.6 Y228.557 E3.66368
G1 X211.472 Y229.261 E3.697
G1 X211.266 Y229.946 E3.73031
G1 X210.985 Y230.603 E3.76358
G1 X210.632 Y231.226 E3.79693
G1 X210.212 Y231.805 E3.83023
G1 X209.73 Y232.333 E3.86352
G1 X209.193 Y232.805 E3.89681
G1 X208.605 Y233.213 E3.93014
G1 X207.976 Y233.554 E3.96345
G1 X207.313 Y233.822 E3.99675
G1 X206.624 Y234.014 E4.03006
G1 X205.918 Y234.129 E4.06337
G1 X205.107 Y234.17 E4.10118
G1 X204.928 Y234.173 E4.10951
G1 X203.629 Y234.172 E4.17
G1 X201.732 Y234.145 E4.25834
G1 X201.255 Y234.131 E4.28056
G1 X198.602 Y234.131 E4.4041
G1 X196.658 Y234.173 E4.49464
G1 X195.357 Y234.172 E4.55522
G1 X194.659 Y234.162 E4.58773
G1 X193.946 Y234.112 E4.62101
G1 X193.242 Y233.983 E4.65433
G1 X192.558 Y233.775 E4.68762
G1 X191.901 Y233.493 E4.72092
G1 X191.279 Y233.139 E4.75424
G1 X190.701 Y232.718 E4.78754
G1 X190.173 Y232.235 E4.82086
G1 X189.703 Y231.697 E4.85412
G1 X189.295 Y231.109 E4.88745
G1 X188.956 Y230.479 E4.92076
G1 X188.689 Y229.816 E4.95404
G1 X188.498 Y229.126 E4.98738
G1 X188.385 Y228.42 E5.02067
G1 X188.344 Y227.604 E5.05872
G1 X188.342 Y227.431 E5.06677
G1 X188.343 Y222.835 E5.28078
G1 X188.354 Y222.125 E5.31385
G1 X188.431 Y221.228 E5.35577
G1 X188.493 Y220.835 E5.37429
G1 X188.846 Y218.772 E5.47175
G1 X189.218 Y216.159 E5.59465
G1 X189.516 Y213.536 E5.71758
G1 X189.738 Y210.909 E5.84034
G1 X189.887 Y208.281 E5.9629
G1 X189.974 Y204.2 E6.15297
G1 X189.975 Y174.131 E7.55311
G1 X189.985 Y173.429 E7.5858
G1 X190.035 Y172.715 E7.61913
G1 X190.164 Y172.012 E7.65241
G1 X190.371 Y171.327 E7.68573
G1 X190.654 Y170.67 E7.71904
G1 X191.007 Y170.048 E7.75235
G1 X191.428 Y169.47 E7.78564
M204 S3000
M205 X10 Y10
G0 F3000 X191.98 Y169.684
M204 S1800
M205 X8 Y8
G1 F2400 X192.458 Y169.196 E7.81745
G1 X192.99 Y168.767 E7.84927
G1 X193.575 Y168.396 E7.88153
G1 X193.983 Y168.165 E7.90336
G1 X194.707 Y167.765 E7.94188
G1 X195.328 Y167.432 E7.97469
G1 X195.948 Y167.145 E8.0065
G1 X196.886 Y166.864 E8.0521
G1 X197.426 Y166.755 E8.07775
G1 X198.347 Y166.593 E8.12129
G1 X199.085 Y166.475 E8.15609
G1 X199.764 Y166.406 E8.18787
G1 X200.448 Y166.417 E8.21973
G1 X200.913 Y166.471 E8.24153
G1 X201.927 Y166.631 E8.28933
G1 X202.385 Y166.712 E8.31098
G1 X203.058 Y166.84 E8.34288
G1 X203.721 Y167.007 E8.37472
G1 X204.618 Y167.374 E8.41985
G1 X205.089 Y167.619 E8.44457
G1 X205.984 Y168.113 E8.49217
G1 X206.571 Y168.448 E8.52364
G1 X207.143 Y168.821 E8.55544
G1 X207.668 Y169.258 E8.58725
G1 X208.139 Y169.753 E8.61906
G1 X208.548 Y170.3 E8.65087
G1 X208.891 Y170.891 E8.68268
G1 X209.162 Y171.518 E8.71449
G1 X209.358 Y172.173 E8.74633
G1 X209.477 Y172.846 E8.77815
G1 X209.52 Y173.552 E8.81109
G1 X209.526 Y173.925 E8.82846
G1 X209.526 Y204.612 E10.25737
G1 X209.563 Y207.251 E10.38027
G1 X209.678 Y209.958 E10.50643
G1 X209.863 Y212.561 E10.62794
G1 X210.13 Y215.253 E10.75391
G1 X210.465 Y217.871 E10.87681
G1 X210.917 Y220.737 E11.01191
G1 X211.003 Y221.233 E11.03535
G1 X211.085 Y222.042 E11.07321
G1 X211.098 Y222.544 E11.0966
G1 X211.098 Y227.109 E11.30916
G1 X211.089 Y227.836 E11.34302
G1 X211.04 Y228.518 E11.37485
G1 X210.912 Y229.189 E11.40666
G1 X210.707 Y229.841 E11.43849
G1 X210.427 Y230.464 E11.47029
G1 X210.077 Y231.05 E11.50208
G1 X209.66 Y231.592 E11.53392
G1 X209.183 Y232.081 E11.56573
G1 X208.652 Y232.51 E11.59751
G1 X208.074 Y232.875 E11.62935
G1 X207.458 Y233.17 E11.66115
G1 X206.811 Y233.391 E11.69298
G1 X206.143 Y233.535 E11.7248
G1 X205.413 Y233.602 E11.75894
G1 X204.928 Y233.613 E11.78153
G1 X203.637 Y233.612 E11.84164
G1 X201.749 Y233.585 E11.92956
G1 X201.272 Y233.571 E11.95179
G1 X198.59 Y233.571 E12.07667
G1 X197.088 Y233.602 E12.14663
G1 X196.658 Y233.613 E12.16665
G1 X195.365 Y233.612 E12.22686
G1 X194.667 Y233.602 E12.25937
G1 X193.986 Y233.553 E12.29116
G1 X193.315 Y233.424 E12.32298
G1 X192.664 Y233.217 E12.35478
G1 X192.041 Y232.936 E12.38661
G1 X191.455 Y232.584 E12.41844
G1 X190.915 Y232.166 E12.45024
G1 X190.427 Y231.688 E12.48205
G1 X189.998 Y231.156 E12.51387
G1 X189.634 Y230.578 E12.54567
G1 X189.34 Y229.961 E12.5775
G1 X189.121 Y229.314 E12.60931
G1 X188.978 Y228.646 E12.64112
G1 X188.913 Y227.921 E12.67501
G1 X188.902 Y227.431 E12.69783
G1 X188.903 Y222.844 E12.91142
G1 X188.914 Y222.134 E12.94449
G1 X188.984 Y221.315 E12.98276
G1 X189.045 Y220.929 E13.00096
G1 X189.397 Y218.871 E13.09818
G1 X189.773 Y216.231 E13.22235
G1 X190.074 Y213.577 E13.34672
G1 X190.297 Y210.951 E13.46944
G1 X190.447 Y208.296 E13.59327
G1 X190.534 Y204.212 E13.78348
G1 X190.535 Y174.139 E15.1838
G1 X190.545 Y173.437 E15.21649
G1 X190.594 Y172.755 E15.24833
G1 X190.723 Y172.084 E15.28015
G1 X190.93 Y171.433 E15.31196
G1 X191.211 Y170.81 E15.34378
G1 X191.563 Y170.225 E15.37557
G1 X191.98 Y169.684 E15.40738
M204 S3000
M205 X10 Y10
G0 F3000 X192.117 Y170.41
M204 S1800
M205 X8 Y8
G1 F2400 X192.531 Y169.91 E15.43761
G1 X193.004 Y169.464 E15.46788
G1 X193.687 Y168.981 E15.50683
G1 X194.217 Y168.676 E15.5353
G1 X194.972 Y168.259 E15.57547
G1 X195.593 Y167.926 E15.60828
G1 X196.183 Y167.655 E15.63851
G1 X197.001 Y167.412 E15.67824
G1 X197.53 Y167.305 E15.70337
G1 X198.518 Y167.133 E15.75007
G1 X199.173 Y167.028 E15.78096
G1 X199.82 Y166.964 E15.81124
G1 X200.469 Y166.981 E15.84147
G1 X200.826 Y167.025 E15.85821
G1 X201.831 Y167.183 E15.90559
G1 X202.281 Y167.262 E15.92686
G1 X202.954 Y167.39 E15.95876
G1 X203.583 Y167.55 E15.98898
G1 X204.364 Y167.872 E16.02832
G1 X204.823 Y168.112 E16.05244
G1 X205.706 Y168.599 E16.09939
G1 X206.293 Y168.934 E16.13086
G1 X206.836 Y169.29 E16.1611
G1 X207.332 Y169.71 E16.19136
G1 X207.772 Y170.188 E16.22161
G1 X208.15 Y170.716 E16.25185
G1 X208.461 Y171.287 E16.28213
G1 X208.699 Y171.892 E16.3124
G1 X208.861 Y172.521 E16.34264
G1 X208.953 Y173.351 E16.38153
G1 X208.966 Y173.932 E16.40859
G1 X208.966 Y204.612 E17.83718
G1 X209.004 Y207.283 E17.96156
G1 X209.117 Y209.949 E18.08581
G1 X209.309 Y212.656 E18.21218
G1 X209.572 Y215.309 E18.33632
G1 X209.911 Y217.96 E18.46077
G1 X210.353 Y220.76 E18.59276
G1 X210.451 Y221.328 E18.6196
G1 X210.525 Y222.06 E18.65386
G1 X210.538 Y222.544 E18.67641
G1 X210.538 Y227.102 E18.88864
G1 X210.529 Y227.829 E18.9225
G1 X210.481 Y228.477 E18.95276
G1 X210.353 Y229.114 E18.98301
G1 X210.149 Y229.731 E19.01327
G1 X209.87 Y230.318 E19.04353
G1 X209.522 Y230.866 E19.07376
G1 X209.109 Y231.367 E19.10399
G1 X208.637 Y231.814 E19.13426
G1 X208.114 Y232.199 E19.1645
G1 X207.548 Y232.517 E19.19473
G1 X206.946 Y232.764 E19.22503
G1 X206.32 Y232.934 E19.25524
G1 X205.397 Y233.042 E19.29851
G1 X204.928 Y233.053 E19.32036
G1 X203.645 Y233.052 E19.3801
G1 X201.765 Y233.026 E19.46765
G1 X201.254 Y233.011 E19.49145
G1 X198.578 Y233.011 E19.61606
G1 X197.109 Y233.042 E19.68447
G1 X196.658 Y233.053 E19.70548
G1 X195.373 Y233.052 E19.76532
G1 X194.675 Y233.042 E19.79782
G1 X194.028 Y232.993 E19.82803
G1 X193.391 Y232.865 E19.85829
G1 X192.775 Y232.659 E19.88853
G1 X192.188 Y232.379 E19.91882
G1 X191.641 Y232.03 E19.94903
G1 X191.14 Y231.616 E19.97929
G1 X190.695 Y231.143 E20.00953
G1 X190.31 Y230.619 E20.03981
G1 X189.993 Y230.052 E20.07006
G1 X189.748 Y229.451 E20.10028
G1 X189.579 Y228.824 E20.13052
G1 X189.473 Y227.906 E20.17355
G1 X189.462 Y227.431 E20.19567
G1 X189.463 Y222.852 E20.40889
G1 X189.474 Y222.142 E20.44195
G1 X189.537 Y221.402 E20.47654
G1 X189.597 Y221.024 E20.49436
G1 X189.953 Y218.94 E20.5928
G1 X190.329 Y216.3 E20.71697
G1 X190.63 Y213.653 E20.84102
G1 X190.855 Y210.998 E20.96509
G1 X191.007 Y208.311 E21.09041
G1 X191.094 Y204.224 E21.28076
G1 X191.095 Y174.147 E22.68127
G1 X191.105 Y173.445 E22.71397
G1 X191.154 Y172.797 E22.74423
G1 X191.282 Y172.16 E22.77448
G1 X191.488 Y171.544 E22.80472
G1 X191.767 Y170.958 E22.83495
G1 X192.117 Y170.41 E22.86522
M204 S3000
M205 X10 Y10
G1 F2400 E16.86522
;MESH:jst puller size 2.stl
G0 F3000 X196.495 Y172.689
G0 X197.231 Y174.02
G0 X202.809 Y220.531
G0 X203.858 Y223.987
M204 S1800
M205 X8 Y8
;TYPE:WALL-INNER
G1 F2400 E22.86522
G1 F1500 X196.142 Y223.987 E23.22451
G1 X196.142 Y222.726 E23.28323
G1 X197.774 Y220.725 E23.40347
G1 X197.774 Y180.414 E25.28051
G1 X197.774 Y179.806 E25.30883
G1 X197.774 Y179.691 E25.31418
G1 X197.84 Y179.806 E25.31509
G1 X198.263 Y180.242 E25.33181
G1 X198.417 Y180.4 E25.34208
G1 X199.163 Y180.815 E25.38183
G1 X200.021 Y180.967 E25.42241
G1 X200.879 Y180.821 E25.46293
G1 X201.63 Y180.412 E25.50275
G1 X201.796 Y180.243 E25.51378
G1 X202.211 Y179.82 E25.54138
G1 X202.286 Y179.691 E25.54832
G1 X202.286 Y179.82 E25.54851
G1 X202.286 Y180.413 E25.56506
G1 X202.286 Y220.712 E27.44155
G1 X203.858 Y222.71 E27.55993
G1 X203.858 Y223.987 E27.61939
M204 S3000
M205 X10 Y10
G0 F3000 X202.809 Y220.531
G0 X202.414 Y177.555
G0 X202.222 Y175.289
M204 S1800
M205 X8 Y8
G1 F1500 X201.796 Y174.851 E27.64784
G1 X201.644 Y174.694 E27.65802
G1 X201.13 Y174.408 E27.68541
G1 X200.9 Y174.28 E27.69767
G1 X200.039 Y174.125 E27.7384
G1 X199.178 Y174.274 E27.77909
G1 X198.932 Y174.409 E27.79216
G1 X198.429 Y174.684 E27.81885
G1 X198.265 Y174.852 E27.82978
G1 X197.851 Y175.274 E27.85731
G1 X197.774 Y175.406 E27.86443
G1 X197.774 Y175.274 E27.86461
G1 X197.774 Y174.683 E27.88114
G1 X197.774 Y174.341 E27.89707
G1 X198.558 Y173.908 E27.93877
G1 X198.82 Y173.862 E27.95116
G1 X199.096 Y173.814 E27.96314
G1 X199.957 Y173.662 E27.99721
G1 X200.03 Y173.649 E28.00066
G1 X200.119 Y173.664 E28.00453
G1 X200.981 Y173.816 E28.03868
G1 X201.241 Y173.861 E28.05
G1 X201.502 Y173.908 E28.06235
G1 X202.286 Y174.341 E28.10405
G1 X202.286 Y174.678 E28.11974
G1 X202.286 Y175.289 E28.13652
G1 X202.286 Y175.401 E28.14174
G1 X202.222 Y175.289 E28.14261
M204 S3000
M205 X10 Y10
G0 F3000 X202.414 Y177.555
G0 X202.809 Y220.531
G0 X204.348 Y224.477
G0 X204.418 Y224.547
M204 S1800
M205 X8 Y8
G1 F1500 X195.582 Y224.547 E28.55405
G1 X195.582 Y222.527 E28.64811
G1 X197.214 Y220.526 E28.76835
G1 X197.214 Y178.297 E30.73471
G1 X197.214 Y178.225 E30.73806
G1 X197.214 Y177.54 E30.76996
G1 X197.214 Y176.855 E30.80185
G1 X197.214 Y176.79 E30.80488
G1 X197.214 Y174.01 E30.93433
G1 X198.37 Y173.372 E30.99581
G1 X200.03 Y173.08 E31.07429
G1 X201.69 Y173.372 E31.15278
G1 X202.846 Y174.01 E31.21426
G1 X202.846 Y176.797 E31.34403
G1 X202.846 Y176.869 E31.34739
G1 X202.846 Y177.555 E31.37933
G1 X202.846 Y178.239 E31.41118
G1 X202.846 Y178.304 E31.41421
G1 X202.846 Y220.518 E33.37987
G1 X204.418 Y222.517 E33.49828
G1 X204.418 Y224.547 E33.59281
M204 S3000
M205 X10 Y10
G0 F3000 X204.348 Y224.477
G0 X202.809 Y220.531
G0 X200.023 Y180.499
G0 X200.023 Y180.399
M204 S1800
M205 X8 Y8
G1 F1500 X200.693 Y180.285 E33.62445
G1 X201.289 Y179.96 E33.65606
G1 X201.762 Y179.478 E33.68751
G1 X202.101 Y178.892 E33.71903
G1 X202.287 Y178.301 E33.74788
G1 X202.306 Y178.239 E33.75085
G1 X202.374 Y177.555 E33.77978
G1 X202.308 Y176.869 E33.80873
G1 X202.287 Y176.801 E33.81198
G1 X202.106 Y176.216 E33.84049
G1 X201.771 Y175.628 E33.87201
G1 X201.3 Y175.143 E33.90349
G1 X200.709 Y174.815 E33.93496
G1 X200.037 Y174.694 E33.96675
G1 X199.365 Y174.81 E33.99851
G1 X198.771 Y175.135 E34.03004
G1 X198.3 Y175.616 E34.06138
G1 X197.959 Y176.2 E34.09287
G1 X197.773 Y176.793 E34.12181
G1 X197.754 Y176.855 E34.12478
G1 X197.686 Y177.54 E34.15375
G1 X197.752 Y178.225 E34.18266
G1 X197.773 Y178.293 E34.18591
G1 X197.954 Y178.878 E34.21442
G1 X198.291 Y179.467 E34.24602
G1 X198.761 Y179.951 E34.27744
G1 X199.353 Y180.28 E34.30897
G1 X200.023 Y180.399 E34.34066
M204 S3000
M205 X10 Y10
G0 F3000 X200.023 Y180.499
G0 X197.251 Y220.539
G0 X196.094 Y224.447
G0 X196.094 Y226.663
M204 S1800
M205 X8 Y8
;TYPE:WALL-OUTER
G1 F1500 X196.712 Y226.663 E34.36944
G1 X196.712 Y227.493 E34.40808
G1 X195.022 Y227.493 E34.48678
G1 X195.022 Y222.327 E34.72733
G1 X196.654 Y220.327 E34.84753
G1 X196.654 Y173.68 E37.01961
G1 X198.182 Y172.836 E37.10089
G1 X200.03 Y172.511 E37.18826
G1 X201.878 Y172.836 E37.27563
G1 X203.406 Y173.68 E37.35691
G1 X203.406 Y220.324 E39.52885
G1 X204.978 Y222.324 E39.64731
G1 X204.978 Y227.493 E39.888
G1 X203.291 Y227.493 E39.96655
G1 X203.291 Y226.663 E40.0052
G1 X203.966 Y226.663 E40.03663
G1 X203.966 Y225.107 E40.10908
G1 X196.094 Y225.107 E40.47564
G1 X196.094 Y226.663 E40.54809
M204 S3000
M205 X10 Y10
G0 F3000 X196.294 Y226.663
G0 X196.294 Y224.447
G0 X197.251 Y220.539
G0 X199.91 Y180.479
G0 X200.025 Y179.831
M204 S1800
M205 X8 Y8
G1 F1500 X200.507 Y179.749 E40.57086
G1 X200.948 Y179.508 E40.59426
G1 X201.313 Y179.136 E40.61853
G1 X201.585 Y178.665 E40.64385
G1 X201.754 Y178.126 E40.67016
G1 X201.811 Y177.554 E40.69692
G1 X201.756 Y176.98 E40.72377
G1 X201.589 Y176.44 E40.75009
G1 X201.32 Y175.967 E40.77543
G1 X200.956 Y175.593 E40.79973
G1 X200.518 Y175.35 E40.82305
G1 X200.035 Y175.263 E40.84591
G1 X199.552 Y175.346 E40.86873
G1 X199.113 Y175.586 E40.89202
G1 X198.749 Y175.958 E40.91626
G1 X198.475 Y176.428 E40.94159
G1 X198.306 Y176.968 E40.96794
G1 X198.249 Y177.541 E40.99475
G1 X198.304 Y178.114 E41.02156
G1 X198.471 Y178.654 E41.04788
G1 X198.742 Y179.128 E41.0733
G1 X199.105 Y179.502 E41.09757
G1 X199.543 Y179.745 E41.12089
G1 X200.025 Y179.831 E41.14369
M204 S3000
M205 X10 Y10
G0 F3000 X200.222 Y179.798
G0 X200.331 Y180.448
G0 X200.019 Y181.525
M204 S1800
M205 X8 Y8
;TYPE:SKIN
G1 F1500 X201.062 Y181.348 E41.19295
G1 X201.736 Y180.981 E41.22869
G1 X201.736 Y220.902 E43.08758
G1 X203.308 Y222.9 E43.20595
G1 X203.308 Y223.437 E43.23096
G1 X196.692 Y223.437 E43.53903
G1 X196.692 Y222.922 E43.56301
G1 X198.324 Y220.921 E43.68324
G1 X198.324 Y180.978 E45.54316
G1 X198.976 Y181.341 E45.57791
G1 X200.019 Y181.525 E45.62722
M204 S3000
M205 X10 Y10
G0 F3000 X201.308 Y181.509
M204 S1800
M205 X8 Y8
G1 F1500 X201.475 Y181.676 E45.63822
M204 S3000
M205 X10 Y10
G0 F3000 X201.475 Y182.468
M204 S1800
M205 X8 Y8
G1 F1500 X200.682 Y181.675 E45.69044
M204 S3000
M205 X10 Y10
G0 F3000 X200 Y181.785
M204 S1800
