;FLAVOR:Marlin
;TIME:5909
;Filament used: 4.49875m
;Layer height: 0.2
;MINX:161.103
;MINY:164.426
;MINZ:0.2
;MAXX:254.901
;MAXY:249.31
;MAXZ:8
;Generated with Cura_SteamEngine 4.11.0
M140 S60
M105
M190 S60
M104 S200
M105
M109 S200
M82 ;absolute extrusion mode
M107 ;Start with the fan off
G21 ;Set units to millimeters
G91 ;Change to relative positioning mode for retract filament and nozzle lifting
G1 F200 E-3 ;Retract 3mm filament for a clean start
G92 E0 ;Zero the extruded length
G1 F1000 Z5 ;Lift the nozzle 5mm before homing axes
G90 ;Absolute positioning
M82 ;Set extruder to absolute mode too
G28 X0 Y0 ;First move X/Y to min endstops
G28 Z0 ;Then move Z to min endstops
G1 F1000 Z15 ;After homing lift the nozzle 15mm before start printing

G92 E0
G92 E0
G1 F2400 E-6
;LAYER_COUNT:40
;LAYER:0
M106 S255
M204 S3000
M205 X10 Y10
G1 F600 Z0.275
G0 F3000 X163.044 Y166.254 Z0.275
M204 S1800
M205 X8 Y8
;TYPE:SKIRT
G1 F600 Z0.2
G1 F2400 E0
G1 X163.583 Y165.784 E0.0333
G1 X164.171 Y165.377 E0.0666
G1 X164.801 Y165.038 E0.09991
G1 X165.465 Y164.772 E0.13322
G1 X166.154 Y164.581 E0.16651
G1 X166.86 Y164.468 E0.1998
G1 X167.653 Y164.429 E0.23677
G1 X167.833 Y164.426 E0.24516
G1 X171.081 Y164.427 E0.3964
G1 X171.787 Y164.437 E0.42927
G1 X171.97 Y164.442 E0.4378
G1 X173.45 Y164.506 E0.50678
G1 X176.182 Y164.58 E0.63404
G1 X178.788 Y164.577 E0.75539
G1 X182.054 Y164.459 E0.90756
G1 X183.075 Y164.429 E0.95513
G1 X183.263 Y164.426 E0.96388
G1 X186.525 Y164.427 E1.11577
G1 X187.235 Y164.438 E1.14884
G1 X188.126 Y164.514 E1.19048
G1 X188.862 Y164.629 E1.22516
G1 X191.526 Y165.009 E1.35047
G1 X194.153 Y165.308 E1.47358
G1 X196.801 Y165.534 E1.59733
G1 X199.464 Y165.685 E1.72153
G1 X202.073 Y165.76 E1.84307
G1 X204.715 Y165.76 E1.96609
G1 X207.394 Y165.685 E2.09088
G1 X210.031 Y165.537 E2.21387
G1 X212.672 Y165.313 E2.33728
G1 X213.523 Y165.223 E2.37713
G1 X214.094 Y165.185 E2.40378
G1 X214.593 Y165.173 E2.42702
G1 X215.892 Y165.174 E2.48751
G1 X217.789 Y165.201 E2.57585
G1 X218.266 Y165.215 E2.59807
G1 X220.919 Y165.215 E2.7216
G1 X222.863 Y165.173 E2.81215
G1 X224.163 Y165.174 E2.87268
G1 X224.865 Y165.184 E2.90537
G1 X225.886 Y165.28 E2.95312
G1 X226.174 Y165.336 E2.96678
G1 X226.75 Y165.46 E2.99422
G1 X229.401 Y165.992 E3.12012
G1 X231.977 Y166.433 E3.24182
G1 X234.639 Y166.81 E3.36701
G1 X237.269 Y167.109 E3.49026
G1 X239.228 Y167.281 E3.58183
G1 X240.916 Y167.413 E3.66067
G1 X241.625 Y167.478 E3.69382
G1 X242.302 Y167.576 E3.72568
G1 X243.029 Y167.737 E3.76035
G1 X245.783 Y168.408 E3.89234
G1 X246.522 Y168.598 E3.92787
G1 X247.203 Y168.814 E3.96113
G1 X247.857 Y169.105 E3.99447
G1 X248.473 Y169.468 E4.02776
G1 X249.046 Y169.897 E4.06109
G1 X249.567 Y170.387 E4.09439
G1 X250.03 Y170.932 E4.12769
G1 X250.429 Y171.525 E4.16097
G1 X250.76 Y172.159 E4.19428
G1 X251.017 Y172.827 E4.2276
G1 X251.199 Y173.518 E4.26088
G1 X251.303 Y174.226 E4.2942
G1 X251.327 Y174.699 E4.31625
G1 X251.339 Y175.524 E4.35467
G1 X251.339 Y197.051 E5.35706
G1 X251.377 Y199.695 E5.48019
G1 X251.489 Y202.333 E5.60313
G1 X251.676 Y204.979 E5.72665
G1 X251.94 Y207.634 E5.85089
G1 X252.274 Y210.245 E5.97346
G1 X252.684 Y212.857 E6.09657
G1 X253.164 Y215.439 E6.21886
G1 X253.726 Y218.051 E6.34327
G1 X254.37 Y220.672 E6.46895
G1 X254.675 Y221.85 E6.52561
G1 X254.815 Y222.551 E6.55889
G1 X254.878 Y223.323 E6.59496
G1 X254.9 Y224.399 E6.64507
G1 X254.901 Y228.311 E6.82723
G1 X254.89 Y229.127 E6.86523
G1 X254.841 Y229.84 E6.89851
G1 X254.712 Y230.544 E6.93184
G1 X254.505 Y231.229 E6.96516
G1 X254.223 Y231.886 E6.99845
G1 X253.869 Y232.508 E7.03178
G1 X253.449 Y233.086 E7.06504
G1 X252.966 Y233.614 E7.09837
G1 X252.428 Y234.085 E7.13166
G1 X251.84 Y234.493 E7.16499
G1 X251.211 Y234.832 E7.19826
G1 X250.632 Y235.07 E7.22741
G1 X249.638 Y235.423 E7.27652
G1 X247.082 Y236.369 E7.40343
G1 X244.643 Y237.351 E7.52586
G1 X242.196 Y238.418 E7.65017
G1 X239.819 Y239.535 E7.77246
G1 X237.421 Y240.746 E7.89755
G1 X235.121 Y241.99 E8.01931
G1 X232.834 Y243.311 E8.14229
G1 X230.578 Y244.701 E8.26568
G1 X228.76 Y245.899 E8.36706
G1 X228.299 Y246.194 E8.39255
G1 X227.676 Y246.545 E8.42584
G1 X227.017 Y246.825 E8.45918
G1 X226.332 Y247.029 E8.49246
G1 X225.628 Y247.155 E8.52577
G1 X225.112 Y247.198 E8.54988
G1 X224.424 Y247.215 E8.58192
G1 X196.476 Y247.215 E9.8833
G1 X193.814 Y247.253 E10.00727
G1 X191.174 Y247.365 E10.13031
G1 X188.529 Y247.552 E10.25377
G1 X185.872 Y247.816 E10.37811
G1 X183.257 Y248.15 E10.50086
G1 X180.668 Y248.557 E10.62289
G1 X177.776 Y249.098 E10.75989
G1 X177.402 Y249.173 E10.77766
G1 X176.351 Y249.295 E10.82692
G1 X175.807 Y249.31 E10.85226
G1 X171.216 Y249.309 E11.06604
G1 X170.518 Y249.3 E11.09855
G1 X169.805 Y249.251 E11.13182
G1 X169.101 Y249.123 E11.16514
G1 X168.416 Y248.917 E11.19845
G1 X167.759 Y248.635 E11.23174
G1 X167.137 Y248.282 E11.26504
G1 X166.558 Y247.862 E11.29835
G1 X166.029 Y247.38 E11.33167
G1 X165.558 Y246.842 E11.36497
G1 X165.15 Y246.255 E11.39826
G1 X164.81 Y245.625 E11.43159
G1 X164.542 Y244.962 E11.46489
G1 X164.35 Y244.273 E11.4982
G1 X164.236 Y243.567 E11.5315
G1 X164.194 Y242.741 E11.57001
G1 X164.192 Y242.568 E11.57806
G1 X164.193 Y240.509 E11.67394
G1 X164.209 Y239.42 E11.72465
G1 X164.269 Y237.338 E11.82164
G1 X164.269 Y234.678 E11.9455
G1 X164.237 Y233.177 E12.01541
G1 X164.195 Y231.735 E12.08258
G1 X164.192 Y231.547 E12.09134
G1 X164.192 Y230.463 E12.14181
G1 X164.155 Y227.834 E12.26424
G1 X164.067 Y225.68 E12.36463
G1 X164.038 Y224.245 E12.43146
G1 X164.037 Y200.393 E13.54211
G1 X163.999 Y197.751 E13.66514
G1 X163.887 Y195.108 E13.78832
G1 X163.7 Y192.466 E13.91165
G1 X163.436 Y189.809 E14.03598
G1 X163.102 Y187.198 E14.15855
G1 X162.692 Y184.586 E14.28167
G1 X162.212 Y182.004 E14.40396
G1 X161.648 Y179.382 E14.52884
G1 X161.442 Y178.539 E14.56925
G1 X161.279 Y177.815 E14.60381
G1 X161.161 Y177.11 E14.63709
G1 X161.124 Y176.54 E14.66369
G1 X161.103 Y175.405 E14.71655
G1 X161.104 Y171.405 E14.9028
G1 X161.114 Y170.739 E14.93382
G1 X161.164 Y170.025 E14.96715
G1 X161.294 Y169.322 E15.00044
G1 X161.502 Y168.638 E15.03373
G1 X161.785 Y167.981 E15.06704
G1 X162.139 Y167.359 E15.10036
G1 X162.56 Y166.781 E15.13366
G1 X163.044 Y166.254 E15.16698
M204 S3000
M205 X10 Y10
G0 F3000 X163.591 Y166.508
M204 S1800
M205 X8 Y8
G1 F2400 X164.123 Y166.08 E15.19877
G1 X164.702 Y165.716 E15.23062
G1 X165.319 Y165.423 E15.26242
G1 X165.966 Y165.204 E15.29423
G1 X166.634 Y165.062 E15.32603
G1 X167.349 Y164.997 E15.35946
G1 X167.833 Y164.986 E15.382
G1 X170.99 Y164.986 E15.52901
G1 X171.779 Y164.997 E15.56575
G1 X171.946 Y165.001 E15.57353
G1 X173.475 Y165.067 E15.64479
G1 X176.167 Y165.14 E15.77019
G1 X178.809 Y165.137 E15.89321
G1 X182.07 Y165.019 E16.04515
G1 X183.091 Y164.989 E16.09272
G1 X183.263 Y164.986 E16.10073
G1 X186.516 Y164.987 E16.2522
G1 X187.226 Y164.998 E16.28526
G1 X188.04 Y165.067 E16.3233
G1 X188.776 Y165.182 E16.35799
G1 X191.458 Y165.564 E16.48414
G1 X194.111 Y165.866 E16.60847
G1 X196.756 Y166.093 E16.73208
G1 X199.416 Y166.243 E16.85614
G1 X202.092 Y166.32 E16.9808
G1 X204.731 Y166.32 E17.10368
G1 X207.406 Y166.245 E17.22829
G1 X210.075 Y166.095 E17.35277
G1 X212.728 Y165.87 E17.47674
G1 X213.572 Y165.781 E17.51626
G1 X214.109 Y165.744 E17.54133
G1 X214.593 Y165.733 E17.56387
G1 X215.884 Y165.734 E17.62398
G1 X217.772 Y165.761 E17.71191
G1 X218.249 Y165.775 E17.73413
G1 X220.931 Y165.775 E17.85901
G1 X222.433 Y165.744 E17.92897
G1 X222.863 Y165.733 E17.949
G1 X224.155 Y165.734 E18.00916
G1 X224.857 Y165.744 E18.04185
G1 X225.789 Y165.832 E18.08544
G1 X226.056 Y165.883 E18.0981
G1 X226.658 Y166.013 E18.12677
G1 X229.3 Y166.543 E18.25225
G1 X231.908 Y166.989 E18.37545
G1 X234.536 Y167.361 E18.49904
G1 X237.236 Y167.668 E18.62557
G1 X239.185 Y167.839 E18.71668
G1 X240.865 Y167.97 E18.79514
G1 X241.574 Y168.035 E18.82829
G1 X242.192 Y168.125 E18.85737
G1 X242.901 Y168.282 E18.89119
G1 X245.643 Y168.95 E19.0226
G1 X246.382 Y169.14 E19.05813
G1 X247.033 Y169.348 E19.08995
G1 X247.655 Y169.632 E19.12179
G1 X248.239 Y169.985 E19.15357
G1 X248.778 Y170.405 E19.18539
G1 X249.265 Y170.885 E19.21723
G1 X249.692 Y171.418 E19.24903
G1 X250.054 Y171.997 E19.28082
G1 X250.346 Y172.615 E19.31265
G1 X250.563 Y173.263 E19.34447
G1 X250.704 Y173.932 E19.37631
G1 X250.767 Y174.708 E19.41256
G1 X250.779 Y175.524 E19.45056
G1 X250.779 Y197.051 E20.45295
G1 X250.816 Y199.69 E20.57584
G1 X250.931 Y202.398 E20.70205
G1 X251.116 Y205.001 E20.82356
G1 X251.383 Y207.691 E20.94944
G1 X251.721 Y210.333 E21.07346
G1 X252.13 Y212.937 E21.1962
G1 X252.623 Y215.59 E21.32185
G1 X253.171 Y218.133 E21.44298
G1 X253.828 Y220.812 E21.57143
G1 X254.133 Y221.99 E21.62809
G1 X254.265 Y222.661 E21.65993
G1 X254.318 Y223.335 E21.69141
G1 X254.341 Y224.53 E21.74707
G1 X254.34 Y228.391 E21.92685
G1 X254.33 Y229.119 E21.96075
G1 X254.281 Y229.801 E21.99259
G1 X254.153 Y230.472 E22.0244
G1 X253.946 Y231.123 E22.05621
G1 X253.666 Y231.746 E22.08801
G1 X253.314 Y232.332 E22.11984
G1 X252.897 Y232.873 E22.15165
G1 X252.419 Y233.361 E22.18346
G1 X251.887 Y233.79 E22.21528
G1 X251.309 Y234.154 E22.24709
G1 X250.445 Y234.542 E22.29119
G1 X249.459 Y234.892 E22.33991
G1 X246.868 Y235.851 E22.46855
G1 X244.418 Y236.837 E22.59153
G1 X241.985 Y237.898 E22.71512
G1 X239.564 Y239.035 E22.83967
G1 X237.195 Y240.232 E22.96326
G1 X234.825 Y241.514 E23.08873
G1 X232.554 Y242.826 E23.21085
G1 X230.249 Y244.246 E23.33692
G1 X228.458 Y245.427 E23.43681
G1 X227.997 Y245.722 E23.4623
G1 X227.401 Y246.056 E23.49411
G1 X226.77 Y246.318 E23.52593
G1 X226.113 Y246.505 E23.55773
G1 X225.438 Y246.613 E23.58956
G1 X224.846 Y246.648 E23.61718
G1 X224.419 Y246.655 E23.63706
G1 X196.468 Y246.655 E24.93858
G1 X193.817 Y246.692 E25.06203
G1 X191.11 Y246.807 E25.1882
G1 X188.507 Y246.992 E25.30971
G1 X185.815 Y247.259 E25.43567
G1 X183.168 Y247.598 E25.55994
G1 X180.581 Y248.004 E25.68187
G1 X177.631 Y248.555 E25.82161
G1 X177.291 Y248.624 E25.83777
G1 X176.332 Y248.736 E25.88272
G1 X175.807 Y248.75 E25.90718
G1 X171.224 Y248.75 E26.12058
G1 X170.526 Y248.741 E26.15309
G1 X169.844 Y248.692 E26.18493
G1 X169.173 Y248.564 E26.21673
G1 X168.522 Y248.358 E26.24853
G1 X167.898 Y248.078 E26.28038
G1 X167.312 Y247.727 E26.31218
G1 X166.771 Y247.31 E26.34399
G1 X166.282 Y246.832 E26.37583
G1 X165.853 Y246.301 E26.40762
G1 X165.488 Y245.723 E26.43945
G1 X165.194 Y245.107 E26.47123
G1 X164.973 Y244.46 E26.50307
G1 X164.829 Y243.792 E26.53489
G1 X164.763 Y243.059 E26.56916
G1 X164.752 Y242.568 E26.59203
G1 X164.753 Y240.517 E26.68753
G1 X164.768 Y239.436 E26.73787
G1 X164.829 Y237.319 E26.83649
G1 X164.829 Y234.666 E26.96002
G1 X164.798 Y233.165 E27.02993
G1 X164.755 Y231.719 E27.09729
G1 X164.752 Y231.547 E27.1053
G1 X164.752 Y230.463 E27.15578
G1 X164.714 Y227.803 E27.27965
G1 X164.623 Y225.532 E27.38548
G1 X164.597 Y224.122 E27.45115
G1 X164.597 Y200.393 E28.55607
G1 X164.56 Y197.754 E28.67897
G1 X164.445 Y195.047 E28.80513
G1 X164.26 Y192.442 E28.92673
G1 X163.993 Y189.752 E29.05261
G1 X163.655 Y187.11 E29.17663
G1 X163.246 Y184.506 E29.29937
G1 X162.753 Y181.853 E29.42502
G1 X162.2 Y179.285 E29.54734
G1 X161.962 Y178.303 E29.59439
G1 X161.825 Y177.693 E29.6235
G1 X161.714 Y177.018 E29.65535
G1 X161.684 Y176.529 E29.67817
G1 X161.663 Y175.405 E29.73051
G1 X161.664 Y171.413 E29.9164
G1 X161.674 Y170.747 E29.94741
G1 X161.724 Y170.066 E29.97921
G1 X161.853 Y169.395 E30.01103
G1 X162.06 Y168.744 E30.04283
G1 X162.342 Y168.121 E30.07468
G1 X162.694 Y167.536 E30.10647
G1 X163.112 Y166.996 E30.13827
G1 X163.591 Y166.508 E30.17011
M204 S3000
M205 X10 Y10
G0 F3000 X163.663 Y167.222
M204 S1800
M205 X8 Y8
G1 F2400 X164.136 Y166.776 E30.20038
G1 X164.66 Y166.392 E30.23063
G1 X165.227 Y166.076 E30.26085
G1 X165.829 Y165.831 E30.29112
G1 X166.456 Y165.662 E30.32136
G1 X167.365 Y165.557 E30.36396
G1 X167.833 Y165.546 E30.38576
G1 X170.99 Y165.546 E30.53277
G1 X171.771 Y165.557 E30.56914
G1 X171.922 Y165.561 E30.57617
G1 X173.435 Y165.626 E30.64669
G1 X176.153 Y165.7 E30.77329
G1 X178.801 Y165.697 E30.8966
G1 X182.087 Y165.578 E31.04971
G1 X183.108 Y165.548 E31.09727
G1 X183.263 Y165.546 E31.10449
G1 X186.508 Y165.547 E31.25559
G1 X187.218 Y165.558 E31.28865
G1 X187.953 Y165.621 E31.323
G1 X188.68 Y165.735 E31.35727
G1 X191.385 Y166.12 E31.48449
G1 X194.038 Y166.422 E31.60883
G1 X196.709 Y166.651 E31.73366
G1 X199.405 Y166.803 E31.85939
G1 X202.076 Y166.88 E31.98382
G1 X204.747 Y166.88 E32.10819
G1 X207.417 Y166.805 E32.23257
G1 X210.119 Y166.653 E32.35858
G1 X212.793 Y166.427 E32.48354
G1 X213.62 Y166.339 E32.52226
G1 X214.125 Y166.304 E32.54583
G1 X214.593 Y166.293 E32.56763
G1 X215.876 Y166.294 E32.62737
G1 X217.756 Y166.32 E32.71492
G1 X218.267 Y166.335 E32.73873
G1 X220.943 Y166.335 E32.86333
G1 X222.412 Y166.304 E32.93175
G1 X222.863 Y166.293 E32.95276
G1 X224.147 Y166.294 E33.01255
G1 X224.849 Y166.304 E33.04524
G1 X225.692 Y166.383 E33.08466
G1 X225.938 Y166.431 E33.09634
G1 X226.5 Y166.552 E33.1231
G1 X229.205 Y167.095 E33.25157
G1 X231.804 Y167.539 E33.37435
G1 X234.499 Y167.921 E33.50109
G1 X237.128 Y168.22 E33.6243
G1 X239.196 Y168.402 E33.72096
G1 X240.814 Y168.528 E33.79653
G1 X241.523 Y168.593 E33.82969
G1 X242.081 Y168.674 E33.85594
G1 X242.773 Y168.827 E33.88894
G1 X245.504 Y169.492 E34.01982
G1 X246.243 Y169.682 E34.05535
G1 X246.861 Y169.882 E34.0856
G1 X247.45 Y170.157 E34.11587
G1 X248 Y170.502 E34.1461
G1 X248.504 Y170.912 E34.17635
G1 X248.954 Y171.38 E34.20659
G1 X249.343 Y171.9 E34.23682
G1 X249.665 Y172.464 E34.26706
G1 X249.916 Y173.064 E34.29735
G1 X250.091 Y173.689 E34.32757
G1 X250.188 Y174.332 E34.35785
G1 X250.207 Y174.716 E34.37575
G1 X250.219 Y175.524 E34.41338
G1 X250.219 Y197.051 E35.41577
G1 X250.257 Y199.722 E35.54015
G1 X250.37 Y202.389 E35.66445
G1 X250.562 Y205.096 E35.79082
G1 X250.825 Y207.747 E35.91487
G1 X251.163 Y210.388 E36.03885
G1 X251.581 Y213.051 E36.16436
G1 X252.069 Y215.674 E36.2886
G1 X252.628 Y218.274 E36.41243
G1 X253.3 Y221.01 E36.54362
G1 X253.59 Y222.131 E36.59753
G1 X253.714 Y222.768 E36.62775
G1 X253.758 Y223.346 E36.65474
G1 X253.781 Y224.53 E36.70989
G1 X253.781 Y228.384 E36.88934
G1 X253.771 Y229.112 E36.92325
G1 X253.722 Y229.759 E36.95346
G1 X253.594 Y230.396 E36.98371
G1 X253.388 Y231.012 E37.01396
G1 X253.109 Y231.599 E37.04422
G1 X252.76 Y232.147 E37.07448
G1 X252.346 Y232.647 E37.1047
G1 X251.873 Y233.093 E37.13497
G1 X251.35 Y233.478 E37.16521
G1 X250.783 Y233.796 E37.19549
G1 X250.258 Y234.015 E37.22197
G1 X249.227 Y234.381 E37.27292
G1 X246.672 Y235.327 E37.39978
G1 X244.193 Y236.325 E37.52422
G1 X241.744 Y237.393 E37.64862
G1 X239.324 Y238.529 E37.77311
G1 X236.912 Y239.748 E37.89895
G1 X234.572 Y241.014 E38.02283
G1 X232.258 Y242.351 E38.14728
G1 X229.973 Y243.758 E38.27223
G1 X228.156 Y244.955 E38.37354
G1 X227.695 Y245.25 E38.39903
G1 X227.127 Y245.566 E38.4293
G1 X226.525 Y245.81 E38.45954
G1 X225.898 Y245.978 E38.48977
G1 X225.066 Y246.079 E38.52879
G1 X224.415 Y246.095 E38.55912
G1 X196.46 Y246.095 E39.86082
G1 X193.785 Y246.133 E39.98539
G1 X191.119 Y246.246 E40.10964
G1 X188.412 Y246.438 E40.23601
G1 X185.759 Y246.701 E40.36015
G1 X183.119 Y247.039 E40.48408
G1 X180.455 Y247.457 E40.60964
G1 X177.569 Y247.997 E40.74636
G1 X177.181 Y248.075 E40.76479
G1 X176.313 Y248.176 E40.80548
G1 X175.807 Y248.19 E40.82905
G1 X171.231 Y248.19 E41.04213
G1 X170.533 Y248.181 E41.07463
G1 X169.885 Y248.132 E41.10489
G1 X169.248 Y248.005 E41.13514
G1 X168.632 Y247.8 E41.16537
G1 X168.045 Y247.521 E41.19563
G1 X167.497 Y247.172 E41.22588
G1 X166.996 Y246.759 E41.25612
G1 X166.549 Y246.287 E41.28639
G1 X166.164 Y245.764 E41.31663
G1 X165.846 Y245.197 E41.3469
G1 X165.6 Y244.596 E41.37714
G1 X165.43 Y243.969 E41.40739
G1 X165.323 Y243.044 E41.45075
G1 X165.312 Y242.568 E41.47292
G1 X165.313 Y240.525 E41.56805
G1 X165.328 Y239.452 E41.61802
G1 X165.389 Y237.335 E41.71663
G1 X165.389 Y234.655 E41.84142
G1 X165.357 Y233.154 E41.91133
G1 X165.314 Y231.702 E41.97897
G1 X165.312 Y231.547 E41.98619
G1 X165.312 Y230.463 E42.03667
G1 X165.274 Y227.81 E42.16022
G1 X165.186 Y225.634 E42.26162
G1 X165.158 Y224.224 E42.32729
G1 X165.157 Y200.393 E43.43696
