;FLAVOR:Marlin
;TIME:2471
;Filament used: 2.13418m
;Layer height: 0.2
;MINX:139.617
;MINY:164.9
;MINZ:0.2
;MAXX:260.452
;MAXY:234.234
;MAXZ:5
;Generated with Cura_SteamEngine 4.11.0
M140 S60
M105
M190 S60
M104 S200
M105
M109 S200
M82 ;absolute extrusion mode
M107 ;Start with the fan off
G21 ;Set units to millimeters
G91 ;Change to relative positioning mode for retract filament and nozzle lifting
G1 F200 E-3 ;Retract 3mm filament for a clean start
G92 E0 ;Zero the extruded length
G1 F1000 Z5 ;Lift the nozzle 5mm before homing axes
G90 ;Absolute positioning
M82 ;Set extruder to absolute mode too
G28 X0 Y0 ;First move X/Y to min endstops
G28 Z0 ;Then move Z to min endstops
G1 F1000 Z15 ;After homing lift the nozzle 15mm before start printing

G92 E0
G92 E0
G1 F2400 E-6
;LAYER_COUNT:25
;LAYER:0
M106 S255
M204 S3000
M205 X10 Y10
G1 F600 Z0.275
G0 F3000 X146.264 Y169.121 Z0.275
M204 S1800
M205 X8 Y8
;TYPE:SKIRT
G1 F600 Z0.2
G1 F2400 E0
G1 X146.698 Y168.775 E0.02585
G1 X147.529 Y168.171 E0.07368
G1 X148.119 Y167.769 E0.10693
G1 X148.612 Y167.468 E0.13382
G1 X149.526 Y166.966 E0.18238
G1 X150.128 Y166.658 E0.21387
G1 X150.663 Y166.418 E0.24117
G1 X151.633 Y166.035 E0.28973
G1 X152.289 Y165.798 E0.32221
G1 X152.841 Y165.629 E0.34909
G1 X153.842 Y165.372 E0.39721
G1 X154.487 Y165.226 E0.42801
G1 X155.063 Y165.126 E0.45523
G1 X156.132 Y164.991 E0.5054
G1 X156.821 Y164.925 E0.53763
G1 X157.392 Y164.9 E0.56424
G1 X158.414 Y164.9 E0.61183
G1 X159.095 Y164.92 E0.64356
G1 X159.677 Y164.967 E0.67074
G1 X160.725 Y165.1 E0.71994
G1 X161.417 Y165.209 E0.75255
G1 X161.979 Y165.327 E0.77929
G1 X162.981 Y165.585 E0.82747
G1 X163.647 Y165.778 E0.85976
G1 X164.187 Y165.964 E0.88636
G1 X165.152 Y166.346 E0.93468
G1 X165.784 Y166.619 E0.96674
G1 X166.297 Y166.871 E0.99335
G1 X167.231 Y167.384 E1.04297
G1 X167.817 Y167.73 E1.07466
G1 X168.292 Y168.044 E1.10117
G1 X169.136 Y168.657 E1.14975
G1 X169.316 Y168.792 E1.16022
G1 X169.76 Y169.139 E1.18646
G1 X169.901 Y169.252 E1.19488
G1 X170.838 Y170.029 E1.25156
G1 X171.346 Y170.461 E1.28261
G1 X173.406 Y172.118 E1.40571
G1 X175.52 Y173.72 E1.52922
G1 X177.648 Y175.239 E1.65096
G1 X179.859 Y176.727 E1.77506
G1 X182.113 Y178.152 E1.89923
G1 X184.391 Y179.502 E2.02253
G1 X186.679 Y180.774 E2.14443
G1 X189.033 Y181.996 E2.26793
G1 X191.41 Y183.147 E2.39091
G1 X193.865 Y184.25 E2.51623
G1 X196.277 Y185.253 E2.63787
G1 X198.777 Y186.212 E2.76255
G1 X200.94 Y186.971 E2.86929
G1 X201.272 Y187.098 E2.88584
G1 X201.92 Y187.4 E2.91913
G1 X202.397 Y187.683 E2.94495
G1 X203.077 Y188.127 E2.98277
G1 X205.363 Y189.579 E3.10887
G1 X207.636 Y190.933 E3.23207
G1 X209.977 Y192.241 E3.35694
G1 X212.272 Y193.438 E3.47746
G1 X214.688 Y194.613 E3.60256
G1 X217.083 Y195.694 E3.72492
G1 X219.533 Y196.719 E3.84858
G1 X222.061 Y197.695 E3.97476
G1 X224.473 Y198.544 E4.09383
G1 X227.033 Y199.367 E4.21904
G1 X229.554 Y200.101 E4.34131
G1 X232.113 Y200.766 E4.46442
G1 X234.704 Y201.363 E4.58823
G1 X237.328 Y201.891 E4.71286
G1 X239.915 Y202.333 E4.83507
G1 X242.527 Y202.705 E4.95792
G1 X245.161 Y203.005 E5.08137
G1 X247.792 Y203.229 E5.20432
G1 X250.465 Y203.38 E5.32898
G1 X253.119 Y203.455 E5.45262
G1 X254.14 Y203.471 E5.50016
G1 X254.853 Y203.522 E5.53345
G1 X255.556 Y203.652 E5.56674
G1 X256.241 Y203.86 E5.60007
G1 X256.898 Y204.142 E5.63336
G1 X257.519 Y204.497 E5.66667
G1 X258.097 Y204.918 E5.69997
G1 X258.624 Y205.402 E5.73329
G1 X259.094 Y205.941 E5.76659
G1 X259.501 Y206.529 E5.79989
G1 X259.84 Y207.159 E5.8332
G1 X260.106 Y207.823 E5.86651
G1 X260.296 Y208.513 E5.89983
G1 X260.409 Y209.219 E5.93312
G1 X260.45 Y210.071 E5.97284
G1 X260.452 Y210.243 E5.98085
G1 X260.452 Y219.202 E6.39802
G1 X260.443 Y219.928 E6.43183
G1 X260.394 Y220.642 E6.46515
G1 X260.266 Y221.346 E6.49847
G1 X260.06 Y222.031 E6.53178
G1 X259.779 Y222.688 E6.56505
G1 X259.426 Y223.311 E6.5984
G1 X259.006 Y223.89 E6.6317
G1 X258.524 Y224.418 E6.66499
G1 X257.986 Y224.89 E6.69832
G1 X257.399 Y225.298 E6.73161
G1 X256.77 Y225.639 E6.76492
G1 X256.107 Y225.907 E6.79822
G1 X255.418 Y226.099 E6.83153
G1 X254.957 Y226.183 E6.85335
G1 X254.273 Y226.281 E6.88552
G1 X252.8 Y226.471 E6.95468
G1 X250.165 Y226.886 E7.07889
G1 X247.584 Y227.368 E7.20115
G1 X244.984 Y227.929 E7.325
G1 X242.423 Y228.558 E7.44779
G1 X239.862 Y229.265 E7.57151
G1 X237.33 Y230.041 E7.69482
G1 X234.826 Y230.888 E7.81791
G1 X232.318 Y231.815 E7.94241
G1 X229.853 Y232.807 E8.06614
G1 X228.636 Y233.328 E8.12778
G1 X227.771 Y233.705 E8.17172
G1 X227.1 Y233.954 E8.20504
G1 X226.406 Y234.126 E8.23834
G1 X225.697 Y234.22 E8.27164
G1 X224.982 Y234.234 E8.30494
G1 X224.27 Y234.168 E8.33824
G1 X223.569 Y234.023 E8.37157
G1 X222.889 Y233.801 E8.40488
G1 X222.178 Y233.472 E8.44136
G1 X221.706 Y233.215 E8.46638
G1 X186.016 Y212.609 E10.38536
G1 X183.677 Y211.304 E10.51008
G1 X181.333 Y210.08 E10.63321
G1 X178.975 Y208.932 E10.75533
G1 X176.529 Y207.826 E10.88033
G1 X174.094 Y206.805 E11.00327
G1 X171.634 Y205.86 E11.12598
G1 X169.146 Y204.98 E11.24887
G1 X166.599 Y204.16 E11.37346
G1 X164.079 Y203.427 E11.49567
G1 X161.531 Y202.763 E11.61828
G1 X158.904 Y202.156 E11.74382
G1 X156.354 Y201.645 E11.86492
G1 X154.601 Y201.34 E11.94778
G1 X154.059 Y201.224 E11.97358
G1 X153.021 Y200.956 E12.0235
G1 X152.348 Y200.761 E12.05613
G1 X151.809 Y200.575 E12.08268
G1 X150.844 Y200.193 E12.13101
G1 X150.219 Y199.924 E12.16269
G1 X149.696 Y199.666 E12.18985
G1 X148.76 Y199.151 E12.23959
G1 X148.178 Y198.808 E12.27105
G1 X147.694 Y198.489 E12.29804
G1 X146.853 Y197.877 E12.34647
G1 X146.301 Y197.448 E12.37903
G1 X145.876 Y197.083 E12.40511
G1 X145.131 Y196.384 E12.45268
G1 X144.628 Y195.884 E12.48571
G1 X144.234 Y195.449 E12.51303
G1 X143.582 Y194.66 E12.56069
G1 X143.15 Y194.105 E12.59344
G1 X142.815 Y193.627 E12.62062
G1 X142.264 Y192.758 E12.66854
G1 X141.912 Y192.166 E12.70061
G1 X141.639 Y191.647 E12.72791
G1 X141.187 Y190.683 E12.77749
G1 X140.924 Y190.079 E12.80817
G1 X140.711 Y189.514 E12.83628
G1 X140.402 Y188.558 E12.88306
G1 X140.204 Y187.879 E12.916
G1 X140.071 Y187.32 E12.94275
G1 X139.878 Y186.308 E12.99073
G1 X139.765 Y185.598 E13.0242
G1 X139.703 Y185.025 E13.05104
G1 X139.639 Y183.999 E13.09891
G1 X139.617 Y183.325 E13.13031
G1 X139.627 Y182.736 E13.15774
G1 X139.694 Y181.684 E13.20682
G1 X139.757 Y181.007 E13.23848
G1 X139.839 Y180.438 E13.26525
G1 X140.034 Y179.413 E13.31384
G1 X140.187 Y178.727 E13.34657
G1 X140.337 Y178.183 E13.37284
G1 X140.66 Y177.189 E13.42151
G1 X140.89 Y176.545 E13.45335
G1 X141.118 Y175.997 E13.48099
G1 X141.556 Y175.069 E13.52877
G1 X141.869 Y174.452 E13.56099
G1 X142.158 Y173.948 E13.58804
G1 X142.713 Y173.074 E13.63625
G1 X143.107 Y172.492 E13.66898
G1 X143.459 Y172.025 E13.69621
G1 X144.099 Y171.252 E13.74294
G1 X144.559 Y170.728 E13.7754
G1 X144.965 Y170.31 E13.80254
G1 X145.761 Y169.563 E13.85337
G1 X146.264 Y169.121 E13.88455
M204 S3000
M205 X10 Y10
G0 F3000 X146.631 Y169.543
M204 S1800
M205 X8 Y8
G1 F2400 X147.027 Y169.228 E13.90811
G1 X147.858 Y168.624 E13.95595
G1 X148.431 Y168.234 E13.98822
G1 X148.882 Y167.959 E14.01282
G1 X149.796 Y167.457 E14.06137
G1 X150.381 Y167.158 E14.09197
G1 X150.868 Y166.939 E14.11683
G1 X151.838 Y166.556 E14.16539
G1 X152.477 Y166.325 E14.19703
G1 X152.981 Y166.171 E14.22157
G1 X153.982 Y165.914 E14.26969
G1 X154.608 Y165.773 E14.29957
G1 X155.133 Y165.682 E14.32438
G1 X156.202 Y165.547 E14.37455
G1 X156.871 Y165.483 E14.40585
G1 X157.392 Y165.46 E14.43013
G1 X158.414 Y165.46 E14.47772
G1 X159.075 Y165.48 E14.50851
G1 X159.606 Y165.522 E14.53332
G1 X160.654 Y165.655 E14.58251
G1 X161.327 Y165.762 E14.61424
G1 X161.839 Y165.869 E14.63859
G1 X162.841 Y166.127 E14.68677
G1 X163.488 Y166.315 E14.71815
G1 X163.981 Y166.485 E14.74243
G1 X164.946 Y166.867 E14.79076
G1 X165.559 Y167.132 E14.82185
G1 X166.027 Y167.362 E14.84613
G1 X166.961 Y167.875 E14.89575
G1 X167.53 Y168.211 E14.92652
G1 X167.963 Y168.497 E14.95069
G1 X168.807 Y169.11 E14.99926
G1 X168.971 Y169.234 E15.00883
G1 X169.415 Y169.581 E15.03507
G1 X169.543 Y169.684 E15.04272
G1 X170.475 Y170.456 E15.09907
G1 X170.99 Y170.894 E15.13055
G1 X173.037 Y172.54 E15.25286
G1 X175.199 Y174.178 E15.37917
G1 X177.345 Y175.711 E15.50197
G1 X179.55 Y177.194 E15.62571
G1 X181.796 Y178.614 E15.74944
G1 X184.11 Y179.986 E15.8747
G1 X186.427 Y181.275 E15.99816
G1 X188.782 Y182.497 E16.12171
G1 X191.187 Y183.661 E16.24612
G1 X193.628 Y184.758 E16.37073
G1 X196.069 Y185.773 E16.49383
G1 X198.611 Y186.748 E16.62061
G1 X200.754 Y187.5 E16.72636
G1 X201.064 Y187.618 E16.7418
G1 X201.682 Y187.908 E16.77359
G1 X202.091 Y188.152 E16.79577
G1 X202.781 Y188.603 E16.83415
G1 X205.08 Y190.063 E16.96097
G1 X207.339 Y191.409 E17.08341
G1 X209.695 Y192.725 E17.20907
G1 X212.047 Y193.952 E17.3326
G1 X214.434 Y195.112 E17.45618
G1 X216.874 Y196.214 E17.58084
G1 X219.336 Y197.244 E17.70511
G1 X221.84 Y198.21 E17.83008
G1 X224.292 Y199.074 E17.95114
G1 X226.882 Y199.907 E18.07783
G1 X229.401 Y200.64 E18.19999
G1 X231.99 Y201.313 E18.32455
G1 X234.604 Y201.916 E18.44946
G1 X237.193 Y202.436 E18.57242
G1 X239.816 Y202.884 E18.69633
G1 X242.455 Y203.26 E18.82045
G1 X245.12 Y203.563 E18.94535
G1 X247.75 Y203.787 E19.06825
G1 X250.417 Y203.938 E19.19264
G1 X253.159 Y204.016 E19.32037
G1 X254.131 Y204.031 E19.36564
G1 X254.813 Y204.081 E19.39748
G1 X255.483 Y204.211 E19.42926
G1 X256.134 Y204.418 E19.46107
G1 X256.757 Y204.699 E19.49289
G1 X257.342 Y205.052 E19.52471
G1 X257.882 Y205.47 E19.5565
G1 X258.37 Y205.949 E19.58834
G1 X258.798 Y206.481 E19.62014
G1 X259.161 Y207.06 E19.65196
G1 X259.455 Y207.677 E19.68378
G1 X259.674 Y208.324 E19.71559
G1 X259.816 Y208.992 E19.74739
G1 X259.88 Y209.713 E19.7811
G1 X259.892 Y210.243 E19.80578
G1 X259.892 Y219.195 E20.22262
G1 X259.883 Y219.921 E20.25643
G1 X259.834 Y220.603 E20.28827
G1 X259.706 Y221.274 E20.32008
G1 X259.501 Y221.926 E20.3519
G1 X259.221 Y222.549 E20.38371
G1 X258.871 Y223.135 E20.41549
G1 X258.454 Y223.677 E20.44733
G1 X257.977 Y224.166 E20.47914
G1 X257.445 Y224.595 E20.51097
G1 X256.868 Y224.96 E20.54276
G1 X256.252 Y225.255 E20.57456
G1 X255.605 Y225.476 E20.6064
G1 X254.877 Y225.629 E20.64104
G1 X254.201 Y225.726 E20.67284
G1 X252.71 Y225.918 E20.74284
G1 X250.084 Y226.332 E20.86662
G1 X247.438 Y226.826 E20.99196
G1 X244.876 Y227.379 E21.11401
G1 X242.277 Y228.017 E21.23862
G1 X239.693 Y228.731 E21.36345
G1 X237.164 Y229.506 E21.48662
G1 X234.649 Y230.356 E21.61023
G1 X232.116 Y231.293 E21.73599
G1 X229.678 Y232.273 E21.85834
G1 X228.378 Y232.83 E21.9242
G1 X227.547 Y233.192 E21.96641
G1 X226.906 Y233.427 E21.9982
G1 X226.242 Y233.587 E22.03
G1 X225.563 Y233.668 E22.06184
G1 X224.88 Y233.668 E22.09365
G1 X224.201 Y233.59 E22.12547
G1 X223.537 Y233.432 E22.15725
G1 X222.895 Y233.198 E22.18907
G1 X222.443 Y232.979 E22.21246
G1 X221.986 Y232.73 E22.23669
G1 X186.278 Y212.114 E24.15663
G1 X183.959 Y210.819 E24.28031
G1 X181.587 Y209.581 E24.40489
G1 X179.185 Y208.412 E24.52928
G1 X176.785 Y207.327 E24.65193
G1 X174.274 Y206.274 E24.77872
G1 X171.845 Y205.34 E24.89989
G1 X169.316 Y204.446 E25.0248
G1 X166.792 Y203.633 E25.14827
G1 X164.199 Y202.879 E25.27401
G1 X161.654 Y202.216 E25.39647
G1 X159.036 Y201.612 E25.52158
G1 X156.45 Y201.093 E25.6444
G1 X154.703 Y200.789 E25.72697
G1 X154.199 Y200.682 E25.75096
G1 X153.161 Y200.414 E25.80088
G1 X152.507 Y200.224 E25.83259
G1 X152.015 Y200.054 E25.85683
G1 X151.05 Y199.672 E25.90515
G1 X150.444 Y199.411 E25.93588
G1 X149.966 Y199.176 E25.96068
G1 X149.03 Y198.661 E26.01043
G1 X148.465 Y198.327 E26.04099
G1 X148.024 Y198.036 E26.06559
G1 X147.183 Y197.424 E26.11402
G1 X146.647 Y197.008 E26.14562
G1 X146.259 Y196.675 E26.16942
G1 X145.514 Y195.976 E26.21699
G1 X145.026 Y195.489 E26.2491
G1 X144.665 Y195.092 E26.27408
G1 X144.013 Y194.303 E26.32174
G1 X143.593 Y193.764 E26.35356
G1 X143.288 Y193.327 E26.37837
G1 X142.737 Y192.458 E26.42629
G1 X142.395 Y191.883 E26.45744
G1 X142.146 Y191.409 E26.48237
G1 X141.694 Y190.445 E26.53195
G1 X141.438 Y189.857 E26.56181
G1 X141.244 Y189.342 E26.58744
G1 X140.935 Y188.386 E26.63422
G1 X140.743 Y187.725 E26.66627
G1 X140.621 Y187.215 E26.69069
G1 X140.428 Y186.203 E26.73866
G1 X140.319 Y185.513 E26.77119
G1 X140.262 Y184.991 E26.79564
G1 X140.198 Y183.965 E26.84351
G1 X140.176 Y183.309 E26.87407
G1 X140.186 Y182.772 E26.89908
G1 X140.253 Y181.72 E26.94816
G1 X140.314 Y181.062 E26.97893
G1 X140.389 Y180.543 E27.00335
G1 X140.584 Y179.518 E27.05194
G1 X140.732 Y178.852 E27.0837
G1 X140.87 Y178.356 E27.10768
G1 X141.193 Y177.362 E27.15634
G1 X141.417 Y176.736 E27.1873
G1 X141.625 Y176.236 E27.21252
G1 X142.063 Y175.308 E27.2603
G1 X142.367 Y174.708 E27.29162
G1 X142.631 Y174.248 E27.31632
G1 X143.186 Y173.374 E27.36453
G1 X143.569 Y172.808 E27.39635
G1 X143.891 Y172.382 E27.42122
G1 X144.531 Y171.609 E27.46795
G1 X144.977 Y171.1 E27.49946
G1 X145.349 Y170.719 E27.52425
G1 X146.145 Y169.972 E27.57508
G1 X146.631 Y169.543 E27.60527
M204 S3000
M205 X10 Y10
G0 F3000 X146.998 Y169.966
M204 S1800
M205 X8 Y8
G1 F2400 X147.357 Y169.681 E27.62661
G1 X148.188 Y169.077 E27.67445
G1 X148.744 Y168.698 E27.70578
G1 X149.151 Y168.45 E27.72797
G1 X150.065 Y167.948 E27.77653
G1 X150.633 Y167.658 E27.80623
G1 X151.074 Y167.46 E27.82874
G1 X152.044 Y167.077 E27.8773
G1 X152.664 Y166.853 E27.90799
G1 X153.12 Y166.714 E27.93019
G1 X154.121 Y166.457 E27.97831
G1 X154.728 Y166.32 E28.00729
G1 X155.203 Y166.238 E28.02973
G1 X156.272 Y166.103 E28.07991
G1 X156.921 Y166.041 E28.11026
G1 X157.392 Y166.02 E28.13222
G1 X158.414 Y166.02 E28.17981
G1 X159.056 Y166.039 E28.20971
G1 X159.536 Y166.078 E28.23214
G1 X160.584 Y166.211 E28.28133
G1 X161.236 Y166.314 E28.31207
G1 X161.7 Y166.412 E28.33415
G1 X162.702 Y166.67 E28.38233
G1 X163.329 Y166.852 E28.41273
G1 X163.774 Y167.006 E28.43466
G1 X164.739 Y167.388 E28.48298
G1 X165.335 Y167.645 E28.5132
G1 X165.758 Y167.853 E28.53515
G1 X166.692 Y168.366 E28.58477
G1 X167.242 Y168.691 E28.61452
G1 X167.634 Y168.95 E28.6364
G1 X168.478 Y169.563 E28.68497
G1 X168.626 Y169.675 E28.69361
G1 X169.07 Y170.022 E28.71985
G1 X169.186 Y170.115 E28.72677
G1 X170.112 Y170.882 E28.78276
G1 X170.635 Y171.327 E28.81474
G1 X172.711 Y172.996 E28.93877
G1 X174.831 Y174.603 E29.06264
G1 X177.043 Y176.182 E29.18919
G1 X179.241 Y177.661 E29.31256
G1 X181.515 Y179.098 E29.43781
G1 X183.819 Y180.465 E29.56256
G1 X186.175 Y181.775 E29.68808
G1 X188.53 Y182.997 E29.81162
G1 X190.964 Y184.175 E29.93754
G1 X193.39 Y185.265 E30.06138
G1 X195.874 Y186.298 E30.18665
G1 X198.391 Y187.263 E30.31217
G1 X200.569 Y188.028 E30.41966
G1 X200.856 Y188.138 E30.43397
G1 X201.443 Y188.416 E30.46422
G1 X201.784 Y188.621 E30.48274
G1 X202.454 Y189.059 E30.52002
G1 X204.786 Y190.54 E30.64865
G1 X207.06 Y191.895 E30.77191
G1 X209.441 Y193.225 E30.8989
G1 X211.793 Y194.452 E31.02243
G1 X214.195 Y195.62 E31.1468
G1 X216.648 Y196.727 E31.27211
G1 X219.107 Y197.755 E31.39622
G1 X221.649 Y198.737 E31.52311
G1 X224.155 Y199.619 E31.64682
G1 X226.666 Y200.427 E31.76964
G1 X229.271 Y201.185 E31.89597
G1 X231.868 Y201.86 E32.02092
G1 X234.478 Y202.461 E32.14563
G1 X237.086 Y202.986 E32.26951
G1 X239.753 Y203.441 E32.39549
G1 X242.386 Y203.816 E32.51933
G1 X245.043 Y204.119 E32.64385
G1 X247.703 Y204.345 E32.76816
G1 X250.406 Y204.498 E32.89422
G1 X253.143 Y204.576 E33.02172
G1 X254.123 Y204.591 E33.06736
G1 X254.77 Y204.64 E33.09757
G1 X255.407 Y204.769 E33.12784
G1 X256.023 Y204.976 E33.1581
G1 X256.609 Y205.256 E33.18834
G1 X257.156 Y205.606 E33.21858
G1 X257.656 Y206.021 E33.24883
G1 X258.102 Y206.494 E33.27911
G1 X258.485 Y207.018 E33.30933
G1 X258.802 Y207.585 E33.33958
G1 X259.047 Y208.187 E33.36984
G1 X259.215 Y208.814 E33.40007
G1 X259.32 Y209.728 E33.4429
G1 X259.332 Y210.243 E33.46689
G1 X259.332 Y219.188 E33.88341
G1 X259.323 Y219.914 E33.91722
G1 X259.275 Y220.562 E33.94747
G1 X259.147 Y221.199 E33.97773
G1 X258.943 Y221.816 E34.00799
G1 X258.664 Y222.403 E34.03825
G1 X258.316 Y222.951 E34.06848
G1 X257.902 Y223.452 E34.09874
G1 X257.431 Y223.899 E34.12898
G1 X256.908 Y224.284 E34.15922
G1 X256.342 Y224.602 E34.18945
G1 X255.74 Y224.849 E34.21975
G1 X254.797 Y225.075 E34.2649
