;FLAVOR:Marlin
;TIME:2421
;Filament used: 2.12245m
;Layer height: 0.2
;MINX:143.955
;MINY:154.587
;MINZ:0.2
;MAXX:254.615
;MAXY:239.815
;MAXZ:5
;Generated with Cura_SteamEngine 4.11.0
M140 S60
M105
M190 S60
M104 S200
M105
M109 S200
M82 ;absolute extrusion mode
M107 ;Start with the fan off
G21 ;Set units to millimeters
G91 ;Change to relative positioning mode for retract filament and nozzle lifting
G1 F200 E-3 ;Retract 3mm filament for a clean start
G92 E0 ;Zero the extruded length
G1 F1000 Z5 ;Lift the nozzle 5mm before homing axes
G90 ;Absolute positioning
M82 ;Set extruder to absolute mode too
G28 X0 Y0 ;First move X/Y to min endstops
G28 Z0 ;Then move Z to min endstops
G1 F1000 Z15 ;After homing lift the nozzle 15mm before start printing

G92 E0
G92 E0
G1 F2400 E-6
;LAYER_COUNT:25
;LAYER:0
M106 S255
M204 S3000
M205 X10 Y10
G1 F600 Z0.275
G0 F3000 X146.801 Y218.196 Z0.275
M204 S1800
M205 X8 Y8
;TYPE:SKIRT
G1 F600 Z0.2
G1 F2400 E0
G1 X147.417 Y217.833 E0.03329
G1 X148.07 Y217.541 E0.0666
G1 X148.505 Y217.393 E0.088
G1 X149.113 Y217.21 E0.11756
G1 X151.278 Y216.58 E0.22256
G1 X153.828 Y215.76 E0.34728
G1 X156.314 Y214.881 E0.47006
G1 X158.791 Y213.927 E0.59366
G1 X161.237 Y212.904 E0.71712
G1 X163.624 Y211.825 E0.8391
G1 X166.032 Y210.653 E0.9638
G1 X168.342 Y209.448 E1.08512
G1 X170.698 Y208.132 E1.21078
G1 X172.953 Y206.787 E1.33304
G1 X175.182 Y205.372 E1.45598
G1 X177.379 Y203.887 E1.57945
G1 X179.539 Y202.337 E1.70325
G1 X181.621 Y200.751 E1.82512
G1 X183.713 Y199.064 E1.95026
G1 X185.697 Y197.369 E2.07177
G1 X187.673 Y195.58 E2.19589
G1 X189.583 Y193.749 E2.31909
G1 X191.44 Y191.868 E2.44217
G1 X193.791 Y189.325 E2.60343
G1 X194.261 Y188.797 E2.63635
G1 X194.765 Y188.29 E2.66964
G1 X195.484 Y187.732 E2.71201
G1 X195.751 Y187.553 E2.72698
G1 X197.959 Y186.036 E2.85172
G1 X200.098 Y184.476 E2.975
G1 X202.193 Y182.854 E3.09837
G1 X204.254 Y181.164 E3.22248
G1 X206.228 Y179.45 E3.34421
G1 X208.196 Y177.642 E3.46865
G1 X210.083 Y175.804 E3.59131
G1 X211.936 Y173.897 E3.71512
G1 X213.727 Y171.945 E3.83848
G1 X215.46 Y169.945 E3.96171
G1 X217.136 Y167.899 E4.08486
G1 X218.738 Y165.824 E4.20693
G1 X221.023 Y162.651 E4.389
G1 X221.746 Y161.679 E4.44541
G1 X222.174 Y161.137 E4.47756
G1 X222.561 Y160.694 E4.50495
G1 X223.273 Y159.952 E4.55284
G1 X223.753 Y159.48 E4.58419
G1 X224.191 Y159.091 E4.61146
G1 X225.03 Y158.413 E4.66169
G1 X225.575 Y157.999 E4.69356
G1 X226.047 Y157.676 E4.72019
G1 X226.923 Y157.133 E4.76818
G1 X227.497 Y156.799 E4.79911
G1 X228.023 Y156.529 E4.82664
G1 X228.998 Y156.083 E4.87656
G1 X229.607 Y155.826 E4.90734
G1 X230.15 Y155.629 E4.93424
G1 X231.17 Y155.31 E4.984
G1 X231.827 Y155.125 E5.01579
G1 X232.383 Y154.999 E5.04233
G1 X233.415 Y154.813 E5.09116
G1 X234.083 Y154.714 E5.12261
G1 X234.658 Y154.658 E5.14951
G1 X235.716 Y154.603 E5.19884
G1 X236.379 Y154.587 E5.22972
G1 X236.967 Y154.603 E5.25711
G1 X238.02 Y154.681 E5.30627
G1 X238.692 Y154.751 E5.33774
G1 X239.256 Y154.839 E5.36432
G1 X240.289 Y155.047 E5.41338
G1 X240.983 Y155.21 E5.44658
G1 X241.513 Y155.363 E5.47226
G1 X242.505 Y155.696 E5.52099
G1 X243.127 Y155.925 E5.55185
G1 X243.678 Y156.161 E5.57976
G1 X244.647 Y156.631 E5.62991
G1 X245.243 Y156.942 E5.66121
G1 X245.725 Y157.226 E5.68726
G1 X246.562 Y157.769 E5.73372
G1 X246.757 Y157.9 E5.74466
G1 X247.18 Y158.197 E5.76873
G1 X247.633 Y158.547 E5.79538
G1 X248.433 Y159.223 E5.84415
G1 X248.935 Y159.674 E5.87558
G1 X249.337 Y160.074 E5.90198
G1 X250.045 Y160.844 E5.95069
G1 X250.499 Y161.368 E5.98297
G1 X250.862 Y161.832 E6.01041
G1 X251.469 Y162.688 E6.05927
G1 X251.834 Y163.234 E6.08985
G1 X252.133 Y163.736 E6.11706
G1 X252.621 Y164.646 E6.16514
G1 X252.938 Y165.284 E6.19831
G1 X253.163 Y165.801 E6.22457
G1 X253.548 Y166.802 E6.27451
G1 X253.772 Y167.442 E6.30608
G1 X253.932 Y167.985 E6.33244
G1 X254.176 Y168.977 E6.38001
G1 X254.323 Y169.662 E6.41263
G1 X254.415 Y170.232 E6.43952
G1 X254.539 Y171.305 E6.48981
G1 X254.595 Y171.952 E6.52005
G1 X254.615 Y172.541 E6.54749
G1 X254.602 Y173.624 E6.59793
G1 X254.576 Y174.279 E6.62845
G1 X254.522 Y174.863 E6.65576
G1 X254.384 Y175.867 E6.70295
G1 X254.273 Y176.537 E6.73457
G1 X254.145 Y177.122 E6.76246
G1 X253.87 Y178.143 E6.81169
G1 X253.672 Y178.799 E6.8436
G1 X253.482 Y179.332 E6.86995
G1 X253.093 Y180.287 E6.91797
G1 X252.814 Y180.918 E6.95009
G1 X252.549 Y181.443 E6.97748
G1 X252.025 Y182.371 E7.0271
G1 X251.69 Y182.928 E7.05737
G1 X251.355 Y183.426 E7.08531
G1 X250.736 Y184.258 E7.1336
G1 X250.315 Y184.792 E7.16526
G1 X249.924 Y185.239 E7.19292
G1 X249.194 Y185.999 E7.24199
G1 X248.713 Y186.47 E7.27333
G1 X248.292 Y186.844 E7.29956
G1 X247.462 Y187.517 E7.34931
G1 X246.915 Y187.933 E7.38131
G1 X246.447 Y188.253 E7.40771
G1 X245.542 Y188.814 E7.45729
G1 X244.982 Y189.139 E7.48744
G1 X244.462 Y189.406 E7.51466
G1 X244.1 Y189.572 E7.5332
G1 X241.702 Y190.709 E7.65678
G1 X239.3 Y191.933 E7.78231
G1 X237.017 Y193.179 E7.90342
G1 X234.715 Y194.522 E8.02752
G1 X232.44 Y195.934 E8.1522
G1 X230.288 Y197.357 E8.27233
G1 X228.085 Y198.906 E8.39773
G1 X225.961 Y200.491 E8.52114
G1 X223.893 Y202.127 E8.64392
G1 X221.866 Y203.826 E8.76708
G1 X219.892 Y205.578 E8.88998
G1 X217.934 Y207.415 E9.01499
G1 X216.769 Y208.56 E9.09105
G1 X187.807 Y237.522 E10.99825
G1 X187.315 Y238.001 E11.03022
G1 X186.776 Y238.47 E11.06349
G1 X186.187 Y238.877 E11.09683
G1 X185.557 Y239.215 E11.13012
G1 X184.893 Y239.48 E11.16341
G1 X184.203 Y239.67 E11.19674
G1 X183.497 Y239.782 E11.23002
G1 X182.782 Y239.815 E11.26335
G1 X181.993 Y239.757 E11.30019
G1 X181.532 Y239.694 E11.32186
G1 X179.585 Y239.404 E11.41352
G1 X176.932 Y239.084 E11.53795
G1 X174.304 Y238.842 E11.66083
G1 X171.667 Y238.675 E11.78387
G1 X169.026 Y238.582 E11.90692
G1 X166.381 Y238.565 E12.03009
G1 X163.706 Y238.621 E12.15467
G1 X161.068 Y238.753 E12.27766
G1 X158.475 Y238.956 E12.39877
G1 X154.444 Y239.415 E12.58769
G1 X153.789 Y239.503 E12.61846
G1 X153.076 Y239.558 E12.65176
G1 X152.361 Y239.534 E12.68507
G1 X151.653 Y239.43 E12.71839
G1 X150.962 Y239.248 E12.75167
G1 X150.295 Y238.989 E12.78498
G1 X149.661 Y238.658 E12.81829
G1 X149.068 Y238.259 E12.85157
G1 X148.523 Y237.795 E12.8849
G1 X148.033 Y237.274 E12.9182
G1 X147.605 Y236.701 E12.9515
G1 X147.243 Y236.084 E12.98481
G1 X146.952 Y235.43 E13.01815
G1 X146.72 Y234.714 E13.05319
G1 X146.665 Y234.521 E13.06254
G1 X144.309 Y225.725 E13.48655
G1 X144.148 Y225.088 E13.51715
G1 X144.012 Y224.386 E13.55044
G1 X143.955 Y223.673 E13.58375
G1 X143.978 Y222.958 E13.61706
G1 X144.08 Y222.25 E13.65037
G1 X144.261 Y221.558 E13.68367
G1 X144.518 Y220.891 E13.71696
G1 X144.848 Y220.256 E13.75028
G1 X145.246 Y219.662 E13.78357
G1 X145.709 Y219.116 E13.81691
G1 X146.229 Y218.626 E13.85018
G1 X146.801 Y218.196 E13.8835
M204 S3000
M205 X10 Y10
G0 F3000 X147.397 Y218.483
M204 S1800
M205 X8 Y8
G1 F2400 X148.006 Y218.173 E13.91532
G1 X148.666 Y217.929 E13.94809
G1 X149.269 Y217.747 E13.97741
G1 X151.461 Y217.11 E14.08371
G1 X154.009 Y216.29 E14.20834
G1 X156.505 Y215.408 E14.33161
G1 X158.988 Y214.451 E14.45552
G1 X161.476 Y213.41 E14.5811
G1 X163.849 Y212.337 E14.70237
G1 X166.285 Y211.152 E14.82851
G1 X168.624 Y209.932 E14.95135
G1 X170.98 Y208.616 E15.07701
G1 X173.247 Y207.264 E15.19992
G1 X175.477 Y205.848 E15.32292
G1 X177.7 Y204.345 E15.44787
G1 X179.863 Y202.794 E15.57181
G1 X181.993 Y201.171 E15.6965
G1 X184.07 Y199.496 E15.82075
G1 X186.058 Y197.798 E15.94249
G1 X188.059 Y195.986 E16.06819
G1 X189.973 Y194.151 E16.19165
G1 X191.838 Y192.261 E16.31529
G1 X194.222 Y189.683 E16.47879
G1 X194.679 Y189.17 E16.51079
G1 X195.163 Y188.687 E16.54263
G1 X195.796 Y188.197 E16.5799
G1 X196.032 Y188.039 E16.59312
G1 X198.288 Y186.489 E16.72058
G1 X200.434 Y184.923 E16.84428
G1 X202.549 Y183.286 E16.96882
G1 X204.618 Y181.59 E17.09339
G1 X206.616 Y179.855 E17.21661
G1 X208.569 Y178.06 E17.34012
G1 X210.479 Y176.2 E17.46426
G1 X212.355 Y174.269 E17.58963
G1 X214.133 Y172.332 E17.71206
G1 X215.896 Y170.297 E17.83743
G1 X217.568 Y168.255 E17.96032
G1 X219.184 Y166.162 E18.08345
G1 X221.472 Y162.986 E18.26572
G1 X222.195 Y162.014 E18.32213
G1 X222.612 Y161.486 E18.35345
G1 X222.965 Y161.082 E18.37844
G1 X223.677 Y160.34 E18.42632
G1 X224.143 Y159.882 E18.45674
G1 X224.543 Y159.527 E18.48165
G1 X225.382 Y158.849 E18.53188
G1 X225.911 Y158.447 E18.56281
G1 X226.342 Y158.152 E18.58713
G1 X227.218 Y157.609 E18.63513
G1 X227.776 Y157.285 E18.66517
G1 X228.256 Y157.038 E18.69031
G1 X229.231 Y156.592 E18.74023
G1 X229.822 Y156.343 E18.77009
G1 X230.317 Y156.163 E18.79462
G1 X231.337 Y155.844 E18.84438
G1 X231.975 Y155.666 E18.87523
G1 X232.482 Y155.551 E18.89943
G1 X233.514 Y155.365 E18.94826
G1 X234.162 Y155.268 E18.97877
G1 X234.687 Y155.217 E19.00333
G1 X235.745 Y155.162 E19.05267
G1 X236.389 Y155.147 E19.08266
G1 X236.925 Y155.162 E19.10763
G1 X237.978 Y155.24 E19.1568
G1 X238.631 Y155.308 E19.18737
G1 X239.146 Y155.388 E19.21163
G1 X240.179 Y155.596 E19.2607
G1 X240.851 Y155.754 E19.29285
G1 X241.334 Y155.894 E19.31626
G1 X242.326 Y156.227 E19.36499
G1 X242.931 Y156.449 E19.39499
G1 X243.434 Y156.664 E19.42047
G1 X244.403 Y157.134 E19.47061
G1 X244.981 Y157.437 E19.501
G1 X245.42 Y157.696 E19.52474
G1 X246.257 Y158.239 E19.57119
G1 X246.435 Y158.358 E19.58116
G1 X246.858 Y158.655 E19.60523
G1 X247.271 Y158.974 E19.62953
G1 X248.071 Y159.65 E19.6783
G1 X248.558 Y160.088 E19.7088
G1 X248.925 Y160.453 E19.7329
G1 X249.633 Y161.223 E19.78161
G1 X250.074 Y161.732 E19.81297
G1 X250.405 Y162.156 E19.83801
G1 X251.012 Y163.012 E19.88688
G1 X251.366 Y163.543 E19.91659
G1 X251.64 Y164.001 E19.94145
G1 X252.128 Y164.911 E19.98953
G1 X252.435 Y165.531 E20.02174
G1 X252.641 Y166.002 E20.04568
G1 X253.026 Y167.003 E20.09562
G1 X253.242 Y167.623 E20.12619
G1 X253.388 Y168.119 E20.15027
G1 X253.632 Y169.111 E20.19784
G1 X253.774 Y169.776 E20.2295
G1 X253.858 Y170.297 E20.25407
G1 X253.982 Y171.37 E20.30437
G1 X254.036 Y171.997 E20.33367
G1 X254.055 Y172.534 E20.35869
G1 X254.042 Y173.617 E20.40913
G1 X254.016 Y174.254 E20.43881
G1 X253.968 Y174.787 E20.46373
G1 X253.83 Y175.791 E20.51092
G1 X253.721 Y176.442 E20.54166
G1 X253.604 Y176.977 E20.56716
G1 X253.329 Y177.998 E20.61639
G1 X253.137 Y178.635 E20.64737
G1 X252.964 Y179.121 E20.67139
G1 X252.575 Y180.076 E20.71941
G1 X252.303 Y180.689 E20.75064
G1 X252.061 Y181.167 E20.77558
G1 X251.537 Y182.095 E20.82521
G1 X251.212 Y182.638 E20.85468
G1 X250.905 Y183.092 E20.8802
G1 X250.286 Y183.924 E20.92848
G1 X249.877 Y184.444 E20.95929
G1 X249.52 Y184.852 E20.98453
G1 X248.79 Y185.612 E21.0336
G1 X248.324 Y186.068 E21.06396
G1 X247.939 Y186.409 E21.08791
G1 X247.109 Y187.082 E21.13767
G1 X246.579 Y187.485 E21.16867
G1 X246.152 Y187.777 E21.19276
G1 X245.247 Y188.338 E21.24234
G1 X244.703 Y188.653 E21.27161
G1 X244.229 Y188.897 E21.29643
G1 X243.842 Y189.074 E21.31625
G1 X241.458 Y190.205 E21.43912
G1 X239.041 Y191.437 E21.56544
G1 X236.733 Y192.697 E21.68788
G1 X234.414 Y194.048 E21.81285
G1 X232.154 Y195.452 E21.93674
G1 X229.976 Y196.892 E22.05832
G1 X227.746 Y198.46 E22.18526
G1 X225.637 Y200.033 E22.30777
G1 X223.527 Y201.703 E22.43307
G1 X221.492 Y203.408 E22.55669
G1 X219.515 Y205.163 E22.67979
G1 X217.532 Y207.024 E22.80642
G1 X216.411 Y208.128 E22.87968
G1 X187.417 Y237.12 E24.78892
G1 X186.925 Y237.599 E24.82089
G1 X186.408 Y238.047 E24.85275
G1 X185.843 Y238.43 E24.88453
G1 X185.237 Y238.745 E24.91633
G1 X184.598 Y238.988 E24.94817
G1 X183.935 Y239.153 E24.97998
G1 X183.258 Y239.241 E25.01177
G1 X182.574 Y239.248 E25.04362
G1 X182.068 Y239.202 E25.06728
G1 X181.614 Y239.14 E25.08862
G1 X179.66 Y238.849 E25.18061
G1 X176.98 Y238.526 E25.3063
G1 X174.354 Y238.284 E25.4291
G1 X171.687 Y238.115 E25.55353
G1 X169.05 Y238.023 E25.6764
G1 X166.373 Y238.005 E25.80105
G1 X163.701 Y238.061 E25.9255
G1 X161.031 Y238.195 E26.04998
G1 X158.427 Y238.399 E26.17161
G1 X154.352 Y238.862 E26.36258
G1 X153.714 Y238.948 E26.39255
G1 X153.033 Y238.999 E26.42435
G1 X152.35 Y238.971 E26.45618
G1 X151.676 Y238.862 E26.48797
G1 X151.018 Y238.676 E26.51981
G1 X150.387 Y238.414 E26.55163
G1 X149.791 Y238.081 E26.58342
G1 X149.238 Y237.68 E26.61523
G1 X148.735 Y237.217 E26.64706
G1 X148.29 Y236.699 E26.67886
G1 X147.909 Y236.132 E26.71067
G1 X147.596 Y235.524 E26.74251
G1 X147.345 Y234.847 E26.77613
G1 X147.206 Y234.376 E26.799
G1 X144.852 Y225.588 E27.22263
G1 X144.691 Y224.951 E27.25322
G1 X144.563 Y224.28 E27.28503
G1 X144.514 Y223.599 E27.31682
G1 X144.544 Y222.916 E27.34866
G1 X144.655 Y222.242 E27.38046
G1 X144.843 Y221.585 E27.41228
G1 X145.107 Y220.955 E27.44409
G1 X145.442 Y220.359 E27.47593
G1 X145.845 Y219.808 E27.50771
G1 X146.309 Y219.306 E27.53955
G1 X146.829 Y218.863 E27.57135
G1 X147.397 Y218.483 E27.60318
M204 S3000
M205 X10 Y10
G0 F3000 X147.427 Y219.125
M204 S1800
M205 X8 Y8
G1 F2400 X147.989 Y218.799 E27.63343
G1 X148.828 Y218.465 E27.67548
G1 X149.426 Y218.285 E27.70456
G1 X151.645 Y217.64 E27.81216
G1 X154.159 Y216.831 E27.93513
G1 X156.705 Y215.931 E28.06088
G1 X159.197 Y214.971 E28.18523
G1 X161.672 Y213.936 E28.31014
G1 X164.117 Y212.83 E28.4351
G1 X166.539 Y211.652 E28.56051
G1 X168.878 Y210.432 E28.68335
G1 X171.262 Y209.1 E28.81051
G1 X173.514 Y207.756 E28.93263
G1 X175.813 Y206.297 E29.05942
G1 X178.022 Y204.804 E29.18357
G1 X180.21 Y203.234 E29.30896
G1 X182.308 Y201.636 E29.43177
G1 X184.405 Y199.945 E29.5572
G1 X186.456 Y198.193 E29.68281
G1 X188.444 Y196.392 E29.80771
G1 X190.363 Y194.553 E29.93148
G1 X192.237 Y192.655 E30.05568
G1 X194.667 Y190.027 E30.22234
G1 X195.098 Y189.542 E30.25256
G1 X195.559 Y189.084 E30.28282
G1 X196.107 Y188.662 E30.31502
G1 X196.394 Y188.47 E30.3311
G1 X198.616 Y186.943 E30.45664
G1 X200.765 Y185.375 E30.58051
G1 X202.895 Y183.727 E30.70592
G1 X204.961 Y182.033 E30.83032
G1 X207.003 Y180.26 E30.95625
G1 X208.943 Y178.477 E31.07894
G1 X210.893 Y176.578 E31.20568
G1 X212.738 Y174.678 E31.329
G1 X214.571 Y172.681 E31.45522
G1 X216.313 Y170.672 E31.57904
G1 X218.014 Y168.594 E31.70408
G1 X219.645 Y166.482 E31.82834
G1 X221.921 Y163.32 E32.00975
G1 X222.644 Y162.348 E32.06616
G1 X223.05 Y161.835 E32.09662
G1 X223.369 Y161.469 E32.11923
G1 X224.081 Y160.727 E32.16711
G1 X224.534 Y160.283 E32.19665
G1 X224.895 Y159.962 E32.21914
G1 X225.734 Y159.284 E32.26937
G1 X226.247 Y158.895 E32.29935
G1 X226.637 Y158.628 E32.32136
G1 X227.513 Y158.085 E32.36935
G1 X228.055 Y157.77 E32.39854
G1 X228.489 Y157.548 E32.42124
G1 X229.464 Y157.102 E32.47117
G1 X230.036 Y156.86 E32.50009
G1 X230.484 Y156.698 E32.52227
G1 X231.504 Y156.379 E32.57203
G1 X232.123 Y156.206 E32.60196
G1 X232.581 Y156.102 E32.62383
G1 X233.613 Y155.916 E32.67266
G1 X234.242 Y155.822 E32.70227
G1 X234.716 Y155.776 E32.72445
G1 X235.774 Y155.721 E32.77378
G1 X236.399 Y155.707 E32.80289
G1 X236.884 Y155.72 E32.82548
G1 X237.937 Y155.798 E32.87465
G1 X238.57 Y155.865 E32.90429
G1 X239.035 Y155.937 E32.9262
G1 X240.068 Y156.145 E32.97526
G1 X240.719 Y156.298 E33.0064
G1 X241.156 Y156.424 E33.02758
G1 X242.148 Y156.757 E33.0763
G1 X242.735 Y156.974 E33.10545
G1 X243.189 Y157.168 E33.12843
G1 X244.158 Y157.638 E33.17858
G1 X244.718 Y157.932 E33.20803
G1 X245.116 Y158.165 E33.22951
G1 X245.953 Y158.708 E33.27597
G1 X246.113 Y158.817 E33.28498
G1 X246.536 Y159.114 E33.30905
G1 X246.91 Y159.402 E33.33103
G1 X247.71 Y160.078 E33.3798
G1 X248.181 Y160.502 E33.40931
G1 X248.513 Y160.832 E33.4311
G1 X249.221 Y161.602 E33.47981
G1 X249.649 Y162.097 E33.51028
G1 X249.948 Y162.48 E33.53291
G1 X250.555 Y163.336 E33.58177
G1 X250.899 Y163.851 E33.61061
G1 X251.146 Y164.266 E33.6331
G1 X251.634 Y165.176 E33.68118
G1 X251.932 Y165.777 E33.71241
G1 X252.118 Y166.203 E33.73406
G1 X252.503 Y167.204 E33.784
G1 X252.713 Y167.805 E33.81364
G1 X252.844 Y168.253 E33.83538
G1 X253.088 Y169.245 E33.88295
G1 X253.226 Y169.891 E33.9137
G1 X253.302 Y170.361 E33.93587
G1 X253.426 Y171.434 E33.98617
G1 X253.478 Y172.042 E34.01458
G1 X253.495 Y172.527 E34.03718
G1 X253.482 Y173.61 E34.08761
G1 X253.457 Y174.229 E34.11646
G1 X253.413 Y174.711 E34.139
G1 X253.275 Y175.715 E34.18619
G1 X253.169 Y176.348 E34.21607
G1 X253.063 Y176.831 E34.2391
