;FLAVOR:Marlin
;TIME:18871
;Filament used: 15.7594m
;Layer height: 0.2
;MINX:41.1
;MINY:127.732
;MINZ:0.2
;MAXX:358.9
;MAXY:283.975
;MAXZ:18
;Generated with Cura_SteamEngine 4.11.0
M140 S60
M105
M190 S60
M104 S200
M105
M109 S200
M82 ;absolute extrusion mode
M107 ;Start with the fan off
G21 ;Set units to millimeters
G91 ;Change to relative positioning mode for retract filament and nozzle lifting
G1 F200 E-3 ;Retract 3mm filament for a clean start
G92 E0 ;Zero the extruded length
G1 F1000 Z5 ;Lift the nozzle 5mm before homing axes
G90 ;Absolute positioning
M82 ;Set extruder to absolute mode too
G28 X0 Y0 ;First move X/Y to min endstops
G28 Z0 ;Then move Z to min endstops
G1 F1000 Z15 ;After homing lift the nozzle 15mm before start printing

G92 E0
G92 E0
G1 F2400 E-6
;LAYER_COUNT:90
;LAYER:0
M106 S255
M204 S3000
M205 X10 Y10
G1 F600 Z0.275
G0 F3000 X123.742 Y150.505 Z0.275
M204 S1800
M205 X8 Y8
;TYPE:SKIRT
G1 F600 Z0.2
G1 F2400 E0
G1 X124.328 Y150.094 E0.03333
G1 X124.956 Y149.752 E0.06663
G1 X125.618 Y149.482 E0.09992
G1 X126.306 Y149.288 E0.1332
G1 X127.076 Y149.164 E0.16952
G1 X127.597 Y149.113 E0.19389
G1 X130.232 Y148.818 E0.31736
G1 X132.855 Y148.448 E0.4407
G1 X135.431 Y148.01 E0.56238
G1 X138.047 Y147.491 E0.68656
G1 X140.64 Y146.897 E0.81043
G1 X143.21 Y146.233 E0.93403
G1 X145.733 Y145.503 E1.05633
G1 X148.272 Y144.69 E1.18047
G1 X150.75 Y143.82 E1.30276
G1 X153.231 Y142.869 E1.42648
G1 X155.649 Y141.863 E1.54843
G1 X158.1 Y140.76 E1.67358
G1 X160.481 Y139.606 E1.79679
G1 X162.823 Y138.389 E1.91969
G1 X165.135 Y137.104 E2.04285
G1 X167.411 Y135.75 E2.16617
G1 X169.638 Y134.342 E2.28886
G1 X172.791 Y132.192 E2.46656
G1 X173.242 Y131.871 E2.49233
G1 X173.847 Y131.49 E2.52563
G1 X174.491 Y131.178 E2.55895
G1 X175.165 Y130.94 E2.59223
G1 X175.862 Y130.779 E2.62554
G1 X176.829 Y130.686 E2.67078
G1 X177.925 Y130.666 E2.72182
G1 X201.634 Y130.666 E3.82581
G1 X204.296 Y130.628 E3.94978
G1 X206.936 Y130.516 E4.07282
G1 X209.582 Y130.329 E4.19633
G1 X212.237 Y130.065 E4.32057
G1 X214.848 Y129.731 E4.44314
G1 X217.46 Y129.321 E4.56625
G1 X220.058 Y128.838 E4.6893
G1 X222.618 Y128.288 E4.81122
G1 X223.507 Y128.071 E4.85384
G1 X224.219 Y127.91 E4.88783
G1 X224.924 Y127.791 E4.92112
G1 X225.504 Y127.753 E4.94818
G1 X226.642 Y127.732 E5.00118
G1 X230.514 Y127.732 E5.18148
G1 X231.308 Y127.743 E5.21846
G1 X232.022 Y127.793 E5.25178
G1 X232.725 Y127.922 E5.28506
G1 X233.41 Y128.129 E5.31839
G1 X234.067 Y128.412 E5.3517
G1 X234.688 Y128.765 E5.38496
G1 X235.302 Y129.215 E5.4204
G1 X235.899 Y129.711 E5.45655
G1 X236.968 Y130.624 E5.52201
G1 X239.056 Y132.307 E5.64688
G1 X241.141 Y133.892 E5.76884
G1 X243.296 Y135.436 E5.89228
G1 X245.498 Y136.921 E6.01595
G1 X247.741 Y138.344 E6.13964
G1 X249.997 Y139.686 E6.26187
G1 X252.299 Y140.97 E6.38461
G1 X254.693 Y142.218 E6.51032
G1 X257.022 Y143.348 E6.63086
G1 X259.483 Y144.458 E6.75657
G1 X261.893 Y145.465 E6.87819
G1 X264.395 Y146.429 E7.00305
G1 X266.849 Y147.291 E7.12416
G1 X269.42 Y148.116 E7.24989
G1 X271.912 Y148.84 E7.37072
G1 X274.523 Y149.517 E7.49632
G1 X277.057 Y150.1 E7.6174
G1 X279.708 Y150.631 E7.74329
G1 X282.252 Y151.064 E7.86346
G1 X284.9 Y151.439 E7.98799
G1 X287.583 Y151.728 E8.11364
G1 X288.407 Y151.824 E8.15227
G1 X289.111 Y151.946 E8.18554
G1 X289.798 Y152.147 E8.21887
G1 X290.458 Y152.422 E8.25216
G1 X291.083 Y152.77 E8.28547
G1 X291.666 Y153.185 E8.3188
G1 X292.198 Y153.662 E8.35207
G1 X292.674 Y154.196 E8.38538
G1 X293.024 Y154.68 E8.41319
G1 X293.628 Y155.604 E8.46459
G1 X295.1 Y157.789 E8.58727
G1 X296.675 Y159.989 E8.71326
G1 X298.25 Y162.064 E8.83456
G1 X299.911 Y164.13 E8.958
G1 X301.643 Y166.159 E9.08222
G1 X303.411 Y168.117 E9.20506
G1 X305.223 Y170.015 E9.32724
G1 X307.122 Y171.893 E9.45161
G1 X309.059 Y173.704 E9.57508
G1 X311.016 Y175.43 E9.69659
G1 X313.082 Y177.154 E9.82188
G1 X315.142 Y178.777 E9.944
G1 X317.288 Y180.369 E10.06842
G1 X319.447 Y181.877 E10.19105
G1 X321.656 Y183.332 E10.31422
G1 X323.915 Y184.728 E10.43787
G1 X326.179 Y186.041 E10.55974
G1 X328.536 Y187.32 E10.68461
G1 X330.893 Y188.513 E10.80762
G1 X333.298 Y189.647 E10.93143
G1 X335.681 Y190.69 E11.05255
G1 X338.215 Y191.715 E11.17983
G1 X340.627 Y192.608 E11.2996
G1 X343.152 Y193.466 E11.42377
G1 X345.669 Y194.242 E11.54642
G1 X348.231 Y194.953 E11.67023
G1 X350.812 Y195.592 E11.79404
G1 X352.505 Y195.96 E11.87471
G1 X353.863 Y196.258 E11.93945
G1 X354.552 Y196.45 E11.97275
G1 X355.215 Y196.718 E12.00605
G1 X355.844 Y197.058 E12.03935
G1 X356.432 Y197.466 E12.07267
G1 X356.97 Y197.937 E12.10597
G1 X357.452 Y198.465 E12.13926
G1 X357.872 Y199.044 E12.17256
G1 X358.225 Y199.666 E12.20587
G1 X358.506 Y200.324 E12.23918
G1 X358.713 Y201.009 E12.2725
G1 X358.841 Y201.712 E12.30578
G1 X358.888 Y202.33 E12.33464
G1 X358.9 Y202.83 E12.35793
G1 X358.9 Y219.843 E13.15012
G1 X358.891 Y220.57 E13.18398
G1 X358.842 Y221.284 E13.2173
G1 X358.714 Y221.988 E13.25062
G1 X358.508 Y222.673 E13.28393
G1 X358.227 Y223.33 E13.3172
G1 X357.874 Y223.953 E13.35054
G1 X357.454 Y224.532 E13.38385
G1 X356.972 Y225.06 E13.41714
G1 X356.435 Y225.532 E13.45043
G1 X355.847 Y225.94 E13.48376
G1 X355.218 Y226.281 E13.51707
G1 X354.555 Y226.549 E13.55037
G1 X353.866 Y226.741 E13.58368
G1 X353.16 Y226.856 E13.61698
G1 X352.349 Y226.897 E13.6548
G1 X352.17 Y226.9 E13.66313
G1 X345.716 Y226.9 E13.96366
G1 X343.054 Y226.938 E14.08762
G1 X340.414 Y227.05 E14.21066
G1 X337.769 Y227.237 E14.33413
G1 X335.112 Y227.501 E14.45846
G1 X332.497 Y227.835 E14.58122
G1 X329.901 Y228.243 E14.70358
G1 X327.294 Y228.728 E14.82706
G1 X324.686 Y229.289 E14.95128
G1 X322.165 Y229.906 E15.07213
G1 X319.578 Y230.618 E15.19707
G1 X317.022 Y231.401 E15.32155
G1 X314.555 Y232.233 E15.44278
G1 X312.033 Y233.163 E15.56794
G1 X309.585 Y234.147 E15.6908
G1 X307.172 Y235.197 E15.81333
G1 X304.76 Y236.327 E15.93736
G1 X302.41 Y237.511 E16.05989
G1 X300.062 Y238.779 E16.18415
G1 X297.789 Y240.09 E16.30633
G1 X295.529 Y241.48 E16.42988
G1 X293.328 Y242.921 E16.55237
G1 X291.118 Y244.461 E16.6778
G1 X289.023 Y246.009 E16.7991
G1 X286.917 Y247.658 E16.92364
G1 X284.891 Y249.341 E17.04629
G1 X282.907 Y251.086 E17.16932
G1 X280.95 Y252.906 E17.29376
G1 X279.09 Y254.739 E17.41536
G1 X277.247 Y256.66 E17.53932
G1 X275.467 Y258.624 E17.66274
G1 X273.746 Y260.633 E17.78592
G1 X272.078 Y262.698 E17.90953
G1 X270.46 Y264.82 E18.03378
G1 X268.946 Y266.925 E18.15452
G1 X267.439 Y269.151 E18.27969
G1 X266.017 Y271.386 E18.40304
G1 X264.683 Y273.621 E18.52424
G1 X263.366 Y275.973 E18.64976
G1 X262.151 Y278.297 E18.77187
G1 X261.344 Y279.952 E18.85761
G1 X261.095 Y280.446 E18.88337
G1 X260.738 Y281.065 E18.91664
G1 X260.314 Y281.641 E18.94995
G1 X259.828 Y282.166 E18.98326
G1 X259.287 Y282.634 E19.01657
G1 X258.697 Y283.038 E19.04986
G1 X258.065 Y283.374 E19.08319
G1 X257.4 Y283.638 E19.11651
G1 X256.71 Y283.825 E19.1498
G1 X256.003 Y283.935 E19.18311
G1 X255.255 Y283.972 E19.21799
G1 X255.057 Y283.975 E19.22721
G1 X249.941 Y283.974 E19.46543
G1 X249.242 Y283.964 E19.49798
G1 X248.882 Y283.949 E19.51476
G1 X247.873 Y283.878 E19.56186
G1 X245.142 Y283.723 E19.68923
G1 X242.532 Y283.648 E19.81081
G1 X239.889 Y283.648 E19.93388
G1 X237.216 Y283.723 E20.0584
G1 X234.569 Y283.873 E20.18185
G1 X233.668 Y283.942 E20.22393
G1 X232.939 Y283.972 E20.2579
G1 X232.759 Y283.975 E20.26628
G1 X227.636 Y283.974 E20.50483
G1 X226.931 Y283.964 E20.53766
G1 X226.218 Y283.914 E20.57095
G1 X225.514 Y283.785 E20.60427
G1 X224.83 Y283.578 E20.63755
G1 X224.172 Y283.296 E20.67088
G1 X223.358 Y282.812 E20.71498
G1 X222.794 Y282.418 E20.74702
G1 X220.543 Y280.897 E20.87352
G1 X218.326 Y279.488 E20.99584
G1 X216.043 Y278.128 E21.11957
G1 X213.723 Y276.833 E21.24329
G1 X211.393 Y275.616 E21.3657
G1 X209.005 Y274.454 E21.48936
G1 X206.591 Y273.363 E21.61271
G1 X204.121 Y272.328 E21.73741
G1 X201.666 Y271.384 E21.85989
G1 X199.192 Y270.51 E21.98206
G1 X196.653 Y269.693 E22.10626
G1 X194.122 Y268.957 E22.229
G1 X191.574 Y268.293 E22.3516
G1 X188.967 Y267.691 E22.47619
G1 X186.369 Y267.171 E22.59957
G1 X183.777 Y266.727 E22.72202
G1 X181.156 Y266.353 E22.8453
G1 X178.53 Y266.054 E22.96837
G1 X175.882 Y265.828 E23.09212
G1 X173.219 Y265.677 E23.21632
G1 X170.523 Y265.6 E23.3419
G1 X169.785 Y265.59 E23.37627
G1 X169.071 Y265.54 E23.4096
G1 X168.368 Y265.411 E23.44288
G1 X167.683 Y265.204 E23.4762
G1 X167.026 Y264.922 E23.50949
G1 X166.404 Y264.568 E23.54282
G1 X165.826 Y264.147 E23.57612
G1 X165.298 Y263.664 E23.60944
G1 X164.9 Y263.217 E23.63731
G1 X164.283 Y262.453 E23.68303
G1 X163.62 Y261.61 E23.73297
G1 X161.937 Y259.59 E23.8554
G1 X160.192 Y257.613 E23.97819
G1 X158.367 Y255.657 E24.10276
G1 X156.522 Y253.789 E24.22501
G1 X154.582 Y251.934 E24.35
G1 X152.645 Y250.183 E24.47158
G1 X150.619 Y248.453 E24.59563
G1 X148.556 Y246.791 E24.71899
G1 X146.442 Y245.184 E24.84264
G1 X144.311 Y243.658 E24.96469
G1 X142.112 Y242.174 E25.08822
G1 X139.844 Y240.737 E25.21324
G1 X137.608 Y239.406 E25.33441
G1 X135.292 Y238.115 E25.45787
G1 X132.933 Y236.885 E25.58175
G1 X130.557 Y235.732 E25.70473
G1 X128.13 Y234.637 E25.82871
G1 X125.666 Y233.608 E25.95305
G1 X123.225 Y232.671 E26.07479
G1 X120.732 Y231.793 E26.19787
G1 X118.223 Y230.987 E26.32058
G1 X115.646 Y230.24 E26.44551
G1 X113.115 Y229.584 E26.56726
G1 X110.508 Y228.983 E26.69184
G1 X107.923 Y228.468 E26.81457
G1 X105.322 Y228.024 E26.93744
G1 X102.663 Y227.647 E27.06249
G1 X100.073 Y227.354 E27.18386
G1 X97.436 Y227.131 E27.30709
G1 X94.818 Y226.985 E27.42918
G1 X90.781 Y226.9 E27.6172
G1 X48.115 Y226.899 E29.60391
G1 X47.417 Y226.889 E29.63642
G1 X46.704 Y226.839 E29.6697
G1 X46 Y226.71 E29.70303
G1 X45.316 Y226.502 E29.73632
G1 X44.659 Y226.22 E29.76961
G1 X44.037 Y225.866 E29.80293
G1 X43.459 Y225.445 E29.83623
G1 X42.931 Y224.962 E29.86955
G1 X42.461 Y224.424 E29.90282
G1 X42.053 Y223.836 E29.93614
G1 X41.714 Y223.206 E29.96945
G1 X41.447 Y222.543 E30.00274
G1 X41.256 Y221.853 E30.03607
G1 X41.143 Y221.147 E30.06937
G1 X41.102 Y220.331 E30.10741
G1 X41.1 Y220.158 E30.11547
G1 X41.101 Y203.087 E30.91036
G1 X41.11 Y202.423 E30.94128
G1 X41.159 Y201.71 E30.97456
G1 X41.288 Y201.006 E31.00789
G1 X41.495 Y200.321 E31.04121
G1 X41.777 Y199.664 E31.0745
G1 X42.13 Y199.042 E31.10781
G1 X42.551 Y198.464 E31.1411
G1 X43.033 Y197.936 E31.17439
G1 X43.571 Y197.465 E31.20769
G1 X44.159 Y197.057 E31.24101
G1 X44.788 Y196.717 E31.27431
G1 X45.452 Y196.45 E31.30763
G1 X46.141 Y196.258 E31.34094
G1 X47.138 Y196.121 E31.3878
G1 X48.215 Y196.058 E31.43803
G1 X50.856 Y195.868 E31.56133
G1 X53.534 Y195.599 E31.68665
G1 X56.118 Y195.266 E31.80797
G1 X58.753 Y194.85 E31.93219
G1 X61.374 Y194.358 E32.05636
G1 X63.898 Y193.812 E32.17661
G1 X66.54 Y193.162 E32.3033
G1 X69.071 Y192.462 E32.42558
G1 X71.583 Y191.691 E32.54793
G1 X74.12 Y190.831 E32.67267
G1 X76.587 Y189.919 E32.79514
G1 X79.041 Y188.929 E32.91836
G1 X81.462 Y187.874 E33.04133
G1 X83.866 Y186.743 E33.16504
G1 X86.24 Y185.544 E33.28888
G1 X88.57 Y184.283 E33.41224
G1 X90.848 Y182.965 E33.53479
G1 X93.093 Y181.58 E33.65762
G1 X95.316 Y180.121 E33.78144
G1 X97.473 Y178.615 E33.90393
G1 X99.619 Y177.027 E34.02824
G1 X101.679 Y175.409 E34.15022
G1 X103.728 Y173.704 E34.27434
G1 X105.722 Y171.946 E34.39812
G1 X107.657 Y170.141 E34.52134
G1 X109.546 Y168.277 E34.64491
G1 X111.348 Y166.395 E34.76624
G1 X113.149 Y164.404 E34.89125
G1 X114.861 Y162.399 E35.01402
G1 X116.528 Y160.334 E35.13759
G1 X118.125 Y158.234 E35.26044
G1 X119.658 Y156.097 E35.3829
G1 X121.784 Y152.906 E35.56145
G1 X122.307 Y152.088 E35.60666
G1 X122.725 Y151.508 E35.63995
G1 X123.205 Y150.978 E35.67324
G1 X123.742 Y150.505 E35.70656
M204 S3000
M205 X10 Y10
G0 F3000 X124.161 Y150.889
M204 S1800
M205 X8 Y8
G1 F2400 X124.728 Y150.507 E35.7384
G1 X125.335 Y150.194 E35.7702
G1 X125.975 Y149.955 E35.80201
G1 X126.638 Y149.791 E35.83381
G1 X127.576 Y149.678 E35.87781
G1 X130.304 Y149.373 E36.00563
G1 X132.953 Y148.999 E36.1302
G1 X135.559 Y148.556 E36.25328
G1 X138.144 Y148.043 E36.376
G1 X140.761 Y147.444 E36.50101
G1 X143.361 Y146.772 E36.62606
G1 X145.892 Y146.04 E36.74874
G1 X148.44 Y145.224 E36.87332
G1 X150.971 Y144.335 E36.99823
G1 X153.426 Y143.394 E37.12066
G1 X155.886 Y142.371 E37.24472
G1 X158.337 Y141.267 E37.36989
G1 X160.734 Y140.107 E37.49389
G1 X163.061 Y138.897 E37.61601
G1 X165.416 Y137.588 E37.74147
G1 X167.72 Y136.218 E37.86629
G1 X169.942 Y134.812 E37.98873
G1 X173.143 Y132.63 E38.16912
G1 X173.567 Y132.328 E38.19336
G1 X174.146 Y131.964 E38.2252
G1 X174.763 Y131.672 E38.25699
G1 X175.41 Y131.453 E38.28879
G1 X176.079 Y131.311 E38.32064
G1 X176.84 Y131.246 E38.3562
G1 X177.925 Y131.226 E38.40673
G1 X201.642 Y131.226 E39.5111
G1 X204.293 Y131.189 E39.63455
G1 X207 Y131.074 E39.76071
G1 X209.604 Y130.889 E39.88227
G1 X212.294 Y130.622 E40.00815
G1 X214.936 Y130.284 E40.13217
G1 X217.54 Y129.875 E40.25491
G1 X220.175 Y129.385 E40.37971
G1 X222.759 Y128.83 E40.50278
G1 X223.736 Y128.593 E40.54959
G1 X224.342 Y128.456 E40.57852
G1 X225.016 Y128.344 E40.61033
G1 X225.515 Y128.313 E40.63361
G1 X226.642 Y128.292 E40.6861
G1 X230.514 Y128.292 E40.8664
G1 X231.3 Y128.303 E40.903
G1 X231.981 Y128.352 E40.93479
G1 X232.652 Y128.481 E40.96661
G1 X233.304 Y128.688 E40.99846
G1 X233.927 Y128.969 E41.03029
G1 X234.512 Y129.32 E41.06205
G1 X234.945 Y129.647 E41.08732
G1 X235.536 Y130.137 E41.12307
G1 X236.629 Y131.07 E41.18998
G1 X238.706 Y132.745 E41.31423
G1 X240.818 Y134.35 E41.43775
G1 X242.976 Y135.896 E41.56136
G1 X245.179 Y137.382 E41.68509
G1 X247.433 Y138.812 E41.80939
G1 X249.732 Y140.179 E41.93394
G1 X252.045 Y141.47 E42.05728
G1 X254.411 Y142.703 E42.18151
G1 X256.812 Y143.869 E42.3058
G1 X259.228 Y144.957 E42.42918
G1 X261.696 Y145.989 E42.55374
G1 X264.204 Y146.955 E42.67889
G1 X266.713 Y147.836 E42.80271
G1 X269.195 Y148.633 E42.9241
G1 X271.792 Y149.387 E43.05002
G1 X274.359 Y150.054 E43.17352
G1 X276.973 Y150.654 E43.2984
G1 X279.601 Y151.181 E43.42321
G1 X282.184 Y151.62 E43.54521
G1 X284.824 Y151.994 E43.66936
G1 X287.518 Y152.284 E43.79553
G1 X288.342 Y152.38 E43.83416
G1 X289.015 Y152.499 E43.86599
G1 X289.669 Y152.695 E43.89778
G1 X290.296 Y152.967 E43.9296
G1 X290.887 Y153.31 E43.96142
G1 X291.434 Y153.719 E43.99322
G1 X291.929 Y154.19 E44.02504
G1 X292.555 Y154.986 E44.07219
G1 X293.15 Y155.897 E44.12286
G1 X294.659 Y158.135 E44.24855
G1 X296.204 Y160.295 E44.3722
G1 X297.829 Y162.435 E44.49733
G1 X299.475 Y164.482 E44.61963
G1 X301.198 Y166.502 E44.74326
G1 X303.021 Y168.52 E44.86989
G1 X304.82 Y170.404 E44.99119
G1 X306.748 Y172.311 E45.11747
G1 X308.684 Y174.121 E45.24088
G1 X310.645 Y175.85 E45.36261
G1 X312.735 Y177.594 E45.48936
G1 X314.803 Y179.223 E45.61194
G1 X316.952 Y180.817 E45.73653
G1 X319.112 Y182.327 E45.85925
G1 X321.372 Y183.815 E45.98525
G1 X323.617 Y185.202 E46.10813
G1 X325.935 Y186.547 E46.23292
G1 X328.267 Y187.811 E46.35643
G1 X330.651 Y189.019 E46.48088
G1 X333.042 Y190.146 E46.60396
G1 X335.468 Y191.207 E46.72726
G1 X338.009 Y192.235 E46.85489
G1 X340.441 Y193.136 E46.97566
G1 X342.974 Y193.997 E47.10023
G1 X345.541 Y194.788 E47.22531
G1 X348.082 Y195.494 E47.34811
G1 X350.669 Y196.134 E47.4722
G1 X352.385 Y196.507 E47.55397
G1 X353.743 Y196.805 E47.61871
G1 X354.4 Y196.99 E47.65049
G1 X355.032 Y197.251 E47.68233
G1 X355.629 Y197.583 E47.71414
G1 X356.182 Y197.984 E47.74595
G1 X356.686 Y198.446 E47.77779
G1 X357.132 Y198.963 E47.80958
G1 X357.514 Y199.53 E47.84141
G1 X357.827 Y200.137 E47.87321
G1 X358.068 Y200.776 E47.90502
G1 X358.232 Y201.439 E47.93682
G1 X358.329 Y202.345 E47.97925
G1 X358.34 Y202.83 E48.00184
G1 X358.34 Y219.836 E48.79371
G1 X358.331 Y220.563 E48.82756
G1 X358.282 Y221.245 E48.8594
G1 X358.154 Y221.916 E48.89121
G1 X357.949 Y222.568 E48.92303
G1 X357.669 Y223.191 E48.95484
G1 X357.319 Y223.777 E48.98662
G1 X356.902 Y224.319 E49.01846
G1 X356.425 Y224.808 E49.05027
G1 X355.894 Y225.237 E49.08206
G1 X355.316 Y225.602 E49.11389
G1 X354.7 Y225.897 E49.14569
G1 X354.053 Y226.118 E49.17753
G1 X353.385 Y226.262 E49.20935
G1 X352.655 Y226.329 E49.24348
G1 X352.17 Y226.34 E49.26607
G1 X345.708 Y226.34 E49.56697
G1 X343.057 Y226.377 E49.69042
