;FLAVOR:Marlin
;TIME:1750
;Filament used: 1.31488m
;Layer height: 0.2
;MINX:179.417
;MINY:165.841
;MINZ:0.2
;MAXX:220.583
;MAXY:234.173
;MAXZ:8
;Generated with Cura_SteamEngine 4.11.0
M140 S60
M105
M190 S60
M104 S200
M105
M109 S200
M82 ;absolute extrusion mode
M107 ;Start with the fan off
G21 ;Set units to millimeters
G91 ;Change to relative positioning mode for retract filament and nozzle lifting
G1 F200 E-3 ;Retract 3mm filament for a clean start
G92 E0 ;Zero the extruded length
G1 F1000 Z5 ;Lift the nozzle 5mm before homing axes
G90 ;Absolute positioning
M82 ;Set extruder to absolute mode too
G28 X0 Y0 ;First move X/Y to min endstops
G28 Z0 ;Then move Z to min endstops
G1 F1000 Z15 ;After homing lift the nozzle 15mm before start printing

G92 E0
G92 E0
G1 F2400 E-6
;LAYER_COUNT:40
;LAYER:0
M106 S255
M204 S3000
M205 X10 Y10
G1 F600 Z0.275
G0 F3000 X185.277 Y169.48 Z0.275
M204 S1800
M205 X8 Y8
;TYPE:SKIRT
G1 F600 Z0.2
G1 F2400 E0
G1 X185.76 Y168.953 E0.03329
G1 X186.299 Y168.483 E0.06659
G1 X186.887 Y168.076 E0.09989
G1 X187.517 Y167.737 E0.1332
G1 X188.18 Y167.47 E0.16648
G1 X188.822 Y167.29 E0.19753
G1 X189.9 Y167.048 E0.24897
G1 X192.958 Y166.423 E0.39431
G1 X193.652 Y166.291 E0.4272
G1 X194.211 Y166.21 E0.4535
G1 X194.933 Y166.149 E0.48724
G1 X199.082 Y165.879 E0.68085
G1 X199.767 Y165.845 E0.71278
G1 X200.322 Y165.841 E0.73863
G1 X200.85 Y165.864 E0.76324
G1 X205.13 Y166.143 E0.96295
G1 X205.82 Y166.198 E0.99519
G1 X206.319 Y166.258 E1.01859
G1 X207.101 Y166.401 E1.05561
G1 X210.54 Y167.104 E1.21905
G1 X211.309 Y167.274 E1.25572
G1 X211.998 Y167.467 E1.28904
G1 X212.661 Y167.736 E1.32236
G1 X213.289 Y168.078 E1.35565
G1 X213.876 Y168.487 E1.38897
G1 X214.413 Y168.959 E1.42226
G1 X214.894 Y169.489 E1.45559
G1 X215.313 Y170.068 E1.48887
G1 X215.665 Y170.691 E1.52219
G1 X215.945 Y171.349 E1.55548
G1 X216.15 Y172.034 E1.58878
G1 X216.277 Y172.738 E1.62209
G1 X216.324 Y173.393 E1.65267
G1 X216.344 Y174.465 E1.70259
G1 X216.344 Y193.453 E2.58675
G1 X216.382 Y196.097 E2.70988
G1 X216.494 Y198.735 E2.83283
G1 X216.681 Y201.381 E2.95634
G1 X216.945 Y204.036 E3.08058
G1 X217.279 Y206.647 E3.20315
G1 X217.689 Y209.259 E3.32627
G1 X218.169 Y211.841 E3.44856
G1 X218.73 Y214.446 E3.57264
G1 X219.357 Y217.005 E3.69532
G1 X220.103 Y219.649 E3.82324
G1 X220.347 Y220.545 E3.86648
G1 X220.496 Y221.245 E3.89981
G1 X220.555 Y221.76 E3.92394
G1 X220.574 Y222.186 E3.9438
G1 X220.583 Y222.896 E3.97686
G1 X220.582 Y227.125 E4.17378
G1 X220.572 Y227.852 E4.20764
G1 X220.523 Y228.566 E4.24096
G1 X220.394 Y229.269 E4.27424
G1 X220.187 Y229.954 E4.30757
G1 X219.905 Y230.611 E4.34086
G1 X219.551 Y231.233 E4.37418
G1 X219.131 Y231.811 E4.40745
G1 X218.648 Y232.339 E4.44077
G1 X218.11 Y232.81 E4.47407
G1 X217.522 Y233.218 E4.50739
G1 X216.892 Y233.558 E4.54073
G1 X216.229 Y233.825 E4.57401
G1 X215.54 Y234.016 E4.6073
G1 X214.834 Y234.13 E4.6406
G1 X214.033 Y234.17 E4.67795
G1 X213.853 Y234.173 E4.68633
G1 X208.737 Y234.172 E4.92455
G1 X208.042 Y234.162 E4.95692
G1 X207.682 Y234.147 E4.9737
G1 X206.673 Y234.076 E5.02079
G1 X203.942 Y233.921 E5.14817
G1 X201.332 Y233.846 E5.26975
G1 X198.689 Y233.846 E5.39282
G1 X196.015 Y233.921 E5.51738
G1 X193.325 Y234.073 E5.64284
G1 X192.461 Y234.14 E5.68319
G1 X191.736 Y234.17 E5.71698
G1 X191.556 Y234.173 E5.72536
G1 X186.432 Y234.172 E5.96396
G1 X185.734 Y234.162 E5.99646
G1 X185.021 Y234.112 E6.02974
G1 X184.317 Y233.983 E6.06307
G1 X183.633 Y233.775 E6.09636
G1 X182.976 Y233.493 E6.12965
G1 X182.354 Y233.139 E6.16298
G1 X181.776 Y232.718 E6.19627
G1 X181.248 Y232.235 E6.22959
G1 X180.778 Y231.697 E6.26286
G1 X180.37 Y231.109 E6.29618
G1 X180.031 Y230.479 E6.3295
G1 X179.764 Y229.816 E6.36278
G1 X179.573 Y229.126 E6.39612
G1 X179.46 Y228.42 E6.42941
G1 X179.419 Y227.604 E6.46745
G1 X179.417 Y227.431 E6.47551
G1 X179.418 Y222.835 E6.68952
G1 X179.429 Y222.124 E6.72263
G1 X179.48 Y221.411 E6.75591
G1 X179.683 Y220.434 E6.80238
G1 X180.461 Y217.763 E6.93192
G1 X181.119 Y215.235 E7.05356
G1 X181.721 Y212.628 E7.17814
G1 X182.241 Y210.03 E7.30152
G1 X182.685 Y207.438 E7.42397
G1 X183.059 Y204.817 E7.54725
G1 X183.358 Y202.191 E7.67032
G1 X183.584 Y199.543 E7.79407
G1 X183.735 Y196.88 E7.91827
G1 X183.81 Y194.26 E8.04032
G1 X183.82 Y192.869 E8.10509
G1 X183.821 Y174.113 E8.97845
G1 X183.831 Y173.438 E9.00988
G1 X183.881 Y172.725 E9.04316
G1 X184.011 Y172.021 E9.0765
G1 X184.219 Y171.337 E9.10979
G1 X184.501 Y170.68 E9.14308
G1 X184.855 Y170.058 E9.1764
G1 X185.277 Y169.48 E9.20973
M204 S3000
M205 X10 Y10
G0 F3000 X185.829 Y169.695
M204 S1800
M205 X8 Y8
G1 F2400 X186.307 Y169.207 E9.24154
G1 X186.839 Y168.778 E9.27336
G1 X187.418 Y168.415 E9.30518
G1 X188.035 Y168.121 E9.33701
G1 X188.945 Y167.836 E9.38141
G1 X189.898 Y167.621 E9.4269
G1 X193.063 Y166.973 E9.57733
G1 X193.757 Y166.841 E9.61023
G1 X194.267 Y166.767 E9.63422
G1 X194.977 Y166.707 E9.6674
G1 X199.019 Y166.443 E9.85602
G1 X199.794 Y166.404 E9.89215
G1 X200.301 Y166.401 E9.91576
G1 X200.814 Y166.422 E9.93966
G1 X205.085 Y166.701 E10.13896
G1 X205.775 Y166.756 E10.1712
G1 X206.368 Y166.833 E10.19904
G1 X206.995 Y166.951 E10.22875
G1 X210.52 Y167.672 E10.39628
G1 X211.188 Y167.82 E10.42814
G1 X211.846 Y168.007 E10.46
G1 X212.477 Y168.269 E10.49181
G1 X213.073 Y168.603 E10.52362
G1 X213.626 Y169.004 E10.55543
G1 X214.128 Y169.467 E10.58723
G1 X214.573 Y169.986 E10.61906
G1 X214.954 Y170.553 E10.65087
G1 X215.266 Y171.16 E10.68265
G1 X215.505 Y171.8 E10.71446
G1 X215.668 Y172.464 E10.7463
G1 X215.764 Y173.404 E10.7903
G1 X215.784 Y174.465 E10.83971
G1 X215.784 Y193.453 E11.72387
G1 X215.821 Y196.092 E11.84677
G1 X215.936 Y198.8 E11.97298
G1 X216.121 Y201.403 E12.09449
G1 X216.388 Y204.093 E12.22036
G1 X216.726 Y206.735 E12.34439
G1 X217.135 Y209.339 E12.46713
G1 X217.628 Y211.992 E12.59278
G1 X218.179 Y214.553 E12.71476
G1 X218.817 Y217.156 E12.83955
G1 X219.563 Y219.797 E12.96734
G1 X219.807 Y220.693 E13.01058
G1 X219.947 Y221.361 E13.04236
G1 X220.015 Y222.194 E13.08128
G1 X220.023 Y222.822 E13.11052
G1 X220.022 Y227.117 E13.31052
G1 X220.012 Y227.844 E13.34437
G1 X219.963 Y228.526 E13.37621
G1 X219.835 Y229.197 E13.40802
G1 X219.628 Y229.848 E13.43983
G1 X219.348 Y230.471 E13.47163
G1 X218.996 Y231.057 E13.50346
G1 X218.579 Y231.598 E13.53527
G1 X218.101 Y232.086 E13.56708
G1 X217.569 Y232.515 E13.5989
G1 X216.991 Y232.879 E13.63071
G1 X216.374 Y233.173 E13.66253
G1 X215.727 Y233.393 E13.69435
G1 X215.059 Y233.536 E13.72616
G1 X214.337 Y233.602 E13.75992
G1 X213.853 Y233.613 E13.78246
G1 X208.745 Y233.612 E14.02031
G1 X208.05 Y233.602 E14.05268
G1 X207.721 Y233.588 E14.06801
G1 X206.731 Y233.518 E14.11423
G1 X203.99 Y233.363 E14.24206
G1 X201.313 Y233.286 E14.36677
G1 X198.673 Y233.286 E14.4897
G1 X196.003 Y233.361 E14.61407
G1 X193.3 Y233.514 E14.74014
G1 X192.427 Y233.581 E14.78091
G1 X191.72 Y233.611 E14.81386
G1 X191.556 Y233.613 E14.82149
G1 X186.44 Y233.612 E15.05972
G1 X185.742 Y233.602 E15.09222
G1 X185.061 Y233.553 E15.12401
G1 X184.39 Y233.424 E15.15583
G1 X183.739 Y233.217 E15.18764
G1 X183.116 Y232.936 E15.21946
G1 X182.53 Y232.584 E15.25129
G1 X181.99 Y232.166 E15.28309
G1 X181.502 Y231.688 E15.3149
G1 X181.073 Y231.156 E15.34672
G1 X180.709 Y230.578 E15.37853
G1 X180.415 Y229.961 E15.41035
G1 X180.196 Y229.314 E15.44216
G1 X180.053 Y228.646 E15.47397
G1 X179.988 Y227.921 E15.50786
G1 X179.977 Y227.431 E15.53069
G1 X179.978 Y222.844 E15.74428
G1 X179.989 Y222.133 E15.77739
G1 X180.039 Y221.451 E15.80923
G1 X180.221 Y220.591 E15.85016
G1 X180.997 Y217.926 E15.97941
G1 X181.666 Y215.358 E16.10298
G1 X182.266 Y212.761 E16.22709
G1 X182.792 Y210.131 E16.35198
G1 X183.237 Y207.537 E16.47453
G1 X183.614 Y204.889 E16.59908
G1 X183.917 Y202.229 E16.72374
G1 X184.143 Y199.588 E16.84716
G1 X184.293 Y196.928 E16.97122
G1 X184.371 Y194.234 E17.09672
G1 X184.38 Y192.873 E17.16009
G1 X184.381 Y174.121 E18.03326
G1 X184.391 Y173.446 E18.0647
G1 X184.441 Y172.765 E18.09649
G1 X184.57 Y172.094 E18.12831
G1 X184.777 Y171.443 E18.16012
G1 X185.058 Y170.82 E18.19194
G1 X185.41 Y170.235 E18.22373
G1 X185.829 Y169.695 E18.25556
M204 S3000
M205 X10 Y10
G0 F3000 X185.965 Y170.421
M204 S1800
M205 X8 Y8
G1 F2400 X186.379 Y169.921 E18.28579
G1 X186.852 Y169.475 E18.31606
G1 X187.376 Y169.091 E18.34631
G1 X187.943 Y168.774 E18.37656
G1 X188.545 Y168.529 E18.40682
G1 X189.068 Y168.382 E18.43212
G1 X190.124 Y168.145 E18.48251
G1 X193.167 Y167.523 E18.62714
G1 X193.861 Y167.391 E18.66003
G1 X194.433 Y167.313 E18.68691
G1 X195.021 Y167.265 E18.71438
G1 X199.137 Y166.997 E18.90645
G1 X199.822 Y166.963 E18.93838
G1 X200.778 Y166.981 E18.98291
G1 X205.041 Y167.26 E19.18184
G1 X205.731 Y167.315 E19.21407
G1 X206.28 Y167.386 E19.23984
G1 X206.889 Y167.5 E19.26869
G1 X210.399 Y168.219 E19.43553
G1 X211.067 Y168.367 E19.46739
G1 X211.692 Y168.546 E19.49766
G1 X212.289 Y168.801 E19.52789
G1 X212.851 Y169.127 E19.55814
G1 X213.369 Y169.519 E19.58839
G1 X213.834 Y169.973 E19.61865
G1 X214.24 Y170.48 E19.6489
G1 X214.581 Y171.033 E19.67915
G1 X214.852 Y171.623 E19.70938
G1 X215.048 Y172.243 E19.73966
G1 X215.166 Y172.881 E19.76987
G1 X215.204 Y173.416 E19.79484
G1 X215.224 Y174.465 E19.8437
G1 X215.224 Y193.453 E20.72786
G1 X215.262 Y196.124 E20.85225
G1 X215.375 Y198.791 E20.97654
G1 X215.567 Y201.498 E21.10291
G1 X215.83 Y204.149 E21.22696
G1 X216.168 Y206.79 E21.35094
G1 X216.586 Y209.453 E21.47645
G1 X217.074 Y212.076 E21.60069
G1 X217.637 Y214.693 E21.72533
G1 X218.276 Y217.298 E21.85023
G1 X219.022 Y219.944 E21.97824
G1 X219.266 Y220.84 E22.02148
G1 X219.398 Y221.476 E22.05173
G1 X219.455 Y222.201 E22.08559
G1 X219.463 Y222.829 E22.11484
G1 X219.463 Y227.11 E22.31418
G1 X219.453 Y227.837 E22.34803
G1 X219.404 Y228.484 E22.37825
G1 X219.276 Y229.121 E22.4085
G1 X219.07 Y229.738 E22.43879
G1 X218.791 Y230.324 E22.46901
G1 X218.442 Y230.872 E22.49926
G1 X218.028 Y231.372 E22.52949
G1 X217.555 Y231.818 E22.55976
G1 X217.032 Y232.203 E22.59
G1 X216.465 Y232.521 E22.62027
G1 X215.864 Y232.766 E22.6505
G1 X215.237 Y232.936 E22.68075
G1 X214.321 Y233.042 E22.72368
G1 X213.853 Y233.053 E22.74548
G1 X208.753 Y233.052 E22.98296
G1 X208.058 Y233.042 E23.01532
G1 X207.761 Y233.03 E23.02916
G1 X206.745 Y232.958 E23.07659
G1 X204.001 Y232.803 E23.20457
G1 X201.329 Y232.726 E23.32904
G1 X198.657 Y232.726 E23.45346
G1 X195.992 Y232.8 E23.5776
G1 X193.268 Y232.955 E23.70465
G1 X192.393 Y233.022 E23.74551
G1 X191.704 Y233.051 E23.77762
G1 X191.556 Y233.053 E23.78451
G1 X186.448 Y233.052 E24.02236
G1 X185.75 Y233.042 E24.05487
G1 X185.103 Y232.993 E24.08508
G1 X184.466 Y232.865 E24.11534
G1 X183.85 Y232.659 E24.14558
G1 X183.263 Y232.379 E24.17586
G1 X182.716 Y232.03 E24.20608
G1 X182.215 Y231.616 E24.23634
G1 X181.77 Y231.143 E24.26658
G1 X181.385 Y230.619 E24.29686
G1 X181.068 Y230.052 E24.32711
G1 X180.823 Y229.451 E24.35733
G1 X180.654 Y228.824 E24.38756
G1 X180.548 Y227.906 E24.43059
G1 X180.537 Y227.431 E24.45272
G1 X180.538 Y222.852 E24.66594
G1 X180.549 Y222.141 E24.69905
G1 X180.599 Y221.494 E24.72926
G1 X180.758 Y220.747 E24.76483
G1 X181.544 Y218.046 E24.89581
G1 X182.204 Y215.515 E25.01761
G1 X182.824 Y212.828 E25.14601
G1 X183.338 Y210.261 E25.26792
G1 X183.793 Y207.607 E25.3933
G1 X184.17 Y204.958 E25.51789
G1 X184.472 Y202.306 E25.64218
G1 X184.701 Y199.635 E25.76701
G1 X184.853 Y196.939 E25.89274
G1 X184.93 Y194.254 E26.01782
G1 X184.94 Y192.877 E26.08194
G1 X184.941 Y174.13 E26.95488
G1 X184.951 Y173.455 E26.98631
G1 X185 Y172.807 E27.01657
G1 X185.129 Y172.17 E27.04684
G1 X185.335 Y171.554 E27.07708
G1 X185.615 Y170.968 E27.10732
G1 X185.965 Y170.421 E27.13756
M204 S3000
M205 X10 Y10
G1 F2400 E21.13756
;MESH:jst puller size 6.stl
G0 F3000 X189.562 Y219.804
G0 X191.076 Y220.778
G0 X188.82 Y223.987
M204 S1800
M205 X8 Y8
;TYPE:WALL-INNER
G1 F2400 E27.13756
G1 F1500 X188.82 Y226.373 E27.24866
G1 X187.217 Y226.373 E27.32331
G1 X187.217 Y223.129 E27.47436
G1 X191.62 Y221.129 E27.69954
G1 X191.62 Y174.657 E29.86347
G1 X195.036 Y173.958 E30.02583
G1 X198.486 Y173.733 E30.18682
G1 X198.827 Y173.711 E30.20273
G1 X200.061 Y173.631 E30.26031
G1 X200.082 Y173.629 E30.2613
G1 X200.128 Y173.631 E30.26344
G1 X201.363 Y173.712 E30.32107
G1 X201.679 Y173.732 E30.33581
G1 X205.128 Y173.958 E30.49676
G1 X208.544 Y174.657 E30.65912
G1 X208.544 Y221.114 E32.82235
G1 X212.783 Y223.114 E33.0406
G1 X212.783 Y226.373 E33.19235
G1 X211.344 Y226.373 E33.25936
G1 X211.344 Y223.987 E33.37046
G1 X188.82 Y223.987 E34.41927
M204 S3000
M205 X10 Y10
G0 F3000 X191.093 Y220.789
G0 X200.068 Y180.95
M204 S1800
M205 X8 Y8
G1 F1500 X201.303 Y180.871 E34.4769
G1 X202.485 Y180.632 E34.53305
G1 X203.565 Y180.223 E34.58683
G1 X204.513 Y179.617 E34.63922
G1 X205.257 Y178.737 E34.69288
G1 X205.578 Y177.561 E34.74964
G1 X205.268 Y176.38 E34.80649
G1 X204.531 Y175.492 E34.86023
G1 X203.588 Y174.882 E34.91253
G1 X202.508 Y174.47 E34.96635
G1 X201.64 Y174.291 E35.00762
G1 X201.33 Y174.227 E35.02178
G1 X200.095 Y174.144 E35.07479
G1 X198.861 Y174.224 E35.12764
G1 X198.526 Y174.291 E35.14289
G1 X197.681 Y174.462 E35.18304
G1 X196.599 Y174.871 E35.2369
G1 X195.65 Y175.477 E35.28933
G1 X194.906 Y176.359 E35.34306
G1 X194.588 Y177.535 E35.39979
G1 X194.895 Y178.714 E35.45651
G1 X195.632 Y179.6 E35.51018
G1 X196.575 Y180.213 E35.56255
G1 X197.656 Y180.625 E35.61642
G1 X198.835 Y180.868 E35.67247
G1 X200.068 Y180.95 E35.73001
M204 S3000
M205 X10 Y10
G0 F3000 X191.093 Y220.789
G0 X189.31 Y224.477
G0 X189.38 Y224.547
M204 S1800
M205 X8 Y8
G1 F1500 X189.38 Y226.933 E35.84111
G1 X186.657 Y226.933 E35.96791
G1 X186.657 Y222.768 E36.16185
G1 X191.06 Y220.768 E36.38703
G1 X191.06 Y174.2 E38.55543
G1 X194.96 Y173.402 E38.74079
G1 X200.082 Y173.068 E38.9798
G1 X205.204 Y173.402 E39.21881
G1 X209.104 Y174.2 E39.40417
G1 X209.104 Y220.759 E41.57216
G1 X213.343 Y222.759 E41.79041
G1 X213.343 Y226.933 E41.98477
G1 X210.784 Y226.933 E42.10392
G1 X210.784 Y224.547 E42.21503
G1 X189.38 Y224.547 E43.21169
M204 S3000
M205 X10 Y10
G0 F3000 X189.31 Y224.477
G0 X191.093 Y220.789
G0 X200.069 Y180.489
G0 X200.069 Y180.389
M204 S1800
M205 X8 Y8
G1 F1500 X201.229 Y180.315 E43.26581
G1 X202.329 Y180.092 E43.31807
G1 X203.312 Y179.72 E43.36701
G1 X204.14 Y179.191 E43.41277
G1 X204.749 Y178.47 E43.45671
G1 X204.998 Y177.558 E43.50073
G1 X204.758 Y176.642 E43.54483
G1 X204.155 Y175.916 E43.58877
G1 X203.333 Y175.384 E43.63436
G1 X202.351 Y175.009 E43.68331
G1 X201.254 Y174.783 E43.73546
G1 X200.094 Y174.705 E43.7896
G1 X198.935 Y174.78 E43.84368
G1 X197.836 Y175.002 E43.89589
G1 X196.851 Y175.374 E43.94492
G1 X196.023 Y175.903 E43.99067
G1 X195.414 Y176.625 E44.03465
G1 X195.167 Y177.538 E44.07869
G1 X195.405 Y178.452 E44.12267
G1 X196.008 Y179.177 E44.16658
G1 X196.83 Y179.711 E44.21222
G1 X197.813 Y180.086 E44.26121
G1 X198.91 Y180.312 E44.31337
G1 X200.069 Y180.389 E44.36746
M204 S3000
M205 X10 Y10
G0 F3000 X200.069 Y180.489
G0 X191.093 Y220.789
G0 X189.352 Y224.519
G0 X189.28 Y226.663
G0 X189.94 Y226.663
M204 S1800
M205 X8 Y8
;TYPE:WALL-OUTER
G1 F1500 X191.606 Y226.663 E44.44503
G1 X191.606 Y227.493 E44.48368
G1 X186.097 Y227.493 E44.7402
G1 X186.097 Y222.407 E44.97703
G1 X190.5 Y220.407 E45.20221
G1 X190.5 Y173.743 E47.37508
G1 X194.884 Y172.846 E47.58345
G1 X200.082 Y172.507 E47.826
G1 X205.28 Y172.846 E48.06856
G1 X209.664 Y173.743 E48.27692
G1 X209.664 Y220.404 E50.44966
G1 X213.903 Y222.404 E50.66791
G1 X213.903 Y227.493 E50.90487
G1 X208.402 Y227.493 E51.16102
G1 X208.402 Y226.663 E51.19967
G1 X210.224 Y226.663 E51.28451
G1 X210.224 Y225.107 E51.35696
G1 X189.94 Y225.107 E52.30147
G1 X189.94 Y226.663 E52.37393
M204 S3000
M205 X10 Y10
G0 F3000 X190.14 Y226.663
G0 X189.28 Y226.663
G0 X189.352 Y224.519
G0 X191.093 Y220.789
G0 X200.026 Y180.485
G0 X200.07 Y179.828
M204 S1800
M205 X8 Y8
G1 F1500 X201.155 Y179.759 E52.42455
G1 X202.173 Y179.552 E52.47292
G1 X203.06 Y179.217 E52.51707
G1 X203.767 Y178.765 E52.55615
G1 X204.241 Y178.203 E52.59038
G1 X204.418 Y177.555 E52.62166
G1 X204.248 Y176.904 E52.65299
G1 X203.779 Y176.34 E52.68715
G1 X203.078 Y175.886 E52.72603
G1 X202.194 Y175.548 E52.7701
G1 X201.178 Y175.339 E52.8184
