;FLAVOR:Marlin
;TIME:1498
;Filament used: 1.11835m
;Layer height: 0.2
;MINX:181.681
;MINY:165.853
;MINZ:0.2
;MAXX:218.319
;MAXY:234.173
;MAXZ:8
;Generated with Cura_SteamEngine 4.11.0
M140 S60
M105
M190 S60
M104 S200
M105
M109 S200
M82 ;absolute extrusion mode
M107 ;Start with the fan off
G21 ;Set units to millimeters
G91 ;Change to relative positioning mode for retract filament and nozzle lifting
G1 F200 E-3 ;Retract 3mm filament for a clean start
G92 E0 ;Zero the extruded length
G1 F1000 Z5 ;Lift the nozzle 5mm before homing axes
G90 ;Absolute positioning
M82 ;Set extruder to absolute mode too
G28 X0 Y0 ;First move X/Y to min endstops
G28 Z0 ;Then move Z to min endstops
G1 F1000 Z15 ;After homing lift the nozzle 15mm before start printing

G92 E0
G92 E0
G1 F2400 E-6
;LAYER_COUNT:40
;LAYER:0
M106 S255
M204 S3000
M205 X10 Y10
G1 F600 Z0.275
G0 F3000 X186.836 Y169.473 Z0.275
M204 S1800
M205 X8 Y8
;TYPE:SKIRT
G1 F600 Z0.2
G1 F2400 E0
G1 X187.319 Y168.945 E0.03332
G1 X187.858 Y168.475 E0.06662
G1 X188.446 Y168.068 E0.09992
G1 X189.076 Y167.728 E0.13325
G1 X189.74 Y167.462 E0.16656
G1 X190.189 Y167.328 E0.18838
G1 X191.063 Y167.102 E0.23042
G1 X193.567 Y166.494 E0.3504
G1 X194.239 Y166.34 E0.3825
G1 X194.966 Y166.217 E0.41684
G1 X195.639 Y166.151 E0.44832
G1 X198.927 Y165.897 E0.60188
G1 X199.562 Y165.856 E0.63151
G1 X200.335 Y165.853 E0.66751
G1 X201.601 Y165.926 E0.72656
G1 X204.346 Y166.14 E0.85476
G1 X205.043 Y166.204 E0.88735
G1 X205.697 Y166.298 E0.91812
G1 X206.2 Y166.404 E0.94206
G1 X209.232 Y167.142 E1.08736
G1 X209.937 Y167.323 E1.12125
G1 X210.618 Y167.539 E1.15452
G1 X211.272 Y167.83 E1.18785
G1 X211.888 Y168.192 E1.22112
G1 X212.461 Y168.621 E1.25445
G1 X212.982 Y169.111 E1.28776
G1 X213.445 Y169.656 E1.32105
G1 X213.845 Y170.249 E1.35436
G1 X214.176 Y170.883 E1.38767
G1 X214.434 Y171.551 E1.42101
G1 X214.616 Y172.242 E1.45428
G1 X214.719 Y172.95 E1.4876
G1 X214.744 Y173.425 E1.50975
G1 X214.756 Y174.251 E1.54821
G1 X214.756 Y195.773 E2.55037
G1 X214.794 Y198.417 E2.67349
G1 X214.906 Y201.055 E2.79644
G1 X215.093 Y203.701 E2.91996
G1 X215.357 Y206.356 E3.0442
G1 X215.691 Y208.967 E3.16677
G1 X216.101 Y211.579 E3.28988
G1 X216.584 Y214.177 E3.41293
G1 X217.134 Y216.735 E3.53476
G1 X217.761 Y219.293 E3.6574
G1 X218.094 Y220.582 E3.71939
G1 X218.234 Y221.283 E3.75268
G1 X218.296 Y222.05 E3.78851
G1 X218.318 Y223.115 E3.83811
G1 X218.319 Y227.037 E4.02073
G1 X218.308 Y227.852 E4.05869
G1 X218.259 Y228.566 E4.09201
G1 X218.13 Y229.269 E4.12529
G1 X217.923 Y229.954 E4.15861
G1 X217.641 Y230.611 E4.1919
G1 X217.287 Y231.233 E4.22523
G1 X216.867 Y231.811 E4.2585
G1 X216.384 Y232.339 E4.29182
G1 X215.846 Y232.81 E4.32512
G1 X215.258 Y233.218 E4.35844
G1 X214.628 Y233.558 E4.39178
G1 X213.965 Y233.825 E4.42506
G1 X213.276 Y234.016 E4.45835
G1 X212.57 Y234.13 E4.49165
G1 X211.769 Y234.17 E4.52899
G1 X211.589 Y234.173 E4.53738
G1 X207.442 Y234.172 E4.73048
G1 X206.737 Y234.162 E4.76331
G1 X206.206 Y234.142 E4.78805
G1 X204.024 Y234.018 E4.88982
G1 X201.419 Y233.943 E5.01117
G1 X198.776 Y233.943 E5.13424
G1 X196.062 Y234.019 E5.26066
G1 X194.593 Y234.092 E5.32915
G1 X193.546 Y234.152 E5.37798
G1 X193.046 Y234.17 E5.40128
G1 X192.851 Y234.173 E5.41036
G1 X188.705 Y234.172 E5.60342
G1 X188.007 Y234.163 E5.63592
G1 X187.294 Y234.114 E5.6692
G1 X186.59 Y233.986 E5.70252
G1 X185.905 Y233.78 E5.73583
G1 X185.248 Y233.498 E5.76912
G1 X184.626 Y233.145 E5.80242
G1 X184.047 Y232.725 E5.83573
G1 X183.518 Y232.243 E5.86905
G1 X183.047 Y231.705 E5.90235
G1 X182.639 Y231.118 E5.93563
G1 X182.299 Y230.488 E5.96897
G1 X182.031 Y229.825 E6.00227
G1 X181.839 Y229.136 E6.03557
G1 X181.725 Y228.43 E6.06887
G1 X181.683 Y227.604 E6.10738
G1 X181.681 Y227.431 E6.11544
G1 X181.682 Y222.834 E6.3295
G1 X181.693 Y222.127 E6.36242
G1 X181.75 Y221.366 E6.39796
G1 X181.927 Y220.499 E6.43916
G1 X182.032 Y220.121 E6.45743
G1 X182.698 Y217.557 E6.58078
G1 X183.288 Y214.998 E6.70306
G1 X183.812 Y212.372 E6.82775
G1 X184.253 Y209.792 E6.94963
G1 X184.626 Y207.172 E7.07286
G1 X184.925 Y204.538 E7.1963
G1 X185.148 Y201.908 E7.3192
G1 X185.295 Y199.287 E7.44144
G1 X185.381 Y195.223 E7.63071
G1 X185.382 Y174.12 E8.61336
G1 X185.392 Y173.431 E8.64544
G1 X185.442 Y172.718 E8.67873
G1 X185.572 Y172.014 E8.71206
G1 X185.779 Y171.33 E8.74534
G1 X186.061 Y170.673 E8.77863
G1 X186.415 Y170.051 E8.81196
G1 X186.836 Y169.473 E8.84525
M204 S3000
M205 X10 Y10
G0 F3000 X187.388 Y169.687
M204 S1800
M205 X8 Y8
G1 F2400 X187.867 Y169.199 E8.87709
G1 X188.399 Y168.77 E8.90892
G1 X188.977 Y168.407 E8.9407
G1 X189.594 Y168.113 E8.97252
G1 X190.329 Y167.87 E9.00857
G1 X191.195 Y167.647 E9.05021
G1 X193.692 Y167.04 E9.16987
G1 X194.364 Y166.886 E9.20197
G1 X195.027 Y166.773 E9.23329
G1 X195.689 Y166.709 E9.26425
G1 X198.889 Y166.461 E9.41371
G1 X199.598 Y166.415 E9.44679
G1 X200.304 Y166.412 E9.47966
G1 X201.558 Y166.484 E9.53815
G1 X204.295 Y166.697 E9.66598
G1 X204.992 Y166.761 E9.69858
G1 X205.589 Y166.848 E9.72667
G1 X206.067 Y166.948 E9.74941
G1 X209.092 Y167.684 E9.89437
G1 X209.797 Y167.865 E9.92827
G1 X210.448 Y168.074 E9.9601
G1 X211.07 Y168.357 E9.99192
G1 X211.654 Y168.71 E10.0237
G1 X212.194 Y169.13 E10.05555
G1 X212.68 Y169.609 E10.08733
G1 X213.108 Y170.142 E10.11916
G1 X213.47 Y170.722 E10.15099
G1 X213.762 Y171.339 E10.18278
G1 X213.98 Y171.987 E10.21461
G1 X214.12 Y172.656 E10.24644
G1 X214.184 Y173.434 E10.28279
G1 X214.196 Y174.251 E10.32084
G1 X214.196 Y195.773 E11.32299
G1 X214.233 Y198.412 E11.44589
G1 X214.348 Y201.12 E11.5721
G1 X214.533 Y203.723 E11.69361
G1 X214.8 Y206.413 E11.81948
G1 X215.138 Y209.055 E11.94351
G1 X215.547 Y211.659 E12.06625
G1 X216.037 Y214.294 E12.19105
G1 X216.593 Y216.884 E12.31439
G1 X217.207 Y219.386 E12.43436
G1 X217.552 Y220.722 E12.49861
G1 X217.683 Y221.392 E12.53039
G1 X217.736 Y222.061 E12.56164
G1 X217.759 Y223.247 E12.61688
G1 X217.758 Y227.117 E12.79708
G1 X217.748 Y227.844 E12.83094
G1 X217.699 Y228.526 E12.86278
G1 X217.571 Y229.197 E12.89458
G1 X217.364 Y229.848 E12.92639
G1 X217.084 Y230.471 E12.9582
G1 X216.732 Y231.057 E12.99003
G1 X216.315 Y231.598 E13.02183
G1 X215.837 Y232.086 E13.05364
G1 X215.305 Y232.515 E13.08547
G1 X214.727 Y232.879 E13.11727
G1 X214.11 Y233.173 E13.1491
G1 X213.463 Y233.393 E13.18092
G1 X212.795 Y233.536 E13.21273
G1 X212.073 Y233.602 E13.24649
G1 X211.589 Y233.613 E13.26903
G1 X207.45 Y233.612 E13.46176
G1 X206.579 Y233.598 E13.50232
G1 X206.238 Y233.583 E13.51822
G1 X204.072 Y233.46 E13.61924
G1 X201.4 Y233.383 E13.74371
G1 X198.76 Y233.383 E13.86664
G1 X196.067 Y233.458 E13.99208
G1 X194.566 Y233.533 E14.06206
G1 X193.514 Y233.593 E14.11113
G1 X192.851 Y233.613 E14.14201
G1 X188.713 Y233.613 E14.3347
G1 X188.015 Y233.604 E14.3672
G1 X187.333 Y233.555 E14.39904
G1 X186.662 Y233.427 E14.43085
G1 X186.011 Y233.221 E14.46264
G1 X185.387 Y232.941 E14.49449
G1 X184.801 Y232.59 E14.5263
G1 X184.26 Y232.173 E14.5581
G1 X183.771 Y231.695 E14.58994
G1 X183.342 Y231.164 E14.62173
G1 X182.977 Y230.586 E14.65356
G1 X182.683 Y229.97 E14.68535
G1 X182.462 Y229.323 E14.71718
G1 X182.318 Y228.655 E14.749
G1 X182.252 Y227.922 E14.78327
G1 X182.241 Y227.431 E14.80614
G1 X182.242 Y222.843 E15.01978
G1 X182.253 Y222.136 E15.0527
G1 X182.305 Y221.44 E15.0852
G1 X182.467 Y220.649 E15.1228
G1 X182.559 Y220.317 E15.13884
G1 X183.236 Y217.714 E15.26408
G1 X183.847 Y215.066 E15.39062
G1 X184.357 Y212.508 E15.51207
G1 X184.808 Y209.868 E15.63679
G1 X185.181 Y207.244 E15.7602
G1 X185.483 Y204.579 E15.88509
G1 X185.706 Y201.95 E16.00794
G1 X185.855 Y199.302 E16.13144
G1 X185.941 Y195.235 E16.32086
G1 X185.942 Y174.128 E17.30369
G1 X185.952 Y173.439 E17.33577
G1 X186.001 Y172.758 E17.36757
G1 X186.131 Y172.087 E17.39939
G1 X186.337 Y171.436 E17.43119
G1 X186.618 Y170.813 E17.46301
G1 X186.97 Y170.227 E17.49484
G1 X187.388 Y169.687 E17.52664
M204 S3000
M205 X10 Y10
G0 F3000 X187.525 Y170.413
M204 S1800
M205 X8 Y8
G1 F2400 X187.939 Y169.913 E17.55687
G1 X188.412 Y169.467 E17.58714
G1 X188.936 Y169.083 E17.61739
G1 X189.503 Y168.766 E17.64764
G1 X190.104 Y168.521 E17.67786
G1 X190.469 Y168.412 E17.6956
G1 X191.328 Y168.191 E17.7369
G1 X193.818 Y167.585 E17.85623
G1 X194.49 Y167.431 E17.88833
G1 X195.089 Y167.33 E17.91661
G1 X195.739 Y167.267 E17.94702
G1 X198.999 Y167.015 E18.09927
G1 X199.634 Y166.974 E18.1289
G1 X200.272 Y166.971 E18.15861
G1 X201.404 Y167.035 E18.21141
G1 X204.244 Y167.255 E18.34405
G1 X204.941 Y167.319 E18.37664
G1 X205.48 Y167.397 E18.402
G1 X205.935 Y167.492 E18.42364
G1 X208.953 Y168.227 E18.56828
G1 X209.658 Y168.408 E18.60217
G1 X210.276 Y168.608 E18.63242
G1 X210.865 Y168.882 E18.66267
G1 X211.416 Y169.227 E18.69294
G1 X211.92 Y169.636 E18.72316
G1 X212.37 Y170.105 E18.75343
G1 X212.759 Y170.625 E18.78367
G1 X213.082 Y171.189 E18.81393
G1 X213.332 Y171.788 E18.84415
G1 X213.507 Y172.414 E18.87442
G1 X213.604 Y173.056 E18.90465
G1 X213.624 Y173.442 E18.92265
G1 X213.636 Y174.251 E18.96033
G1 X213.636 Y195.773 E19.96248
G1 X213.674 Y198.444 E20.08687
G1 X213.787 Y201.111 E20.21116
G1 X213.979 Y203.818 E20.33753
G1 X214.242 Y206.469 E20.46158
G1 X214.58 Y209.11 E20.58556
G1 X214.998 Y211.773 E20.71108
G1 X215.489 Y214.411 E20.83602
G1 X216.043 Y216.991 E20.9589
G1 X216.68 Y219.587 E21.08336
G1 X217.009 Y220.862 E21.14468
G1 X217.133 Y221.5 E21.17494
G1 X217.176 Y222.073 E21.2017
G1 X217.199 Y223.247 E21.25637
G1 X217.199 Y227.11 E21.43625
G1 X217.189 Y227.837 E21.47011
G1 X217.14 Y228.484 E21.50032
G1 X217.012 Y229.121 E21.53057
G1 X216.806 Y229.738 E21.56086
G1 X216.527 Y230.324 E21.59108
G1 X216.178 Y230.872 E21.62134
G1 X215.764 Y231.372 E21.65156
G1 X215.291 Y231.818 E21.68184
G1 X214.768 Y232.203 E21.71208
G1 X214.201 Y232.521 E21.74235
G1 X213.6 Y232.766 E21.77257
G1 X212.973 Y232.936 E21.80282
G1 X212.057 Y233.042 E21.84575
G1 X211.589 Y233.053 E21.86755
G1 X207.458 Y233.052 E22.05991
G1 X206.753 Y233.042 E22.09274
G1 X206.27 Y233.023 E22.11525
G1 X204.12 Y232.9 E22.21552
G1 X201.416 Y232.823 E22.34149
G1 X198.744 Y232.823 E22.46591
G1 X196.024 Y232.899 E22.59261
G1 X194.578 Y232.971 E22.66002
G1 X193.34 Y233.041 E22.71776
G1 X192.851 Y233.053 E22.74054
G1 X188.72 Y233.053 E22.9329
G1 X188.022 Y233.044 E22.9654
G1 X187.374 Y232.995 E22.99566
G1 X186.737 Y232.868 E23.02591
G1 X186.121 Y232.663 E23.05614
G1 X185.534 Y232.384 E23.0864
G1 X184.986 Y232.035 E23.11665
G1 X184.485 Y231.622 E23.14689
G1 X184.038 Y231.15 E23.17716
G1 X183.653 Y230.627 E23.2074
G1 X183.335 Y230.06 E23.23767
G1 X183.089 Y229.459 E23.2679
G1 X182.919 Y228.832 E23.29815
G1 X182.812 Y227.907 E23.34151
G1 X182.801 Y227.431 E23.36368
G1 X182.802 Y222.852 E23.5769
G1 X182.813 Y222.145 E23.60983
G1 X182.86 Y221.514 E23.63929
G1 X183.007 Y220.799 E23.67328
G1 X183.094 Y220.486 E23.68841
G1 X183.783 Y217.837 E23.81586
G1 X184.39 Y215.205 E23.94163
G1 X184.91 Y212.596 E24.06551
G1 X185.361 Y209.961 E24.18999
G1 X185.737 Y207.313 E24.31453
G1 X186.039 Y204.655 E24.43909
G1 X186.264 Y201.997 E24.5633
G1 X186.415 Y199.316 E24.68834
G1 X186.501 Y195.247 E24.87785
G1 X186.502 Y174.136 E25.86087
G1 X186.512 Y173.447 E25.89295
G1 X186.561 Y172.8 E25.92317
G1 X186.689 Y172.163 E25.95342
G1 X186.895 Y171.547 E25.98367
G1 X187.175 Y170.96 E26.01395
G1 X187.525 Y170.413 E26.04419
M204 S3000
M205 X10 Y10
G1 F2400 E20.04419
;MESH:jst puller size 5.stl
G0 F3000 X191.122 Y219.834
G0 X192.638 Y220.738
G0 X190.381 Y223.987
M204 S1800
M205 X8 Y8
;TYPE:WALL-INNER
G1 F2400 E26.04419
G1 F1500 X190.381 Y226.373 E26.15529
G1 X189.481 Y226.373 E26.1972
G1 X189.481 Y223.062 E26.35137
G1 X193.181 Y221.062 E26.54722
G1 X193.181 Y174.615 E28.70999
G1 X195.895 Y173.953 E28.84007
G1 X198.627 Y173.742 E28.96766
G1 X198.938 Y173.718 E28.98218
G1 X200.04 Y173.633 E29.03365
G1 X200.069 Y173.63 E29.03501
G1 X200.119 Y173.633 E29.03734
G1 X201.22 Y173.719 E29.08876
G1 X201.513 Y173.741 E29.10244
G1 X204.243 Y173.953 E29.22995
G1 X206.956 Y174.615 E29.35998
G1 X206.956 Y221.047 E31.52205
G1 X210.519 Y223.047 E31.71231
G1 X210.519 Y226.373 E31.86718
G1 X209.756 Y226.373 E31.90271
G1 X209.756 Y223.987 E32.01381
G1 X190.381 Y223.987 E32.91599
M204 S3000
M205 X10 Y10
G0 F3000 X192.655 Y220.748
G0 X200.057 Y180.952
M204 S1800
M205 X8 Y8
G1 F1500 X201.159 Y180.869 E32.96745
G1 X202.215 Y180.612 E33.01806
G1 X203.186 Y180.177 E33.0676
G1 X204.026 Y179.537 E33.11678
G1 X204.652 Y178.653 E33.16721
G1 X204.904 Y177.56 E33.21944
G1 X204.662 Y176.462 E33.2718
G1 X204.043 Y175.575 E33.32216
G1 X203.207 Y174.929 E33.37136
G1 X202.237 Y174.488 E33.42098
G1 X201.466 Y174.299 E33.45794
G1 X201.181 Y174.23 E33.47101
G1 X200.08 Y174.142 E33.51794
G1 X198.978 Y174.227 E33.56482
G1 X198.675 Y174.3 E33.57869
G1 X197.922 Y174.482 E33.61476
G1 X196.951 Y174.917 E33.6643
G1 X196.111 Y175.557 E33.71348
G1 X195.484 Y176.441 E33.76394
G1 X195.234 Y177.537 E33.81629
G1 X195.474 Y178.631 E33.86844
G1 X196.094 Y179.519 E33.91887
G1 X196.931 Y180.165 E33.9681
G1 X197.9 Y180.605 E34.01766
G1 X198.956 Y180.865 E34.0683
G1 X200.057 Y180.952 E34.11972
M204 S3000
M205 X10 Y10
G0 F3000 X192.655 Y220.748
G0 X190.871 Y224.477
G0 X190.941 Y224.547
M204 S1800
M205 X8 Y8
G1 F1500 X190.941 Y226.933 E34.23082
G1 X188.921 Y226.933 E34.32488
G1 X188.921 Y222.728 E34.52069
G1 X192.621 Y220.728 E34.71653
G1 X192.621 Y174.175 E36.88424
G1 X195.804 Y173.399 E37.03679
G1 X200.069 Y173.069 E37.23598
G1 X204.334 Y173.399 E37.43517
G1 X207.516 Y174.175 E37.58768
G1 X207.516 Y220.719 E39.75496
G1 X211.079 Y222.719 E39.94522
G1 X211.079 Y226.933 E40.14144
G1 X209.196 Y226.933 E40.22912
G1 X209.196 Y224.547 E40.34023
G1 X190.941 Y224.547 E41.19026
M204 S3000
M205 X10 Y10
G0 F3000 X190.871 Y224.477
G0 X192.655 Y220.748
G0 X200.058 Y180.49
G0 X200.058 Y180.39
M204 S1800
M205 X8 Y8
G1 F1500 X201.071 Y180.314 E41.23756
G1 X202.033 Y180.08 E41.28366
G1 X202.898 Y179.692 E41.3278
G1 X203.619 Y179.143 E41.37
G1 X204.131 Y178.42 E41.41125
G1 X204.33 Y177.557 E41.45249
G1 X204.139 Y176.691 E41.49379
G1 X203.633 Y175.966 E41.53496
G1 X202.916 Y175.412 E41.57715
G1 X202.053 Y175.02 E41.62128
G1 X201.092 Y174.785 E41.66735
G1 X200.079 Y174.704 E41.71467
G1 X199.066 Y174.782 E41.76198
G1 X198.104 Y175.014 E41.80806
G1 X197.239 Y175.402 E41.8522
G1 X196.518 Y175.951 E41.8944
G1 X196.005 Y176.674 E41.93568
G1 X195.808 Y177.539 E41.97699
G1 X195.997 Y178.402 E42.01813
G1 X196.504 Y179.128 E42.05936
G1 X197.222 Y179.682 E42.10159
G1 X198.084 Y180.074 E42.14568
G1 X199.045 Y180.31 E42.19176
G1 X200.058 Y180.39 E42.23908
M204 S3000
M205 X10 Y10
G0 F3000 X200.058 Y180.49
G0 X192.655 Y220.748
G0 X190.913 Y224.519
G0 X190.841 Y226.663
G0 X191.501 Y226.663
M204 S1800
M205 X8 Y8
;TYPE:WALL-OUTER
G1 F1500 X192.901 Y226.663 E42.30427
G1 X192.901 Y227.493 E42.34291
G1 X188.361 Y227.493 E42.55431
G1 X188.361 Y222.394 E42.79175
G1 X192.061 Y220.394 E42.98759
G1 X192.061 Y173.735 E45.16023
G1 X195.713 Y172.845 E45.33526
G1 X200.069 Y172.508 E45.5387
G1 X204.425 Y172.845 E45.74214
G1 X208.076 Y173.735 E45.91712
G1 X208.076 Y220.391 E48.08962
G1 X211.639 Y222.391 E48.27988
G1 X211.639 Y227.493 E48.51745
G1 X207.106 Y227.493 E48.72853
G1 X207.106 Y226.663 E48.76718
G1 X208.636 Y226.663 E48.83842
G1 X208.636 Y225.107 E48.91087
G1 X191.501 Y225.107 E49.70875
G1 X191.501 Y226.663 E49.7812
M204 S3000
M205 X10 Y10
G0 F3000 X191.701 Y226.663
G0 X190.841 Y226.663
G0 X190.913 Y224.519
G0 X192.655 Y220.748
G0 X200.007 Y180.485
G0 X200.059 Y179.828
M204 S1800
M205 X8 Y8
G1 F1500 X200.983 Y179.759 E49.82435
G1 X201.851 Y179.548 E49.86594
G1 X202.61 Y179.207 E49.90469
G1 X203.212 Y178.749 E49.93991
G1 X203.61 Y178.187 E49.97198
G1 X203.756 Y177.554 E50.00223
G1 X203.616 Y176.92 E50.03246
G1 X203.223 Y176.357 E50.06443
G1 X202.625 Y175.895 E50.09962
G1 X201.869 Y175.552 E50.13827
G1 X201.003 Y175.34 E50.17979
G1 X200.078 Y175.266 E50.223
G1 X199.154 Y175.337 E50.26615
G1 X198.286 Y175.546 E50.30772
G1 X197.527 Y175.887 E50.34647
G1 X196.925 Y176.345 E50.38169
G1 X196.526 Y176.907 E50.41378
G1 X196.382 Y177.541 E50.44406
G1 X196.52 Y178.173 E50.47418
G1 X196.914 Y178.737 E50.50622
G1 X197.513 Y179.199 E50.54144
