;FLAVOR:Marlin
;TIME:1273
;Filament used: 0.935235m
;Layer height: 0.2
;MINX:183.785
;MINY:165.838
;MINZ:0.2
;MAXX:216.215
;MAXY:234.173
;MAXZ:8
;Generated with Cura_SteamEngine 4.11.0
M140 S60
M105
M190 S60
M104 S200
M105
M109 S200
M82 ;absolute extrusion mode
M107 ;Start with the fan off
G21 ;Set units to millimeters
G91 ;Change to relative positioning mode for retract filament and nozzle lifting
G1 F200 E-3 ;Retract 3mm filament for a clean start
G92 E0 ;Zero the extruded length
G1 F1000 Z5 ;Lift the nozzle 5mm before homing axes
G90 ;Absolute positioning
M82 ;Set extruder to absolute mode too
G28 X0 Y0 ;First move X/Y to min endstops
G28 Z0 ;Then move Z to min endstops
G1 F1000 Z15 ;After homing lift the nozzle 15mm before start printing

G92 E0
G92 E0
G1 F2400 E-6
;LAYER_COUNT:40
;LAYER:0
M106 S255
M204 S3000
M205 X10 Y10
G1 F600 Z0.275
G0 F3000 X188.288 Y169.478 Z0.275
M204 S1800
M205 X8 Y8
;TYPE:SKIRT
G1 F600 Z0.2
G1 F2400 E0
G1 X188.771 Y168.951 E0.03329
G1 X189.31 Y168.481 E0.06659
G1 X189.898 Y168.073 E0.09991
G1 X190.528 Y167.734 E0.13322
G1 X191.309 Y167.43 E0.17225
G1 X192.325 Y167.109 E0.22186
G1 X194.048 Y166.6 E0.30552
G1 X194.7 Y166.417 E0.33705
G1 X195.621 Y166.23 E0.38081
G1 X195.86 Y166.201 E0.39203
G1 X196.464 Y166.137 E0.42031
G1 X198.863 Y165.912 E0.53251
G1 X199.545 Y165.858 E0.56436
G1 X200.078 Y165.838 E0.5892
G1 X200.683 Y165.863 E0.61739
G1 X201.132 Y165.9 E0.63837
G1 X203.644 Y166.137 E0.75586
G1 X204.369 Y166.216 E0.78982
G1 X205.201 Y166.362 E0.82915
G1 X205.951 Y166.566 E0.86534
G1 X208.102 Y167.203 E0.9698
G1 X208.757 Y167.406 E1.00173
G1 X209.427 Y167.655 E1.03502
G1 X210.065 Y167.978 E1.06832
G1 X210.663 Y168.37 E1.10161
G1 X211.214 Y168.827 E1.13494
G1 X211.711 Y169.342 E1.16827
G1 X212.146 Y169.909 E1.20155
G1 X212.516 Y170.521 E1.23485
G1 X212.816 Y171.171 E1.26818
G1 X213.04 Y171.85 E1.30147
G1 X213.188 Y172.549 E1.33474
G1 X213.261 Y173.389 E1.37401
G1 X213.28 Y174.327 E1.41769
G1 X213.281 Y198.206 E2.5296
G1 X213.319 Y200.85 E2.65273
G1 X213.431 Y203.488 E2.77567
G1 X213.618 Y206.134 E2.89919
G1 X213.882 Y208.789 E3.02343
G1 X214.216 Y211.4 E3.146
G1 X214.626 Y214.012 E3.26911
G1 X215.109 Y216.61 E3.39216
G1 X215.659 Y219.17 E3.51408
G1 X215.9 Y220.163 E3.56166
G1 X216.037 Y220.768 E3.59055
G1 X216.156 Y221.473 E3.62384
G1 X216.194 Y222.055 E3.651
G1 X216.215 Y223.194 E3.70404
G1 X216.214 Y227.125 E3.88709
G1 X216.204 Y227.852 E3.92094
G1 X216.155 Y228.566 E3.95427
G1 X216.026 Y229.269 E3.98755
G1 X215.819 Y229.954 E4.02087
G1 X215.537 Y230.611 E4.05416
G1 X215.183 Y231.233 E4.08749
G1 X214.763 Y231.811 E4.12076
G1 X214.28 Y232.339 E4.15408
G1 X213.742 Y232.81 E4.18737
G1 X213.154 Y233.218 E4.2207
G1 X212.524 Y233.558 E4.25403
G1 X211.861 Y233.825 E4.28731
G1 X211.172 Y234.016 E4.32061
G1 X210.466 Y234.13 E4.35391
G1 X209.665 Y234.17 E4.39125
G1 X209.485 Y234.173 E4.39963
G1 X206.237 Y234.172 E4.55088
G1 X205.532 Y234.162 E4.58371
G1 X205.349 Y234.157 E4.59223
G1 X203.868 Y234.094 E4.66125
G1 X201.136 Y234.019 E4.78852
G1 X198.53 Y234.022 E4.90986
G1 X195.264 Y234.14 E5.06204
G1 X194.243 Y234.17 E5.1096
G1 X194.055 Y234.173 E5.11836
G1 X190.8 Y234.172 E5.26992
G1 X190.102 Y234.162 E5.30243
G1 X189.389 Y234.112 E5.33571
G1 X188.685 Y233.983 E5.36904
G1 X188.001 Y233.775 E5.40233
G1 X187.344 Y233.493 E5.43562
G1 X186.722 Y233.139 E5.46895
G1 X186.144 Y232.718 E5.50224
G1 X185.616 Y232.235 E5.53556
G1 X185.146 Y231.697 E5.56883
G1 X184.738 Y231.109 E5.60215
G1 X184.399 Y230.479 E5.63547
G1 X184.132 Y229.816 E5.66875
G1 X183.941 Y229.126 E5.70208
G1 X183.828 Y228.42 E5.73538
G1 X183.787 Y227.604 E5.77342
G1 X183.785 Y227.431 E5.78148
G1 X183.786 Y222.834 E5.99553
G1 X183.797 Y222.127 E6.02846
G1 X183.877 Y221.21 E6.07132
G1 X183.985 Y220.677 E6.09664
G1 X184.116 Y220.144 E6.1222
G1 X184.73 Y217.478 E6.24959
G1 X185.259 Y214.858 E6.37405
G1 X185.697 Y212.288 E6.49545
G1 X186.071 Y209.662 E6.61896
G1 X186.371 Y207.03 E6.74231
G1 X186.595 Y204.398 E6.86531
G1 X186.746 Y201.727 E6.98988
G1 X186.821 Y199.105 E7.11202
G1 X186.831 Y197.721 E7.17647
G1 X186.832 Y174.109 E8.27594
G1 X186.842 Y173.436 E8.30728
G1 X186.892 Y172.722 E8.34061
G1 X187.022 Y172.019 E8.3739
G1 X187.23 Y171.335 E8.40719
G1 X187.512 Y170.678 E8.44048
G1 X187.867 Y170.056 E8.47383
G1 X188.288 Y169.478 E8.50713
M204 S3000
M205 X10 Y10
G0 F3000 X188.84 Y169.692
M204 S1800
M205 X8 Y8
G1 F2400 X189.318 Y169.205 E8.5389
G1 X189.85 Y168.776 E8.57072
G1 X190.429 Y168.413 E8.60254
G1 X191.046 Y168.119 E8.63437
G1 X191.478 Y167.963 E8.65576
G1 X192.484 Y167.646 E8.70487
G1 X194.199 Y167.139 E8.78815
G1 X194.851 Y166.956 E8.81968
G1 X195.692 Y166.786 E8.85963
G1 X195.92 Y166.758 E8.87033
G1 X196.516 Y166.695 E8.89823
G1 X198.907 Y166.47 E9.01006
G1 X199.589 Y166.416 E9.04192
G1 X200.078 Y166.398 E9.0647
G1 X200.648 Y166.422 E9.09127
G1 X201.08 Y166.458 E9.11145
G1 X203.584 Y166.693 E9.22856
G1 X204.309 Y166.772 E9.26252
G1 X205.067 Y166.906 E9.29836
G1 X205.799 Y167.105 E9.33369
G1 X207.866 Y167.716 E9.43405
G1 X208.591 Y167.941 E9.4694
G1 X209.23 Y168.181 E9.50118
G1 X209.838 Y168.494 E9.53302
G1 X210.404 Y168.876 E9.56482
G1 X210.922 Y169.321 E9.59662
G1 X211.385 Y169.824 E9.62845
G1 X211.785 Y170.378 E9.66027
G1 X212.118 Y170.974 E9.69206
G1 X212.38 Y171.606 E9.72392
G1 X212.565 Y172.263 E9.7557
G1 X212.673 Y172.938 E9.78753
G1 X212.701 Y173.401 E9.80913
G1 X212.721 Y174.457 E9.85831
G1 X212.721 Y198.206 E10.96416
G1 X212.758 Y200.845 E11.08706
G1 X212.873 Y203.553 E11.21327
G1 X213.058 Y206.156 E11.33478
G1 X213.325 Y208.846 E11.46065
G1 X213.663 Y211.488 E11.58468
G1 X214.072 Y214.092 E11.70742
G1 X214.562 Y216.727 E11.83222
G1 X215.117 Y219.311 E11.95528
G1 X215.354 Y220.286 E12.00201
G1 X215.491 Y220.891 E12.03089
G1 X215.602 Y221.565 E12.0627
G1 X215.634 Y222.066 E12.08607
G1 X215.655 Y223.194 E12.13861
G1 X215.654 Y227.117 E12.32128
G1 X215.644 Y227.844 E12.35513
G1 X215.595 Y228.526 E12.38697
G1 X215.467 Y229.197 E12.41878
G1 X215.26 Y229.848 E12.45059
G1 X214.98 Y230.471 E12.48239
G1 X214.628 Y231.057 E12.51423
G1 X214.211 Y231.598 E12.54603
G1 X213.733 Y232.086 E12.57784
G1 X213.201 Y232.515 E12.60966
G1 X212.623 Y232.879 E12.64147
G1 X212.006 Y233.173 E12.67329
G1 X211.359 Y233.393 E12.70512
G1 X210.691 Y233.536 E12.73692
G1 X209.969 Y233.602 E12.77068
G1 X209.485 Y233.613 E12.79323
G1 X206.245 Y233.612 E12.9441
G1 X205.373 Y233.598 E12.9847
G1 X203.843 Y233.532 E13.05601
G1 X201.151 Y233.459 E13.18141
G1 X198.509 Y233.462 E13.30443
G1 X195.248 Y233.58 E13.45638
G1 X194.227 Y233.61 E13.50394
G1 X194.055 Y233.613 E13.51195
G1 X190.808 Y233.612 E13.66315
G1 X190.11 Y233.602 E13.69565
G1 X189.429 Y233.553 E13.72744
G1 X188.758 Y233.424 E13.75926
G1 X188.107 Y233.217 E13.79107
G1 X187.484 Y232.936 E13.82289
G1 X186.898 Y232.584 E13.85472
G1 X186.358 Y232.166 E13.88652
G1 X185.87 Y231.688 E13.91833
G1 X185.441 Y231.156 E13.95015
G1 X185.077 Y230.578 E13.98196
G1 X184.783 Y229.961 E14.01378
G1 X184.564 Y229.314 E14.04559
G1 X184.421 Y228.646 E14.0774
G1 X184.356 Y227.921 E14.11129
G1 X184.345 Y227.431 E14.13412
G1 X184.346 Y222.843 E14.34775
G1 X184.357 Y222.136 E14.38068
G1 X184.43 Y221.297 E14.41989
G1 X184.529 Y220.811 E14.44299
G1 X184.663 Y220.268 E14.46903
G1 X185.275 Y217.612 E14.59595
G1 X185.81 Y214.959 E14.72197
G1 X186.248 Y212.387 E14.84345
G1 X186.631 Y209.7 E14.96984
G1 X186.927 Y207.103 E15.09155
G1 X187.153 Y204.443 E15.21585
G1 X187.304 Y201.775 E15.34029
G1 X187.382 Y199.079 E15.46588
G1 X187.391 Y197.725 E15.52892
G1 X187.392 Y174.117 E16.62821
G1 X187.402 Y173.444 E16.65955
G1 X187.452 Y172.763 E16.69135
G1 X187.581 Y172.092 E16.72317
G1 X187.788 Y171.441 E16.75497
G1 X188.069 Y170.818 E16.7868
G1 X188.422 Y170.233 E16.81861
G1 X188.84 Y169.692 E16.85045
M204 S3000
M205 X10 Y10
G0 F3000 X188.976 Y170.419
M204 S1800
M205 X8 Y8
G1 F2400 X189.39 Y169.918 E16.88071
G1 X189.863 Y169.473 E16.91095
G1 X190.387 Y169.089 E16.9412
G1 X190.954 Y168.772 E16.97145
G1 X191.647 Y168.497 E17.00617
G1 X192.643 Y168.183 E17.05479
G1 X194.35 Y167.678 E17.13768
G1 X195.002 Y167.495 E17.16922
G1 X195.762 Y167.341 E17.20533
G1 X195.979 Y167.315 E17.2155
G1 X196.569 Y167.252 E17.24313
G1 X198.951 Y167.028 E17.35454
G1 X199.633 Y166.974 E17.38639
G1 X200.078 Y166.958 E17.40713
G1 X200.614 Y166.981 E17.43211
G1 X201.028 Y167.015 E17.45145
G1 X203.523 Y167.25 E17.56814
G1 X204.248 Y167.329 E17.6021
G1 X204.934 Y167.45 E17.63454
G1 X205.647 Y167.644 E17.66894
G1 X207.706 Y168.253 E17.76893
G1 X208.425 Y168.476 E17.80398
G1 X209.033 Y168.706 E17.83425
G1 X209.607 Y169.009 E17.86447
G1 X210.14 Y169.38 E17.89471
G1 X210.624 Y169.814 E17.92498
G1 X211.05 Y170.304 E17.95521
G1 X211.413 Y170.843 E17.98547
G1 X211.708 Y171.422 E18.01573
G1 X211.928 Y172.033 E18.04597
G1 X212.073 Y172.666 E18.07621
G1 X212.141 Y173.412 E18.11109
G1 X212.161 Y174.457 E18.15976
G1 X212.161 Y198.206 E19.26561
G1 X212.199 Y200.877 E19.39
G1 X212.312 Y203.544 E19.5143
G1 X212.504 Y206.251 E19.64066
G1 X212.767 Y208.902 E19.76471
G1 X213.105 Y211.543 E19.88869
G1 X213.523 Y214.206 E20.01421
G1 X214.014 Y216.844 E20.13915
G1 X214.565 Y219.409 E20.26131
G1 X214.808 Y220.41 E20.30928
G1 X214.945 Y221.015 E20.33816
G1 X215.049 Y221.656 E20.3684
G1 X215.074 Y222.077 E20.38804
G1 X215.095 Y223.194 E20.44006
G1 X215.095 Y227.11 E20.62241
G1 X215.085 Y227.837 E20.65626
G1 X215.036 Y228.484 E20.68648
G1 X214.908 Y229.121 E20.71673
G1 X214.702 Y229.738 E20.74702
G1 X214.423 Y230.324 E20.77724
G1 X214.074 Y230.872 E20.80749
G1 X213.66 Y231.372 E20.83772
G1 X213.187 Y231.818 E20.86799
G1 X212.664 Y232.203 E20.89823
G1 X212.097 Y232.521 E20.9285
G1 X211.496 Y232.766 E20.95872
G1 X210.869 Y232.936 E20.98897
G1 X209.953 Y233.042 E21.03191
G1 X209.485 Y233.053 E21.05371
G1 X206.253 Y233.052 E21.2042
G1 X205.548 Y233.042 E21.23704
G1 X205.397 Y233.038 E21.24407
G1 X203.883 Y232.973 E21.31463
G1 X201.165 Y232.899 E21.44124
G1 X198.517 Y232.902 E21.56454
G1 X195.231 Y233.021 E21.71765
G1 X194.21 Y233.051 E21.76522
G1 X194.055 Y233.053 E21.77243
G1 X190.816 Y233.052 E21.92326
G1 X190.118 Y233.042 E21.95576
G1 X189.471 Y232.993 E21.98597
G1 X188.834 Y232.865 E22.01623
G1 X188.218 Y232.659 E22.04647
G1 X187.631 Y232.379 E22.07676
G1 X187.084 Y232.03 E22.10697
G1 X186.583 Y231.616 E22.13723
G1 X186.138 Y231.143 E22.16747
G1 X185.753 Y230.619 E22.19775
G1 X185.436 Y230.052 E22.228
G1 X185.191 Y229.451 E22.25822
G1 X185.022 Y228.824 E22.28846
G1 X184.916 Y227.906 E22.33149
G1 X184.905 Y227.431 E22.35361
G1 X184.906 Y222.852 E22.56683
G1 X184.917 Y222.145 E22.59975
G1 X184.984 Y221.385 E22.63528
G1 X185.072 Y220.945 E22.65617
G1 X185.224 Y220.328 E22.68576
G1 X185.82 Y217.739 E22.80947
G1 X186.359 Y215.067 E22.9364
G1 X186.805 Y212.45 E23.06001
G1 X187.182 Y209.804 E23.18446
G1 X187.485 Y207.148 E23.30894
G1 X187.711 Y204.487 E23.43329
G1 X187.864 Y201.786 E23.55927
G1 X187.941 Y199.099 E23.68444
G1 X187.951 Y197.729 E23.74823
G1 X187.952 Y174.126 E24.84728
G1 X187.962 Y173.453 E24.87863
G1 X188.011 Y172.805 E24.90889
G1 X188.14 Y172.168 E24.93915
G1 X188.346 Y171.552 E24.96939
G1 X188.626 Y170.966 E24.99964
G1 X188.976 Y170.419 E25.02987
M204 S3000
M205 X10 Y10
G1 F2400 E19.02987
;MESH:jst puller size 4.stl
G0 F3000 X192.571 Y219.871
G0 X194.088 Y220.689
G0 X191.831 Y223.987
M204 S1800
M205 X8 Y8
;TYPE:WALL-INNER
G1 F2400 E25.02987
G1 F1500 X191.831 Y226.373 E25.14098
G1 X191.585 Y226.373 E25.15243
G1 X191.585 Y223.987 E25.20124
G1 X191.585 Y222.982 E25.24803
G1 X194.631 Y220.982 E25.41771
G1 X194.631 Y174.561 E27.57927
G1 X196.697 Y173.95 E27.67959
G1 X198.736 Y173.758 E27.77495
G1 X199.028 Y173.731 E27.7886
G1 X200.019 Y173.638 E27.83495
G1 X200.054 Y173.634 E27.83659
G1 X200.114 Y173.639 E27.8394
G1 X201.106 Y173.733 E27.8858
G1 X201.379 Y173.758 E27.89856
G1 X203.423 Y173.951 E27.99416
G1 X205.481 Y174.56 E28.0941
G1 X205.481 Y220.967 E30.255
G1 X208.415 Y222.967 E30.42034
G1 X208.415 Y223.987 E30.46784
G1 X208.415 Y226.373 E30.57894
G1 X208.281 Y226.373 E30.58518
G1 X208.281 Y223.987 E30.61177
G1 X191.831 Y223.987 E31.37775
M204 S3000
M205 X10 Y10
G0 F3000 X194.106 Y220.699
G0 X200.046 Y180.952
M204 S1800
M205 X8 Y8
G1 F1500 X201.037 Y180.863 E31.42408
G1 X201.99 Y180.582 E31.47034
G1 X202.854 Y180.11 E31.51619
G1 X203.582 Y179.437 E31.56235
G1 X204.089 Y178.567 E31.60924
G1 X204.279 Y177.558 E31.65705
G1 X204.098 Y176.548 E31.70483
G1 X203.595 Y175.672 E31.75186
G1 X202.872 Y174.995 E31.79798
G1 X202.007 Y174.519 E31.84396
G1 X201.322 Y174.315 E31.87724
G1 X201.059 Y174.237 E31.8894
G1 X200.067 Y174.142 E31.93129
G1 X199.076 Y174.232 E31.97304
G1 X198.794 Y174.315 E31.98603
G1 X198.125 Y174.512 E32.01851
G1 X197.259 Y174.984 E32.06443
G1 X196.531 Y175.657 E32.1106
G1 X196.024 Y176.527 E32.15749
G1 X195.834 Y177.537 E32.20534
G1 X196.015 Y178.546 E32.25307
G1 X196.518 Y179.42 E32.30003
G1 X197.241 Y180.098 E32.34618
G1 X198.105 Y180.575 E32.39214
G1 X199.056 Y180.858 E32.43834
G1 X200.046 Y180.952 E32.48465
M204 S3000
M205 X10 Y10
G0 F3000 X194.106 Y220.699
G0 X192.321 Y224.477
G0 X192.391 Y224.547
M204 S1800
M205 X8 Y8
G1 F1500 X192.391 Y226.933 E32.59575
G1 X191.025 Y226.933 E32.65935
G1 X191.025 Y222.68 E32.85739
G1 X194.071 Y220.68 E33.02707
G1 X194.071 Y174.143 E35.19403
G1 X196.592 Y173.397 E35.31645
G1 X200.055 Y173.071 E35.47841
G1 X203.527 Y173.398 E35.6408
G1 X206.041 Y174.142 E35.76288
G1 X206.041 Y220.671 E37.92946
G1 X208.975 Y222.671 E38.0948
G1 X208.975 Y226.933 E38.29326
G1 X207.721 Y226.933 E38.35165
G1 X207.721 Y224.547 E38.46275
G1 X192.391 Y224.547 E39.17658
M204 S3000
M205 X10 Y10
G0 F3000 X192.321 Y224.477
G0 X194.106 Y220.699
G0 X200.047 Y180.49
G0 X200.047 Y180.39
M204 S1800
M205 X8 Y8
G1 F1500 X200.932 Y180.31 E39.21796
G1 X201.774 Y180.062 E39.25883
G1 X202.525 Y179.652 E39.29867
G1 X203.14 Y179.083 E39.33769
G1 X203.557 Y178.368 E39.37623
G1 X203.71 Y177.556 E39.41471
G1 X203.564 Y176.743 E39.45317
G1 X203.151 Y176.024 E39.49178
G1 X202.54 Y175.452 E39.53075
G1 X201.79 Y175.039 E39.57062
G1 X200.951 Y174.789 E39.61138
G1 X200.066 Y174.704 E39.65278
G1 X199.181 Y174.785 E39.69416
G1 X198.34 Y175.032 E39.73498
G1 X197.588 Y175.442 E39.77486
G1 X196.973 Y176.011 E39.81387
G1 X196.556 Y176.726 E39.85242
G1 X196.403 Y177.539 E39.89094
G1 X196.549 Y178.351 E39.92935
G1 X196.962 Y179.069 E39.96792
G1 X197.573 Y179.642 E40.00693
G1 X198.323 Y180.056 E40.04682
G1 X199.163 Y180.306 E40.08763
G1 X200.047 Y180.39 E40.12898
M204 S3000
M205 X10 Y10
G0 F3000 X200.047 Y180.49
G0 X194.106 Y220.699
G0 X192.363 Y224.519
G0 X192.291 Y226.663
G0 X192.951 Y226.663
M204 S1800
M205 X8 Y8
;TYPE:WALL-OUTER
G1 F1500 X194.105 Y226.663 E40.18271
G1 X194.105 Y227.493 E40.22136
G1 X190.465 Y227.493 E40.39085
G1 X190.465 Y222.378 E40.62903
G1 X193.511 Y220.378 E40.7987
G1 X193.511 Y173.725 E42.97106
G1 X196.487 Y172.844 E43.11558
G1 X200.056 Y172.508 E43.28251
G1 X203.631 Y172.845 E43.44971
G1 X206.601 Y173.724 E43.59394
G1 X206.601 Y220.375 E45.7662
G1 X209.535 Y222.375 E45.93154
G1 X209.535 Y227.493 E46.16986
G1 X205.901 Y227.493 E46.33907
G1 X205.901 Y226.663 E46.37772
G1 X207.161 Y226.663 E46.43639
G1 X207.161 Y225.107 E46.50885
G1 X192.951 Y225.107 E47.17052
G1 X192.951 Y226.663 E47.24298
M204 S3000
M205 X10 Y10
G0 F3000 X193.151 Y226.663
G0 X192.291 Y226.663
G0 X192.363 Y224.519
G0 X194.106 Y220.699
G0 X199.986 Y180.484
G0 X200.048 Y179.828
M204 S1800
M205 X8 Y8
G1 F1500 X200.827 Y179.757 E47.2794
G1 X201.558 Y179.542 E47.31488
G1 X202.196 Y179.194 E47.34872
G1 X202.698 Y178.729 E47.38058
G1 X203.025 Y178.169 E47.41078
G1 X203.141 Y177.554 E47.43992
G1 X203.03 Y176.938 E47.46907
G1 X202.707 Y176.376 E47.49925
G1 X202.208 Y175.909 E47.53107
G1 X201.572 Y175.558 E47.5649
G1 X200.843 Y175.341 E47.60032
G1 X200.065 Y175.266 E47.63671
G1 X199.286 Y175.338 E47.67314
G1 X198.555 Y175.552 E47.70861
G1 X197.917 Y175.9 E47.74245
G1 X197.415 Y176.365 E47.77431
G1 X197.088 Y176.925 E47.80451
G1 X196.972 Y177.541 E47.83369
G1 X197.083 Y178.156 E47.86279
G1 X197.406 Y178.718 E47.89298
G1 X197.905 Y179.186 E47.92483
G1 X198.541 Y179.537 E47.95866
