;FLAVOR:Marlin
;TIME:957
;Filament used: 0.685041m
;Layer height: 0.2
;MINX:186.589
;MINY:165.84
;MINZ:0.2
;MAXX:213.411
;MAXY:234.173
;MAXZ:8
;Generated with Cura_SteamEngine 4.11.0
M140 S60
M105
M190 S60
M104 S200
M105
M109 S200
M82 ;absolute extrusion mode
M107 ;Start with the fan off
G21 ;Set units to millimeters
G91 ;Change to relative positioning mode for retract filament and nozzle lifting
G1 F200 E-3 ;Retract 3mm filament for a clean start
G92 E0 ;Zero the extruded length
G1 F1000 Z5 ;Lift the nozzle 5mm before homing axes
G90 ;Absolute positioning
M82 ;Set extruder to absolute mode too
G28 X0 Y0 ;First move X/Y to min endstops
G28 Z0 ;Then move Z to min endstops
G1 F1000 Z15 ;After homing lift the nozzle 15mm before start printing

G92 E0
G92 E0
G1 F2400 E-6
;LAYER_COUNT:40
;LAYER:0
M106 S255
M204 S3000
M205 X10 Y10
G1 F600 Z0.275
G0 F3000 X190.221 Y169.47 Z0.275
M204 S1800
M205 X8 Y8
;TYPE:SKIRT
G1 F600 Z0.2
G1 F2400 E0
G1 X190.704 Y168.943 E0.03329
G1 X191.243 Y168.472 E0.06662
G1 X191.831 Y168.065 E0.09992
G1 X192.536 Y167.692 E0.13706
G1 X193.05 Y167.464 E0.16324
G1 X194.436 Y166.89 E0.23309
G1 X195.061 Y166.641 E0.26442
G1 X195.74 Y166.414 E0.29776
G1 X196.481 Y166.258 E0.33302
G1 X197.479 Y166.109 E0.38
G1 X198.592 Y165.963 E0.43227
G1 X199.279 Y165.883 E0.46448
G1 X199.993 Y165.84 E0.49779
G1 X200.744 Y165.881 E0.53281
G1 X201.719 Y165.993 E0.57851
G1 X202.878 Y166.146 E0.63294
G1 X203.523 Y166.24 E0.66329
G1 X204.224 Y166.382 E0.6966
G1 X204.945 Y166.618 E0.73192
G1 X205.89 Y166.991 E0.77923
G1 X206.794 Y167.367 E0.82482
G1 X207.446 Y167.649 E0.8579
G1 X208.085 Y167.969 E0.89117
G1 X208.685 Y168.359 E0.9245
G1 X209.238 Y168.813 E0.95781
G1 X209.736 Y169.326 E0.9911
G1 X210.175 Y169.891 E1.02442
G1 X210.547 Y170.502 E1.05773
G1 X210.849 Y171.15 E1.09102
G1 X211.076 Y171.828 E1.12431
G1 X211.227 Y172.527 E1.15761
G1 X211.301 Y173.298 E1.19368
G1 X211.315 Y173.956 E1.22432
G1 X211.315 Y201.904 E2.5257
G1 X211.353 Y204.546 E2.64874
G1 X211.465 Y207.186 E2.77178
G1 X211.652 Y209.831 E2.89525
G1 X211.916 Y212.488 E3.01958
G1 X212.25 Y215.103 E3.14233
G1 X212.656 Y217.686 E3.26408
G1 X213.199 Y220.589 E3.4016
G1 X213.271 Y220.941 E3.41833
G1 X213.374 Y221.649 E3.45165
G1 X213.406 Y222.31 E3.48246
G1 X213.411 Y222.627 E3.49722
G1 X213.41 Y227.125 E3.70667
G1 X213.4 Y227.852 E3.74053
G1 X213.351 Y228.566 E3.77385
G1 X213.222 Y229.269 E3.80713
G1 X213.015 Y229.954 E3.84045
G1 X212.733 Y230.611 E3.87374
G1 X212.379 Y231.233 E3.90707
G1 X211.959 Y231.811 E3.94034
G1 X211.476 Y232.339 E3.97366
G1 X210.938 Y232.81 E4.00696
G1 X210.35 Y233.218 E4.04028
G1 X209.72 Y233.558 E4.07362
G1 X209.057 Y233.825 E4.1069
G1 X208.368 Y234.016 E4.14019
G1 X207.662 Y234.13 E4.17349
G1 X206.861 Y234.17 E4.21083
G1 X206.681 Y234.173 E4.21922
G1 X204.634 Y234.172 E4.31453
G1 X203.521 Y234.156 E4.36637
G1 X201.439 Y234.096 E4.46335
G1 X198.78 Y234.096 E4.58717
G1 X197.278 Y234.128 E4.65712
G1 X195.836 Y234.17 E4.7243
G1 X195.648 Y234.173 E4.73305
G1 X193.604 Y234.172 E4.82823
G1 X192.906 Y234.162 E4.86073
G1 X192.193 Y234.112 E4.89401
G1 X191.489 Y233.983 E4.92734
G1 X190.805 Y233.775 E4.96063
G1 X190.148 Y233.493 E4.99392
G1 X189.526 Y233.139 E5.02725
G1 X188.948 Y232.718 E5.06055
G1 X188.42 Y232.235 E5.09387
G1 X187.95 Y231.697 E5.12713
G1 X187.542 Y231.109 E5.16046
G1 X187.203 Y230.479 E5.19377
G1 X186.936 Y229.816 E5.22705
G1 X186.745 Y229.126 E5.26039
G1 X186.632 Y228.42 E5.29368
G1 X186.591 Y227.604 E5.33173
G1 X186.589 Y227.431 E5.33978
G1 X186.59 Y222.834 E5.55384
G1 X186.601 Y222.128 E5.58672
G1 X186.707 Y221.061 E5.63664
G1 X186.796 Y220.589 E5.65901
G1 X187.19 Y218.619 E5.75256
G1 X187.638 Y216.003 E5.87614
G1 X188.009 Y213.391 E5.99899
G1 X188.309 Y210.754 E6.12257
G1 X188.532 Y208.124 E6.24547
G1 X188.679 Y205.503 E6.36771
G1 X188.765 Y201.437 E6.55708
G1 X188.766 Y174.11 E7.82954
G1 X188.776 Y173.428 E7.8613
G1 X188.826 Y172.715 E7.89458
G1 X188.956 Y172.011 E7.92792
G1 X189.163 Y171.327 E7.9612
G1 X189.446 Y170.67 E7.99451
G1 X189.8 Y170.048 E8.02783
G1 X190.221 Y169.47 E8.06113
M204 S3000
M205 X10 Y10
G0 F3000 X190.773 Y169.684
M204 S1800
M205 X8 Y8
G1 F2400 X191.251 Y169.196 E8.09294
G1 X191.783 Y168.768 E8.12473
G1 X192.362 Y168.404 E8.15658
G1 X193.01 Y168.092 E8.19006
G1 X193.327 Y167.955 E8.20615
G1 X194.644 Y167.411 E8.2725
G1 X195.269 Y167.162 E8.30382
G1 X195.917 Y166.946 E8.33563
G1 X196.564 Y166.812 E8.3664
G1 X197.553 Y166.664 E8.41296
G1 X198.657 Y166.519 E8.46481
G1 X199.344 Y166.439 E8.49701
G1 X200.026 Y166.4 E8.52882
G1 X200.681 Y166.438 E8.55937
G1 X201.646 Y166.549 E8.6046
G1 X202.797 Y166.7 E8.65866
G1 X203.442 Y166.794 E8.68901
G1 X204.111 Y166.932 E8.72082
G1 X204.74 Y167.139 E8.75165
G1 X205.578 Y167.469 E8.79359
G1 X206.571 Y167.881 E8.84365
G1 X207.223 Y168.163 E8.87673
G1 X207.833 Y168.47 E8.90853
G1 X208.404 Y168.847 E8.94039
G1 X208.926 Y169.288 E8.97221
G1 X209.393 Y169.786 E9.004
G1 X209.799 Y170.336 E9.03583
G1 X210.137 Y170.929 E9.06761
G1 X210.404 Y171.558 E9.09943
G1 X210.596 Y172.214 E9.13126
G1 X210.71 Y172.887 E9.16304
G1 X210.749 Y173.544 E9.19369
G1 X210.755 Y173.96 E9.21306
G1 X210.755 Y201.904 E10.51425
G1 X210.792 Y204.543 E10.63714
G1 X210.907 Y207.25 E10.76331
G1 X211.092 Y209.853 E10.88482
G1 X211.359 Y212.545 E11.01079
G1 X211.698 Y215.192 E11.13505
G1 X212.108 Y217.806 E11.25826
G1 X212.645 Y220.676 E11.39421
G1 X212.722 Y221.053 E11.41213
G1 X212.837 Y222.04 E11.4584
G1 X212.851 Y222.633 E11.48602
G1 X212.85 Y227.117 E11.69481
G1 X212.84 Y227.844 E11.72867
G1 X212.791 Y228.526 E11.76051
G1 X212.663 Y229.197 E11.79232
G1 X212.456 Y229.848 E11.82413
G1 X212.176 Y230.471 E11.85593
G1 X211.824 Y231.057 E11.88776
G1 X211.407 Y231.598 E11.91957
G1 X210.929 Y232.086 E11.95138
G1 X210.397 Y232.515 E11.9832
G1 X209.819 Y232.879 E12.015
G1 X209.202 Y233.173 E12.04683
G1 X208.555 Y233.393 E12.07865
G1 X207.887 Y233.536 E12.11046
G1 X207.165 Y233.602 E12.14422
G1 X206.681 Y233.613 E12.16676
G1 X204.642 Y233.612 E12.26171
G1 X203.537 Y233.597 E12.31317
G1 X201.42 Y233.536 E12.41178
G1 X198.768 Y233.536 E12.53527
G1 X197.266 Y233.567 E12.60522
G1 X195.82 Y233.61 E12.67259
G1 X195.648 Y233.613 E12.6806
G1 X193.612 Y233.612 E12.7754
G1 X192.914 Y233.602 E12.80791
G1 X192.233 Y233.553 E12.8397
G1 X191.562 Y233.424 E12.87152
G1 X190.911 Y233.217 E12.90332
G1 X190.288 Y232.936 E12.93515
G1 X189.702 Y232.584 E12.96698
G1 X189.162 Y232.166 E12.99878
G1 X188.674 Y231.688 E13.03058
G1 X188.245 Y231.156 E13.06241
G1 X187.881 Y230.578 E13.09421
G1 X187.587 Y229.961 E13.12604
G1 X187.368 Y229.314 E13.15785
G1 X187.225 Y228.646 E13.18966
G1 X187.16 Y227.921 E13.22355
G1 X187.149 Y227.431 E13.24637
G1 X187.15 Y222.843 E13.46001
G1 X187.161 Y222.137 E13.49289
G1 X187.258 Y221.164 E13.53842
G1 X187.345 Y220.699 E13.56045
G1 X187.741 Y218.72 E13.65442
G1 X188.188 Y216.107 E13.77786
G1 X188.565 Y213.458 E13.90245
G1 X188.867 Y210.795 E14.02725
G1 X189.09 Y208.165 E14.15015
G1 X189.239 Y205.518 E14.2736
G1 X189.325 Y201.449 E14.46312
G1 X189.326 Y174.118 E15.73576
G1 X189.336 Y173.436 E15.76752
G1 X189.386 Y172.755 E15.79932
G1 X189.515 Y172.084 E15.83113
G1 X189.721 Y171.433 E15.86293
G1 X190.003 Y170.81 E15.89477
G1 X190.355 Y170.225 E15.92656
G1 X190.773 Y169.684 E15.9584
M204 S3000
M205 X10 Y10
G0 F3000 X190.909 Y170.41
M204 S1800
M205 X8 Y8
G1 F2400 X191.324 Y169.91 E15.98865
G1 X191.796 Y169.465 E16.01886
G1 X192.32 Y169.08 E16.04914
G1 X192.998 Y168.712 E16.08506
G1 X193.489 Y168.494 E16.11007
G1 X194.851 Y167.931 E16.1787
G1 X195.476 Y167.682 E16.21003
G1 X196.093 Y167.479 E16.24027
G1 X196.647 Y167.365 E16.26661
G1 X197.626 Y167.219 E16.3127
G1 X198.721 Y167.075 E16.36413
G1 X199.408 Y166.995 E16.39633
G1 X200.057 Y166.96 E16.4266
G1 X200.617 Y166.994 E16.45272
G1 X201.573 Y167.104 E16.49753
G1 X202.716 Y167.254 E16.55121
G1 X203.361 Y167.348 E16.58156
G1 X203.997 Y167.481 E16.61181
G1 X204.535 Y167.66 E16.63822
G1 X205.461 Y168.026 E16.68458
G1 X206.349 Y168.395 E16.72936
G1 X207.001 Y168.677 E16.76244
G1 X207.58 Y168.971 E16.79267
G1 X208.119 Y169.334 E16.82293
G1 X208.609 Y169.76 E16.85317
G1 X209.043 Y170.244 E16.88344
G1 X209.415 Y170.777 E16.9137
G1 X209.718 Y171.351 E16.94393
G1 X209.948 Y171.959 E16.97419
G1 X210.102 Y172.59 E17.00444
G1 X210.182 Y173.337 E17.03942
G1 X210.195 Y173.965 E17.06867
G1 X210.195 Y201.904 E18.36963
G1 X210.233 Y204.575 E18.49401
G1 X210.346 Y207.241 E18.61826
G1 X210.538 Y209.948 E18.74463
G1 X210.801 Y212.601 E18.86877
G1 X211.139 Y215.241 E18.9927
G1 X211.556 Y217.898 E19.11794
G1 X212.107 Y220.841 E19.25736
G1 X212.173 Y221.165 E19.27275
G1 X212.277 Y222.057 E19.31457
G1 X212.291 Y222.639 E19.34168
G1 X212.291 Y227.11 E19.54987
G1 X212.281 Y227.837 E19.58372
G1 X212.232 Y228.484 E19.61394
G1 X212.104 Y229.121 E19.64419
G1 X211.898 Y229.738 E19.67448
G1 X211.619 Y230.324 E19.7047
G1 X211.27 Y230.872 E19.73495
G1 X210.856 Y231.372 E19.76518
G1 X210.383 Y231.818 E19.79545
G1 X209.86 Y232.203 E19.82569
G1 X209.293 Y232.521 E19.85596
G1 X208.692 Y232.766 E19.88618
G1 X208.065 Y232.936 E19.91643
G1 X207.149 Y233.042 E19.95937
G1 X206.681 Y233.053 E19.98117
G1 X204.649 Y233.052 E20.07579
G1 X203.553 Y233.037 E20.12683
G1 X201.436 Y232.976 E20.22544
G1 X198.756 Y232.976 E20.35024
G1 X197.287 Y233.007 E20.41865
G1 X195.803 Y233.051 E20.48779
G1 X195.648 Y233.053 E20.495
G1 X193.62 Y233.052 E20.58944
G1 X192.922 Y233.042 E20.62194
G1 X192.275 Y232.993 E20.65216
G1 X191.638 Y232.865 E20.68241
G1 X191.022 Y232.659 E20.71265
G1 X190.435 Y232.379 E20.74294
G1 X189.888 Y232.03 E20.77315
G1 X189.387 Y231.616 E20.80341
G1 X188.942 Y231.143 E20.83365
G1 X188.557 Y230.619 E20.86393
G1 X188.24 Y230.052 E20.89418
G1 X187.995 Y229.451 E20.9244
G1 X187.826 Y228.824 E20.95464
G1 X187.72 Y227.906 E20.99767
G1 X187.709 Y227.431 E21.01979
G1 X187.71 Y222.852 E21.23301
G1 X187.721 Y222.146 E21.26589
G1 X187.808 Y221.266 E21.30706
G1 X187.894 Y220.809 E21.32872
G1 X188.293 Y218.815 E21.42341
G1 X188.745 Y216.177 E21.54803
G1 X189.121 Y213.531 E21.67248
G1 X189.423 Y210.867 E21.79732
G1 X189.648 Y208.212 E21.92139
G1 X189.799 Y205.532 E22.04638
G1 X189.885 Y201.461 E22.23599
G1 X189.886 Y174.127 E23.50877
G1 X189.896 Y173.445 E23.54053
G1 X189.945 Y172.797 E23.57079
G1 X190.074 Y172.16 E23.60106
G1 X190.28 Y171.544 E23.6313
G1 X190.559 Y170.958 E23.66152
G1 X190.909 Y170.41 E23.6918
M204 S3000
M205 X10 Y10
G1 F2400 E17.6918
;MESH:jst puller size 3.stl
G0 F3000 X195.439 Y172.683
G0 X196.021 Y174.087
G0 X204.039 Y220.602
G0 X205.611 Y223.987
M204 S1800
M205 X8 Y8
;TYPE:WALL-INNER
G1 F2400 E23.6918
G1 F1500 X194.389 Y223.987 E24.21434
G1 X194.389 Y222.841 E24.26771
G1 X196.565 Y220.842 E24.4053
G1 X196.565 Y179.311 E26.33915
G1 X196.565 Y179.245 E26.34223
G1 X196.565 Y178.419 E26.38069
G1 X196.565 Y177.539 E26.42166
G1 X196.565 Y176.654 E26.46287
G1 X196.565 Y175.832 E26.50115
G1 X196.565 Y175.783 E26.50343
G1 X196.565 Y174.45 E26.5655
G1 X197.814 Y173.933 E26.62845
G1 X198.834 Y173.799 E26.67635
G1 X199.104 Y173.764 E26.68903
G1 X199.984 Y173.648 E26.73036
G1 X200.04 Y173.64 E26.73299
G1 X200.112 Y173.649 E26.73637
G1 X200.997 Y173.765 E26.77793
G1 X201.245 Y173.797 E26.78958
G1 X202.267 Y173.933 E26.83758
G1 X203.515 Y174.45 E26.90049
G1 X203.515 Y175.783 E26.96256
G1 X203.515 Y175.849 E26.96563
G1 X203.515 Y176.675 E27.00409
G1 X203.515 Y177.557 E27.04516
G1 X203.515 Y178.438 E27.08618
G1 X203.515 Y179.262 E27.12455
G1 X203.515 Y179.313 E27.12693
G1 X203.515 Y220.827 E29.05999
G1 X205.611 Y222.827 E29.19489
G1 X205.611 Y223.987 E29.24891
M204 S3000
M205 X10 Y10
G0 F3000 X204.039 Y220.602
G0 X200.032 Y180.959
M204 S1800
M205 X8 Y8
G1 F1500 X200.913 Y180.846 E29.29027
G1 X201.738 Y180.507 E29.3318
G1 X202.446 Y179.967 E29.37326
G1 X202.959 Y179.302 E29.41237
G1 X202.99 Y179.262 E29.41466
G1 X203.334 Y178.438 E29.44174
G1 X203.452 Y177.557 E29.45095
G1 X203.339 Y176.675 E29.45999
G1 X203 Y175.849 E29.48652
G1 X202.96 Y175.797 E29.48945
G1 X202.459 Y175.142 E29.52785
G1 X201.755 Y174.598 E29.56928
G1 X201.164 Y174.35 E29.59912
G1 X200.933 Y174.254 E29.61008
G1 X200.049 Y174.135 E29.64653
G1 X199.168 Y174.249 E29.68273
G1 X198.916 Y174.352 E29.69461
G1 X198.342 Y174.587 E29.72349
G1 X197.635 Y175.129 E29.76498
G1 X197.121 Y175.794 E29.80411
G1 X197.091 Y175.832 E29.8063
G1 X196.747 Y176.654 E29.83341
G1 X196.628 Y177.539 E29.84271
G1 X196.742 Y178.419 E29.85176
G1 X197.08 Y179.245 E29.87831
G1 X197.12 Y179.297 E29.88125
G1 X197.622 Y179.952 E29.91968
G1 X198.324 Y180.496 E29.96103
G1 X199.147 Y180.841 E30.00259
G1 X200.032 Y180.959 E30.04416
M204 S3000
M205 X10 Y10
G0 F3000 X196.041 Y220.612
G0 X194.255 Y224.477
G0 X194.325 Y224.547
M204 S1800
M205 X8 Y8
G1 F1500 X194.325 Y226.933 E30.15526
G1 X193.829 Y226.933 E30.17836
G1 X193.829 Y224.547 E30.27676
G1 X193.829 Y222.595 E30.36766
G1 X196.005 Y220.596 E30.50524
G1 X196.005 Y174.076 E32.67141
G1 X197.669 Y173.387 E32.75527
G1 X200.04 Y173.075 E32.86663
G1 X202.412 Y173.387 E32.97803
G1 X204.075 Y174.076 E33.06185
G1 X204.075 Y220.587 E35.2276
G1 X206.171 Y222.587 E35.3625
G1 X206.171 Y224.547 E35.45376
G1 X206.171 Y226.933 E35.56487
G1 X205.755 Y226.933 E35.58424
G1 X205.755 Y224.547 E35.66677
G1 X194.325 Y224.547 E36.199
M204 S3000
M205 X10 Y10
G0 F3000 X194.255 Y224.477
G0 X196.041 Y220.612
G0 X200.033 Y180.494
G0 X200.033 Y180.394
M204 S1800
M205 X8 Y8
G1 F1500 X200.769 Y180.3 E36.23355
G1 X201.457 Y180.017 E36.26819
G1 X202.048 Y179.566 E36.3028
G1 X202.502 Y178.978 E36.3374
G1 X202.789 Y178.291 E36.37206
G1 X202.887 Y177.555 E36.40664
G1 X202.793 Y176.819 E36.44119
G1 X202.51 Y176.13 E36.47587
G1 X202.059 Y175.54 E36.51045
G1 X201.471 Y175.086 E36.54504
G1 X200.785 Y174.799 E36.57967
G1 X200.048 Y174.7 E36.61429
G1 X199.312 Y174.795 E36.64885
G1 X198.623 Y175.077 E36.68352
G1 X198.033 Y175.529 E36.71812
G1 X197.579 Y176.116 E36.75268
G1 X197.292 Y176.802 E36.78731
G1 X197.193 Y177.54 E36.82198
G1 X197.288 Y178.275 E36.85649
G1 X197.57 Y178.964 E36.89115
G1 X198.022 Y179.554 E36.92576
G1 X198.609 Y180.008 E36.96032
G1 X199.295 Y180.296 E36.99496
G1 X200.033 Y180.394 E37.02963
M204 S3000
M205 X10 Y10
G0 F3000 X200.033 Y180.494
G0 X196.041 Y220.612
G0 X194.297 Y224.519
G0 X194.225 Y226.663
G0 X194.885 Y226.663
M204 S1800
M205 X8 Y8
;TYPE:WALL-OUTER
G1 F1500 X195.709 Y226.663 E37.06799
G1 X195.709 Y227.493 E37.10664
G1 X193.269 Y227.493 E37.22026
G1 X193.269 Y222.349 E37.45979
G1 X195.445 Y220.35 E37.59737
G1 X195.445 Y173.702 E39.7695
G1 X197.524 Y172.841 E39.87428
G1 X200.04 Y172.51 E39.99245
G1 X202.557 Y172.841 E40.11066
G1 X204.635 Y173.702 E40.21539
G1 X204.635 Y220.347 E42.38738
G1 X206.731 Y222.347 E42.52228
G1 X206.731 Y227.493 E42.7619
G1 X204.295 Y227.493 E42.87533
G1 X204.295 Y226.663 E42.91398
G1 X205.195 Y226.663 E42.95589
G1 X205.195 Y225.107 E43.02834
G1 X194.885 Y225.107 E43.50842
G1 X194.885 Y226.663 E43.58087
M204 S3000
M205 X10 Y10
G0 F3000 X195.085 Y226.663
G0 X194.225 Y226.663
G0 X194.297 Y224.519
G0 X196.041 Y220.612
G0 X199.947 Y180.483
G0 X200.034 Y179.829
M204 S1800
M205 X8 Y8
G1 F1500 X200.625 Y179.754 E43.60861
G1 X201.176 Y179.527 E43.63636
G1 X201.65 Y179.165 E43.66413
G1 X202.014 Y178.694 E43.69185
G1 X202.244 Y178.144 E43.71961
G1 X202.322 Y177.554 E43.74732
G1 X202.247 Y176.963 E43.77506
G1 X202.02 Y176.411 E43.80285
G1 X201.659 Y175.938 E43.83056
G1 X201.187 Y175.574 E43.85832
G1 X200.637 Y175.344 E43.88608
G1 X200.047 Y175.265 E43.91379
G1 X199.456 Y175.341 E43.94154
G1 X198.904 Y175.567 E43.96931
G1 X198.431 Y175.929 E43.99705
G1 X198.067 Y176.4 E44.02477
G1 X197.837 Y176.95 E44.05253
G1 X197.758 Y177.541 E44.08029
G1 X197.834 Y178.131 E44.10799
G1 X198.06 Y178.683 E44.13576
G1 X198.422 Y179.156 E44.1635
G1 X198.893 Y179.52 E44.19122
G1 X199.443 Y179.751 E44.219
G1 X200.034 Y179.829 E44.24675
M204 S3000
M205 X10 Y10
G0 F3000 X200.232 Y179.804
G0 X200.314 Y180.459
G0 X200.03 Y181.513
M204 S1800
M205 X8 Y8
;TYPE:SKIN
G1 F1500 X201.055 Y181.382 E44.29487
G1 X202.015 Y180.988 E44.34319
G1 X202.837 Y180.36 E44.39136
G1 X202.965 Y180.194 E44.40112
G1 X202.965 Y221.063 E46.30415
