;FLAVOR:Marlin
;TIME:755
;Filament used: 0.52523m
;Layer height: 0.2
;MINX:165.855
;MINY:184.042
;MINZ:0.2
;MAXX:234.181
;MAXY:207.358
;MAXZ:8
;Generated with Cura_SteamEngine 4.11.0
M140 S60
M105
M190 S60
M104 S200
M105
M109 S200
M82 ;absolute extrusion mode
M107 ;Start with the fan off
G21 ;Set units to millimeters
G91 ;Change to relative positioning mode for retract filament and nozzle lifting
G1 F200 E-3 ;Retract 3mm filament for a clean start
G92 E0 ;Zero the extruded length
G1 F1000 Z5 ;Lift the nozzle 5mm before homing axes
G90 ;Absolute positioning
M82 ;Set extruder to absolute mode too
G28 X0 Y0 ;First move X/Y to min endstops
G28 Z0 ;Then move Z to min endstops
G1 F1000 Z15 ;After homing lift the nozzle 15mm before start printing

G92 E0
G92 E0
G1 F2400 E-6
;LAYER_COUNT:40
;LAYER:0
M106 S255
M204 S3000
M205 X10 Y10
G1 F600 Z0.275
G0 F3000 X169.319 Y187.203 Z0.275
M204 S1800
M205 X8 Y8
;TYPE:SKIRT
G1 F600 Z0.2
G1 F2400 E0
G1 X169.884 Y186.763 E0.03335
G1 X170.493 Y186.389 E0.06662
G1 X171.141 Y186.086 E0.09993
G1 X171.819 Y185.856 E0.13327
G1 X172.518 Y185.704 E0.16658
G1 X173.311 Y185.628 E0.20367
G1 X173.945 Y185.614 E0.2332
G1 X204.6 Y185.614 E1.66063
G1 X207.262 Y185.576 E1.78459
G1 X209.902 Y185.464 E1.90763
G1 X212.547 Y185.277 E2.0311
G1 X215.204 Y185.013 E2.15543
G1 X217.79 Y184.682 E2.27683
G1 X220.652 Y184.231 E2.41174
G1 X221.157 Y184.144 E2.4356
G1 X222.034 Y184.055 E2.47665
G1 X222.552 Y184.042 E2.50078
G1 X227.074 Y184.042 E2.71134
G1 X227.864 Y184.053 E2.74813
G1 X228.577 Y184.103 E2.78141
G1 X229.281 Y184.232 E2.81474
G1 X229.965 Y184.44 E2.84803
G1 X230.622 Y184.722 E2.88132
G1 X231.244 Y185.076 E2.91465
G1 X231.822 Y185.497 E2.94794
G1 X232.35 Y185.98 E2.98126
G1 X232.82 Y186.518 E3.01453
G1 X233.228 Y187.106 E3.04785
G1 X233.567 Y187.736 E3.08117
G1 X233.834 Y188.399 E3.11445
G1 X234.025 Y189.089 E3.14779
G1 X234.138 Y189.795 E3.18108
G1 X234.178 Y190.592 E3.21824
G1 X234.181 Y190.772 E3.22662
G1 X234.18 Y192.063 E3.28673
G1 X234.153 Y193.968 E3.37545
G1 X234.139 Y194.445 E3.39767
G1 X234.139 Y197.099 E3.52125
G1 X234.181 Y199.042 E3.61175
G1 X234.18 Y200.31 E3.67079
G1 X234.17 Y201.037 E3.70464
G1 X234.121 Y201.751 E3.73797
G1 X233.992 Y202.454 E3.77125
G1 X233.785 Y203.139 E3.80457
G1 X233.503 Y203.796 E3.83786
G1 X233.149 Y204.418 E3.87119
G1 X232.729 Y204.996 E3.90446
G1 X232.246 Y205.524 E3.93778
G1 X231.708 Y205.995 E3.97107
G1 X231.12 Y206.403 E4.0044
G1 X230.49 Y206.743 E4.03773
G1 X229.827 Y207.01 E4.07102
G1 X229.138 Y207.201 E4.10431
G1 X228.432 Y207.315 E4.13761
G1 X227.631 Y207.355 E4.17495
G1 X227.451 Y207.358 E4.18334
G1 X222.843 Y207.357 E4.3979
G1 X222.133 Y207.346 E4.43097
G1 X221.236 Y207.269 E4.47289
G1 X220.843 Y207.207 E4.49142
G1 X218.78 Y206.854 E4.58887
G1 X216.167 Y206.482 E4.71177
G1 X213.544 Y206.184 E4.8347
G1 X210.917 Y205.962 E4.95746
G1 X208.289 Y205.813 E5.08002
G1 X204.208 Y205.726 E5.2701
G1 X174.139 Y205.725 E6.67023
G1 X173.438 Y205.715 E6.70288
G1 X172.724 Y205.665 E6.73621
G1 X172.021 Y205.536 E6.76949
G1 X171.336 Y205.329 E6.80281
G1 X170.679 Y205.046 E6.83612
G1 X170.057 Y204.693 E6.86942
G1 X169.479 Y204.272 E6.90272
G1 X168.951 Y203.789 E6.93604
G1 X168.481 Y203.25 E6.96934
G1 X168.036 Y202.6 E7.00602
G1 X167.672 Y201.971 E7.03986
G1 X167.26 Y201.223 E7.07962
G1 X166.947 Y200.639 E7.11048
G1 X166.645 Y199.991 E7.14377
G1 X166.338 Y198.993 E7.19239
G1 X166.185 Y198.223 E7.22894
G1 X166.031 Y197.342 E7.27059
G1 X165.929 Y196.708 E7.30049
G1 X165.855 Y195.996 E7.33382
G1 X165.861 Y195.281 E7.36711
G1 X165.925 Y194.699 E7.39438
G1 X166.089 Y193.661 E7.44331
G1 X166.162 Y193.248 E7.46284
G1 X166.297 Y192.537 E7.49654
G1 X166.47 Y191.843 E7.52984
G1 X166.719 Y191.172 E7.56317
G1 X166.975 Y190.644 E7.59049
G1 X167.074 Y190.456 E7.60039
G1 X167.627 Y189.454 E7.65368
G1 X167.967 Y188.857 E7.68567
G1 X168.355 Y188.256 E7.71898
G1 X168.808 Y187.702 E7.7523
G1 X169.319 Y187.203 E7.78556
M204 S3000
M205 X10 Y10
G0 F3000 X169.757 Y187.565
M204 S1800
M205 X8 Y8
G1 F2400 X170.304 Y187.155 E7.81739
G1 X170.895 Y186.811 E7.84923
G1 X171.521 Y186.54 E7.881
G1 X172.176 Y186.343 E7.91285
G1 X172.848 Y186.224 E7.94462
G1 X173.566 Y186.179 E7.97812
G1 X173.949 Y186.174 E7.99596
G1 X204.608 Y186.174 E9.42357
G1 X207.259 Y186.137 E9.54702
G1 X209.966 Y186.022 E9.67319
G1 X212.569 Y185.837 E9.7947
G1 X215.261 Y185.57 E9.92066
G1 X217.879 Y185.235 E10.04356
G1 X220.755 Y184.781 E10.17914
G1 X221.252 Y184.696 E10.20262
G1 X222.052 Y184.615 E10.24006
G1 X222.552 Y184.602 E10.26335
G1 X227.158 Y184.603 E10.47782
G1 X227.856 Y184.613 E10.51033
G1 X228.537 Y184.662 E10.54212
G1 X229.208 Y184.791 E10.57394
G1 X229.859 Y184.998 E10.60575
G1 X230.482 Y185.279 E10.63757
G1 X231.068 Y185.631 E10.6694
G1 X231.608 Y186.049 E10.7012
G1 X232.096 Y186.527 E10.73301
G1 X232.525 Y187.059 E10.76483
G1 X232.889 Y187.637 E10.79664
G1 X233.183 Y188.254 E10.82846
G1 X233.402 Y188.901 E10.86027
G1 X233.545 Y189.569 E10.89208
G1 X233.61 Y190.288 E10.92569
G1 X233.621 Y190.772 E10.94824
G1 X233.62 Y192.055 E11.00798
G1 X233.593 Y193.951 E11.09627
G1 X233.579 Y194.428 E11.11849
G1 X233.579 Y197.111 E11.24343
G1 X233.61 Y198.612 E11.31333
G1 X233.621 Y199.042 E11.33336
G1 X233.62 Y200.302 E11.39203
G1 X233.61 Y201.029 E11.42589
G1 X233.561 Y201.711 E11.45773
G1 X233.433 Y202.382 E11.48954
G1 X233.226 Y203.033 E11.52134
G1 X232.946 Y203.656 E11.55315
G1 X232.594 Y204.242 E11.58498
G1 X232.177 Y204.783 E11.61679
G1 X231.699 Y205.271 E11.64859
G1 X231.167 Y205.7 E11.68042
G1 X230.589 Y206.064 E11.71222
G1 X229.972 Y206.358 E11.74405
G1 X229.325 Y206.578 E11.77587
G1 X228.657 Y206.721 E11.80768
G1 X227.935 Y206.787 E11.84144
G1 X227.451 Y206.798 E11.86398
G1 X222.852 Y206.797 E12.07813
G1 X222.142 Y206.786 E12.1112
G1 X221.323 Y206.716 E12.14947
G1 X220.937 Y206.655 E12.16767
G1 X218.879 Y206.303 E12.26489
G1 X216.239 Y205.927 E12.38906
G1 X213.585 Y205.626 E12.51343
G1 X210.959 Y205.403 E12.63615
G1 X208.304 Y205.253 E12.75997
G1 X204.22 Y205.166 E12.95019
G1 X174.147 Y205.165 E14.35051
G1 X173.446 Y205.155 E14.38316
G1 X172.764 Y205.106 E14.41499
G1 X172.093 Y204.977 E14.44681
G1 X171.442 Y204.77 E14.47862
G1 X170.819 Y204.489 E14.51044
G1 X170.234 Y204.137 E14.54223
G1 X169.693 Y203.72 E14.57404
G1 X169.205 Y203.241 E14.60588
G1 X168.776 Y202.71 E14.63767
G1 X168.409 Y202.133 E14.66951
G1 X168.13 Y201.642 E14.69581
G1 X167.754 Y200.959 E14.73211
G1 X167.441 Y200.375 E14.76296
G1 X167.154 Y199.755 E14.79478
G1 X166.885 Y198.873 E14.83771
G1 X166.736 Y198.12 E14.87346
G1 X166.584 Y197.253 E14.91444
G1 X166.482 Y196.619 E14.94434
G1 X166.413 Y195.939 E14.97617
G1 X166.424 Y195.256 E15.00798
G1 X166.479 Y194.786 E15.03001
G1 X166.641 Y193.758 E15.07847
G1 X166.713 Y193.353 E15.09763
G1 X166.848 Y192.642 E15.13132
G1 X167.014 Y191.979 E15.16315
G1 X167.378 Y191.086 E15.20805
G1 X167.565 Y190.726 E15.22694
G1 X168.113 Y189.731 E15.27984
G1 X168.453 Y189.134 E15.31183
G1 X168.826 Y188.561 E15.34366
G1 X169.262 Y188.035 E15.37548
G1 X169.757 Y187.565 E15.40726
M204 S3000
M205 X10 Y10
G0 F3000 X170.193 Y187.931
M204 S1800
M205 X8 Y8
G1 F2400 X170.72 Y187.552 E15.43749
G1 X171.291 Y187.241 E15.46776
G1 X171.895 Y187.003 E15.49799
G1 X172.524 Y186.84 E15.52825
G1 X173.349 Y186.747 E15.56691
G1 X173.954 Y186.734 E15.59508
G1 X204.616 Y186.734 E17.02284
G1 X207.291 Y186.696 E17.14741
G1 X209.957 Y186.583 E17.27166
G1 X212.664 Y186.391 E17.39803
G1 X215.317 Y186.128 E17.52217
G1 X217.968 Y185.789 E17.64661
G1 X220.794 Y185.343 E17.77983
G1 X221.346 Y185.248 E17.80591
G1 X222.07 Y185.175 E17.8398
G1 X222.552 Y185.162 E17.86225
G1 X227.074 Y185.162 E18.07281
G1 X227.848 Y185.173 E18.10886
G1 X228.495 Y185.222 E18.13907
G1 X229.132 Y185.35 E18.16932
G1 X229.748 Y185.556 E18.19957
G1 X230.335 Y185.836 E18.22985
G1 X230.882 Y186.185 E18.26007
G1 X231.383 Y186.599 E18.29033
G1 X231.828 Y187.072 E18.32057
G1 X232.213 Y187.596 E18.35085
G1 X232.53 Y188.163 E18.38109
G1 X232.775 Y188.764 E18.41131
G1 X232.944 Y189.391 E18.44155
G1 X233.05 Y190.304 E18.48435
G1 X233.061 Y190.772 E18.50615
G1 X233.06 Y192.047 E18.56552
G1 X233.034 Y193.935 E18.65344
G1 X233.019 Y194.446 E18.67724
G1 X233.019 Y197.122 E18.80185
G1 X233.05 Y198.581 E18.8698
G1 X233.061 Y199.042 E18.89128
G1 X233.061 Y200.295 E18.94962
G1 X233.051 Y201.022 E18.98348
G1 X233.002 Y201.669 E19.01369
G1 X232.874 Y202.306 E19.04394
G1 X232.668 Y202.923 E19.07423
G1 X232.389 Y203.509 E19.10445
G1 X232.04 Y204.057 E19.13471
G1 X231.626 Y204.557 E19.16493
G1 X231.153 Y205.003 E19.19521
G1 X230.63 Y205.388 E19.22545
G1 X230.063 Y205.706 E19.25572
G1 X229.462 Y205.951 E19.28594
G1 X228.835 Y206.121 E19.31619
G1 X227.919 Y206.227 E19.35912
G1 X227.451 Y206.238 E19.38092
G1 X222.86 Y206.237 E19.5947
G1 X222.15 Y206.226 E19.62776
G1 X221.41 Y206.163 E19.66235
G1 X221.032 Y206.103 E19.68017
G1 X218.948 Y205.747 E19.77861
G1 X216.308 Y205.371 E19.90278
G1 X213.661 Y205.07 E20.02683
G1 X211.006 Y204.845 E20.1509
G1 X208.319 Y204.693 E20.27622
G1 X204.232 Y204.606 E20.46657
G1 X174.155 Y204.605 E21.86708
G1 X173.454 Y204.595 E21.89973
G1 X172.806 Y204.546 E21.92999
G1 X172.169 Y204.418 E21.96024
G1 X171.553 Y204.212 E21.99049
G1 X170.967 Y203.933 E22.02071
G1 X170.419 Y203.583 E22.05099
G1 X169.919 Y203.169 E22.08121
G1 X169.473 Y202.696 E22.11149
G1 X168.997 Y202.025 E22.14979
G1 X168.647 Y201.42 E22.18234
G1 X168.247 Y200.694 E22.22094
G1 X167.934 Y200.11 E22.25179
G1 X167.663 Y199.52 E22.28202
G1 X167.432 Y198.752 E22.31937
G1 X167.286 Y198.018 E22.35421
G1 X167.137 Y197.164 E22.39458
G1 X167.035 Y196.53 E22.42448
G1 X166.971 Y195.883 E22.45475
G1 X166.988 Y195.234 E22.48499
G1 X167.032 Y194.872 E22.50197
G1 X167.192 Y193.855 E22.5499
G1 X167.263 Y193.457 E22.56873
G1 X167.398 Y192.746 E22.60243
G1 X167.558 Y192.117 E22.63265
G1 X167.877 Y191.34 E22.67176
G1 X168.056 Y190.996 E22.68982
G1 X168.6 Y190.008 E22.74234
G1 X168.94 Y189.411 E22.77433
G1 X169.295 Y188.867 E22.80457
G1 X169.715 Y188.372 E22.8348
G1 X170.193 Y187.931 E22.86508
M204 S3000
M205 X10 Y10
G1 F2400 E16.86508
;MESH:jst puller size 2.stl
G0 F3000 X172.696 Y192.136
G0 X174.028 Y192.871
G0 X220.733 Y197.926
M204 S1800
M205 X8 Y8
;TYPE:WALL-INNER
G1 F2400 E22.86508
G1 F1500 X180.422 Y197.926 E24.74213
G1 X179.814 Y197.926 E24.77045
G1 X179.699 Y197.926 E24.7758
G1 X179.814 Y197.86 E24.77671
G1 X180.25 Y197.437 E24.79343
G1 X180.407 Y197.284 E24.80364
G1 X180.822 Y196.54 E24.84331
G1 X180.977 Y195.679 E24.88404
G1 X180.828 Y194.821 E24.92459
G1 X180.42 Y194.07 E24.96439
G1 X180.251 Y193.904 E24.97542
G1 X179.828 Y193.489 E25.00301
G1 X179.699 Y193.414 E25.00996
G1 X179.828 Y193.414 E25.01015
G1 X180.421 Y193.414 E25.0267
G1 X220.72 Y193.414 E26.90319
G1 X222.718 Y191.842 E27.02157
G1 X223.995 Y191.842 E27.08103
G1 X223.995 Y199.558 E27.44032
G1 X222.734 Y199.558 E27.49904
G1 X220.733 Y197.926 E27.61927
M204 S3000
M205 X10 Y10
G0 F3000 X177.547 Y198.054
G0 X175.282 Y197.849
M204 S1800
M205 X8 Y8
G1 F1500 X175.414 Y197.926 E27.62639
G1 X175.282 Y197.926 E27.62657
G1 X174.691 Y197.926 E27.65409
G1 X174.348 Y197.926 E27.67006
G1 X173.915 Y197.142 E27.71177
G1 X173.868 Y196.875 E27.72439
G1 X173.821 Y196.603 E27.73724
G1 X173.67 Y195.743 E27.7779
G1 X173.657 Y195.67 E27.78135
G1 X173.672 Y195.581 E27.78556
G1 X173.823 Y194.719 E27.82631
G1 X173.868 Y194.462 E27.83846
G1 X173.915 Y194.198 E27.85094
G1 X174.348 Y193.414 E27.89265
G1 X174.686 Y193.414 E27.90838
G1 X175.297 Y193.414 E27.93684
G1 X175.409 Y193.414 E27.94205
G1 X175.297 Y193.478 E27.94292
G1 X174.859 Y193.904 E27.95968
G1 X174.702 Y194.056 E27.96986
G1 X174.414 Y194.572 E27.99738
G1 X174.288 Y194.8 E28.00856
G1 X174.133 Y195.661 E28.04272
G1 X174.282 Y196.522 E28.0768
G1 X174.415 Y196.765 E28.08866
G1 X174.692 Y197.271 E28.11552
G1 X174.86 Y197.435 E28.12645
G1 X175.282 Y197.849 E28.14299
M204 S3000
M205 X10 Y10
G0 F3000 X177.116 Y198.014
G0 X220.567 Y198.392
G0 X220.534 Y198.486
M204 S1800
M205 X8 Y8
G1 F1500 X178.305 Y198.486 E30.10935
G1 X178.233 Y198.486 E30.1127
G1 X177.547 Y198.486 E30.14465
G1 X176.863 Y198.486 E30.1765
G1 X176.798 Y198.486 E30.17952
G1 X174.018 Y198.486 E30.30897
G1 X173.379 Y197.33 E30.37047
G1 X173.088 Y195.67 E30.44895
G1 X173.379 Y194.01 E30.52743
G1 X174.018 Y192.854 E30.58893
G1 X176.805 Y192.854 E30.7187
G1 X176.877 Y192.854 E30.72206
G1 X177.563 Y192.854 E30.754
G1 X178.247 Y192.854 E30.78585
G1 X178.312 Y192.854 E30.78888
G1 X220.526 Y192.854 E32.75454
G1 X222.525 Y191.282 E32.87295
G1 X224.555 Y191.282 E32.96748
G1 X224.555 Y200.118 E33.37892
G1 X222.535 Y200.118 E33.47298
G1 X220.534 Y198.486 E33.59321
M204 S3000
M205 X10 Y10
G0 F3000 X220.567 Y198.392
G0 X178.252 Y198.046
G0 X178.233 Y197.948
M204 S1800
M205 X8 Y8
G1 F1500 X178.301 Y197.927 E33.59646
G1 X178.887 Y197.746 E33.62502
G1 X179.474 Y197.409 E33.65654
G1 X179.958 Y196.939 E33.68795
G1 X180.287 Y196.349 E33.71941
G1 X180.408 Y195.677 E33.7512
G1 X180.292 Y195.007 E33.78287
G1 X179.968 Y194.411 E33.81445
G1 X179.486 Y193.938 E33.8459
G1 X178.9 Y193.599 E33.87742
G1 X178.309 Y193.413 E33.90627
G1 X178.247 Y193.394 E33.90924
G1 X177.563 Y193.326 E33.93817
G1 X176.877 Y193.392 E33.96712
G1 X176.809 Y193.413 E33.97037
G1 X176.224 Y193.594 E33.99888
G1 X175.636 Y193.929 E34.0304
G1 X175.151 Y194.4 E34.06188
G1 X174.823 Y194.991 E34.09335
G1 X174.702 Y195.663 E34.12514
G1 X174.818 Y196.335 E34.1569
G1 X175.143 Y196.929 E34.18843
G1 X175.624 Y197.4 E34.21977
G1 X176.208 Y197.741 E34.25126
G1 X176.801 Y197.927 E34.2802
G1 X176.863 Y197.946 E34.28317
G1 X177.547 Y198.014 E34.3121
G1 X178.233 Y197.948 E34.34105
M204 S3000
M205 X10 Y10
G0 F3000 X178.252 Y198.046
G0 X220.547 Y198.449
G0 X224.455 Y199.606
G0 X225.115 Y199.606
M204 S1800
M205 X8 Y8
;TYPE:WALL-OUTER
G1 F1500 X226.671 Y199.606 E34.4135
G1 X226.671 Y198.988 E34.44228
G1 X227.501 Y198.988 E34.48093
G1 X227.501 Y200.678 E34.55962
G1 X222.335 Y200.678 E34.80017
G1 X220.335 Y199.046 E34.92037
G1 X173.688 Y199.046 E37.09245
G1 X172.843 Y197.518 E37.17376
G1 X172.519 Y195.67 E37.26112
G1 X172.843 Y193.822 E37.34848
G1 X173.688 Y192.294 E37.42979
G1 X220.332 Y192.294 E39.60173
G1 X222.332 Y190.722 E39.72018
G1 X227.501 Y190.722 E39.96087
G1 X227.501 Y192.409 E40.03942
G1 X226.671 Y192.409 E40.07807
G1 X226.671 Y191.734 E40.1095
G1 X225.115 Y191.734 E40.18196
G1 X225.115 Y199.606 E40.54851
M204 S3000
M205 X10 Y10
G0 F3000 X225.315 Y199.606
G0 X224.455 Y199.606
G0 X220.547 Y198.449
G0 X178.184 Y198.053
G0 X178.122 Y197.396
M204 S1800
M205 X8 Y8
G1 F1500 X178.662 Y197.229 E40.57483
G1 X179.135 Y196.958 E40.60021
G1 X179.509 Y196.595 E40.62448
G1 X179.752 Y196.158 E40.64777
G1 X179.839 Y195.675 E40.67062
G1 X179.756 Y195.193 E40.69339
G1 X179.516 Y194.752 E40.71677
G1 X179.144 Y194.387 E40.74104
G1 X178.673 Y194.115 E40.76637
G1 X178.134 Y193.946 E40.79267
G1 X177.562 Y193.889 E40.81943
G1 X176.988 Y193.944 E40.84629
G1 X176.448 Y194.111 E40.8726
G1 X175.975 Y194.38 E40.89794
G1 X175.601 Y194.744 E40.92224
G1 X175.358 Y195.182 E40.94557
G1 X175.271 Y195.665 E40.96842
G1 X175.354 Y196.148 E40.99124
G1 X175.594 Y196.587 E41.01454
G1 X175.966 Y196.951 E41.03877
G1 X176.436 Y197.225 E41.0641
G1 X176.976 Y197.394 E41.09045
G1 X177.548 Y197.451 E41.11722
G1 X178.122 Y197.396 E41.14407
M204 S3000
M205 X10 Y10
G0 F3000 X178.313 Y197.337
G0 X178.507 Y197.968
G0 X180.985 Y197.376
M204 S1800
M205 X8 Y8
;TYPE:SKIN
G1 F1500 X181.347 Y196.728 E41.17863
G1 X181.535 Y195.681 E41.22816
G1 X181.354 Y194.638 E41.27746
G1 X180.988 Y193.964 E41.31317
G1 X220.91 Y193.964 E43.1721
G1 X222.908 Y192.392 E43.29048
G1 X223.445 Y192.392 E43.31549
G1 X223.445 Y199.008 E43.62356
G1 X222.93 Y199.008 E43.64754
G1 X220.929 Y197.376 E43.76777
G1 X180.985 Y197.376 E45.62773
M204 S3000
M205 X10 Y10
G0 F3000 X181.62 Y196.667
M204 S1800
M205 X8 Y8
G1 F1500 X182.068 Y197.115 E45.65723
M204 S3000
M205 X10 Y10
G0 F3000 X182.86 Y197.115
M204 S1800
M205 X8 Y8
G1 F1500 X181.74 Y195.995 E45.73099
M204 S3000
M205 X10 Y10
G0 F3000 X181.71 Y195.173
M204 S1800
M205 X8 Y8
G1 F1500 X183.652 Y197.115 E45.85887
M204 S3000
M205 X10 Y10
