;FLAVOR:Marlin
;TIME:3412
;Filament used: 3.0525m
;Layer height: 0.2
;MINX:170.506
;MINY:167.194
;MINZ:0.2
;MAXX:229.35
;MAXY:231.665
;MAXZ:12.4
;Generated with Cura_SteamEngine 4.11.0
M140 S60
M105
M190 S60
M104 S200
M105
M109 S200
M82 ;absolute extrusion mode
M107 ;Start with the fan off
G21 ;Set units to millimeters
G91 ;Change to relative positioning mode for retract filament and nozzle lifting
G1 F200 E-3 ;Retract 3mm filament for a clean start
G92 E0 ;Zero the extruded length
G1 F1000 Z5 ;Lift the nozzle 5mm before homing axes
G90 ;Absolute positioning
M82 ;Set extruder to absolute mode too
G28 X0 Y0 ;First move X/Y to min endstops
G28 Z0 ;Then move Z to min endstops
G1 F1000 Z15 ;After homing lift the nozzle 15mm before start printing

G92 E0
G92 E0
G1 F2400 E-6
;LAYER_COUNT:63
;LAYER:0
M106 S255
M204 S3000
M205 X10 Y10
G1 F600 Z0.275
G0 F3000 X173.973 Y170.989 Z0.275
M204 S1800
M205 X8 Y8
;TYPE:SKIRT
G1 F600 Z0.2
G1 F2400 E0
G1 X174.507 Y170.466 E0.0348
G1 X175.12 Y169.937 E0.07251
G1 X175.698 Y169.499 E0.10628
G1 X176.469 Y168.981 E0.14953
G1 X177.262 Y168.542 E0.19173
G1 X177.81 Y168.284 E0.21994
G1 X178.49 Y168.002 E0.25422
G1 X179.223 Y167.749 E0.29032
G1 X179.915 Y167.556 E0.32378
G1 X180.708 Y167.388 E0.36152
G1 X181.481 Y167.275 E0.3979
G1 X182.278 Y167.209 E0.43514
G1 X183.023 Y167.194 E0.46983
G1 X183.823 Y167.228 E0.50712
G1 X184.553 Y167.305 E0.5413
G1 X184.775 Y167.333 E0.55172
G1 X185.511 Y167.437 E0.58633
G1 X187.19 Y167.696 E0.66544
G1 X189.83 Y168.028 E0.78933
G1 X192.453 Y168.283 E0.91205
G1 X195.098 Y168.464 E1.0355
G1 X197.737 Y168.571 E1.15848
G1 X200.415 Y168.603 E1.28319
G1 X203.019 Y168.561 E1.40446
G1 X205.7 Y168.44 E1.52942
G1 X208.341 Y168.248 E1.65272
G1 X210.951 Y167.983 E1.77488
G1 X213.848 Y167.602 E1.91094
G1 X215.551 Y167.351 E1.99109
G1 X216.355 Y167.284 E2.02866
G1 X217.104 Y167.269 E2.06355
G1 X217.906 Y167.304 E2.10093
G1 X218.633 Y167.381 E2.13497
G1 X219.429 Y167.516 E2.17256
G1 X220.179 Y167.693 E2.20844
G1 X220.947 Y167.926 E2.24581
G1 X221.673 Y168.197 E2.2819
G1 X222.41 Y168.526 E2.31948
G1 X223.031 Y168.852 E2.35214
G1 X223.317 Y169.012 E2.3674
G1 X223.751 Y169.289 E2.39137
G1 X224.345 Y169.703 E2.42509
G1 X224.971 Y170.2 E2.46231
G1 X225.549 Y170.721 E2.49854
G1 X226.108 Y171.292 E2.53575
G1 X226.551 Y171.805 E2.56731
G1 X226.807 Y172.118 E2.58614
G1 X227.115 Y172.535 E2.61028
G1 X227.417 Y172.992 E2.63578
G1 X227.617 Y173.318 E2.65359
G1 X227.898 Y173.827 E2.68067
G1 X228.228 Y174.494 E2.71532
G1 X228.537 Y175.229 E2.75244
G1 X228.776 Y175.916 E2.78631
G1 X228.998 Y176.712 E2.82479
G1 X229.153 Y177.438 E2.85936
G1 X229.273 Y178.253 E2.89772
G1 X229.335 Y179.012 E2.93318
G1 X229.35 Y179.808 E2.97025
G1 X229.318 Y180.553 E3.00497
G1 X229.235 Y181.344 E3.04201
G1 X229.109 Y182.09 E3.07724
G1 X228.95 Y182.788 E3.11057
G1 X228.222 Y185.326 E3.23352
G1 X227.575 Y187.851 E3.35489
G1 X226.981 Y190.464 E3.47967
G1 X226.468 Y193.066 E3.60316
G1 X226.032 Y195.657 E3.7255
G1 X225.666 Y198.296 E3.84956
G1 X225.377 Y200.918 E3.97239
G1 X225.163 Y203.512 E4.09359
G1 X223.998 Y220.634 E4.89271
G1 X223.946 Y221.266 E4.92224
G1 X223.849 Y222.033 E4.95823
G1 X223.757 Y222.581 E4.98411
G1 X223.595 Y223.277 E5.01738
G1 X223.415 Y223.805 E5.04336
G1 X223.339 Y224 E5.0531
G1 X223.043 Y224.651 E5.0864
G1 X222.675 Y225.265 E5.11974
G1 X222.242 Y225.834 E5.15303
G1 X221.716 Y226.38 E5.18833
G1 X221.574 Y226.511 E5.19733
G1 X221.022 Y226.966 E5.23064
G1 X220.116 Y227.522 E5.28014
G1 X219.378 Y227.878 E5.31829
G1 X217.763 Y228.601 E5.40068
G1 X215.371 Y229.754 E5.52433
G1 X214.448 Y230.228 E5.57264
G1 X213.743 Y230.561 E5.60895
G1 X213.071 Y230.842 E5.64287
G1 X212.312 Y231.104 E5.68025
G1 X211.562 Y231.312 E5.7165
G1 X210.772 Y231.479 E5.75409
G1 X210.042 Y231.585 E5.78844
G1 X209.252 Y231.65 E5.82535
G1 X208.511 Y231.665 E5.85986
G1 X207.807 Y231.648 E5.89266
G1 X206.566 Y231.56 E5.95059
G1 X203.841 Y231.407 E6.07767
G1 X201.23 Y231.333 E6.1993
G1 X198.552 Y231.333 E6.324
G1 X195.965 Y231.406 E6.44451
G1 X192.318 Y231.634 E6.61466
G1 X192.048 Y231.645 E6.62724
G1 X191.156 Y231.663 E6.66879
G1 X190.349 Y231.628 E6.7064
G1 X189.608 Y231.549 E6.7411
G1 X188.825 Y231.416 E6.77808
G1 X188.083 Y231.242 E6.81357
G1 X187.715 Y231.145 E6.83129
G1 X187.221 Y230.987 E6.85544
G1 X186.734 Y230.802 E6.8797
G1 X185.913 Y230.44 E6.92148
G1 X183.397 Y229.162 E7.05288
G1 X180.65 Y227.884 E7.19396
G1 X179.972 Y227.563 E7.22889
G1 X179.344 Y227.222 E7.26216
G1 X178.78 Y226.829 E7.29417
G1 X178.595 Y226.685 E7.30509
G1 X178.056 Y226.215 E7.33839
G1 X177.573 Y225.688 E7.37168
G1 X176.989 Y224.844 E7.41947
G1 X176.887 Y224.668 E7.42894
G1 X176.563 Y224.03 E7.46226
G1 X176.313 Y223.36 E7.49556
G1 X176.159 Y222.768 E7.52404
G1 X176.038 Y222.113 E7.55506
G1 X175.934 Y221.334 E7.59165
G1 X175.847 Y220.295 E7.6402
G1 X174.707 Y203.534 E8.42247
G1 X174.488 Y200.871 E8.54689
G1 X174.198 Y198.253 E8.66954
G1 X173.827 Y195.595 E8.7945
G1 X173.391 Y193.005 E8.9168
G1 X172.878 Y190.409 E9.04002
G1 X172.29 Y187.822 E9.16356
G1 X171.633 Y185.264 E9.28653
G1 X171.253 Y183.954 E9.35005
G1 X170.972 Y182.946 E9.39877
G1 X170.877 Y182.558 E9.41737
G1 X170.709 Y181.768 E9.45498
G1 X170.591 Y180.972 E9.49245
G1 X170.53 Y180.245 E9.52642
G1 X170.506 Y179.716 E9.55108
G1 X170.514 Y179.11 E9.5793
G1 X170.56 Y178.438 E9.61067
G1 X170.63 Y177.869 E9.63736
G1 X170.751 Y177.152 E9.67122
G1 X170.938 Y176.357 E9.70925
G1 X171.167 Y175.603 E9.74594
G1 X171.45 Y174.846 E9.78357
G1 X171.739 Y174.201 E9.81648
G1 X172.1 Y173.512 E9.8527
G1 X172.5 Y172.849 E9.88876
G1 X172.965 Y172.179 E9.92673
G1 X173.436 Y171.585 E9.96203
G1 X173.973 Y170.989 E9.99939
M204 S3000
M205 X10 Y10
G0 F3000 X174.365 Y171.389
M204 S1800
M205 X8 Y8
G1 F2400 X174.899 Y170.866 E10.03419
G1 X175.458 Y170.383 E10.06859
G1 X176.036 Y169.945 E10.10236
G1 X176.752 Y169.464 E10.14253
G1 X177.525 Y169.037 E10.18365
G1 X178.025 Y168.801 E10.20939
G1 X178.705 Y168.519 E10.24367
G1 X179.373 Y168.289 E10.27657
G1 X180.065 Y168.096 E10.31002
G1 X180.789 Y167.942 E10.34449
G1 X181.562 Y167.829 E10.38086
G1 X182.289 Y167.769 E10.41483
G1 X183.034 Y167.754 E10.44953
G1 X183.765 Y167.785 E10.4836
G1 X184.495 Y167.862 E10.51778
G1 X184.697 Y167.887 E10.52725
G1 X185.426 Y167.99 E10.56154
G1 X187.144 Y168.255 E10.64248
G1 X189.741 Y168.582 E10.76436
G1 X192.434 Y168.843 E10.89035
G1 X195.071 Y169.024 E11.01343
G1 X197.708 Y169.131 E11.13632
G1 X200.417 Y169.163 E11.26247
G1 X203.053 Y169.12 E11.38523
G1 X205.731 Y169 E11.51005
G1 X208.365 Y168.808 E11.63303
G1 X211.015 Y168.539 E11.75706
G1 X213.932 Y168.155 E11.89406
G1 X215.632 Y167.905 E11.97407
G1 X216.366 Y167.844 E12.00836
G1 X217.115 Y167.829 E12.04325
G1 X217.847 Y167.86 E12.07736
G1 X218.574 Y167.937 E12.1114
G1 X219.3 Y168.061 E12.1457
G1 X220.05 Y168.238 E12.18158
G1 X220.751 Y168.451 E12.2157
G1 X221.477 Y168.722 E12.25178
G1 X222.149 Y169.022 E12.28605
G1 X222.77 Y169.348 E12.31871
G1 X223.431 Y169.749 E12.35471
G1 X224.025 Y170.163 E12.38842
G1 X224.596 Y170.616 E12.42236
G1 X225.174 Y171.137 E12.45859
G1 X225.684 Y171.658 E12.49254
G1 X226.127 Y172.171 E12.5241
G1 X226.652 Y172.849 E12.56403
G1 X226.94 Y173.285 E12.58836
G1 X227.14 Y173.611 E12.60617
G1 X227.396 Y174.075 E12.63085
G1 X227.726 Y174.742 E12.6655
G1 X228.008 Y175.413 E12.69939
G1 X228.247 Y176.1 E12.73326
G1 X228.45 Y176.829 E12.7685
G1 X228.605 Y177.555 E12.80307
G1 X228.715 Y178.299 E12.83809
G1 X228.777 Y179.058 E12.87355
G1 X228.791 Y179.784 E12.90736
G1 X228.759 Y180.529 E12.94208
G1 X228.682 Y181.251 E12.97589
G1 X228.556 Y181.997 E13.01112
G1 X228.412 Y182.634 E13.04153
G1 X227.683 Y185.177 E13.16471
G1 X227.027 Y187.732 E13.28754
G1 X226.435 Y190.342 E13.41216
G1 X225.917 Y192.967 E13.53675
G1 X225.476 Y195.591 E13.66065
G1 X225.115 Y198.192 E13.78292
G1 X224.818 Y200.884 E13.90903
G1 X224.605 Y203.474 E14.03004
G1 X223.44 Y220.588 E14.82879
G1 X223.388 Y221.22 E14.85831
G1 X223.294 Y221.955 E14.89282
G1 X223.205 Y222.484 E14.9178
G1 X223.049 Y223.15 E14.94965
G1 X222.817 Y223.797 E14.98165
G1 X222.532 Y224.418 E15.01347
G1 X222.177 Y225.001 E15.04525
G1 X221.756 Y225.539 E15.07706
G1 X221.336 Y225.968 E15.10502
G1 X221.194 Y226.099 E15.11401
G1 X220.665 Y226.533 E15.14588
G1 X219.863 Y227.022 E15.18961
G1 X219.141 Y227.37 E15.22694
G1 X217.527 Y228.093 E15.30929
G1 X215.121 Y229.253 E15.43366
G1 X214.202 Y229.725 E15.48177
G1 X213.527 Y230.044 E15.51653
G1 X212.855 Y230.325 E15.55045
G1 X212.163 Y230.565 E15.58455
G1 X211.413 Y230.773 E15.62079
G1 X210.691 Y230.924 E15.65514
G1 X209.961 Y231.03 E15.68949
G1 X209.24 Y231.09 E15.72318
G1 X208.499 Y231.105 E15.75769
G1 X207.846 Y231.089 E15.7881
G1 X206.628 Y231.003 E15.84496
G1 X203.889 Y230.849 E15.9727
G1 X201.211 Y230.773 E16.09745
G1 X198.571 Y230.773 E16.22038
G1 X195.914 Y230.848 E16.34415
G1 X192.283 Y231.075 E16.51356
G1 X192.037 Y231.085 E16.52502
G1 X191.145 Y231.103 E16.56656
G1 X190.408 Y231.071 E16.60091
G1 X189.667 Y230.992 E16.63561
G1 X188.953 Y230.871 E16.66933
G1 X188.211 Y230.697 E16.70482
G1 X187.414 Y230.461 E16.74353
G1 X186.566 Y230.125 E16.786
G1 X186.167 Y229.941 E16.80646
G1 X183.636 Y228.655 E16.93865
G1 X180.89 Y227.378 E17.07967
G1 X180.212 Y227.057 E17.1146
G1 X179.613 Y226.729 E17.1464
G1 X179.124 Y226.387 E17.17418
G1 X178.939 Y226.243 E17.1851
G1 X178.425 Y225.793 E17.21691
G1 X177.968 Y225.286 E17.24869
G1 X177.473 Y224.563 E17.28949
G1 X177.371 Y224.387 E17.29897
G1 X177.064 Y223.777 E17.33077
G1 X176.83 Y223.135 E17.36258
G1 X176.693 Y222.586 E17.38893
G1 X176.59 Y222.016 E17.4159
G1 X176.492 Y221.287 E17.45015
G1 X176.405 Y220.257 E17.49829
G1 X175.263 Y203.462 E18.28214
G1 X175.047 Y200.833 E18.40497
G1 X174.748 Y198.135 E18.53137
G1 X174.384 Y195.527 E18.65398
G1 X173.937 Y192.878 E18.77907
G1 X173.426 Y190.287 E18.90205
G1 X172.846 Y187.737 E19.02382
G1 X172.164 Y185.082 E19.15146
G1 X171.792 Y183.803 E19.21348
G1 X171.511 Y182.795 E19.26221
G1 X171.425 Y182.442 E19.27913
G1 X171.257 Y181.652 E19.31674
G1 X171.149 Y180.925 E19.35096
G1 X171.088 Y180.198 E19.38493
G1 X171.067 Y179.331 E19.42531
G1 X171.119 Y178.482 E19.46492
G1 X171.182 Y177.962 E19.48931
G1 X171.303 Y177.245 E19.52317
G1 X171.474 Y176.52 E19.55785
G1 X171.703 Y175.766 E19.59455
G1 X171.962 Y175.075 E19.62891
G1 X172.251 Y174.43 E19.66182
G1 X172.58 Y173.801 E19.69487
G1 X172.98 Y173.138 E19.73093
G1 X173.404 Y172.527 E19.76556
G1 X173.875 Y171.933 E19.80086
G1 X174.365 Y171.389 E19.83495
M204 S3000
M205 X10 Y10
G0 F3000 X174.757 Y171.789
M204 S1800
M205 X8 Y8
G1 F2400 X175.291 Y171.266 E19.86975
G1 X175.796 Y170.83 E19.90082
G1 X176.374 Y170.392 E19.93459
G1 X177.035 Y169.947 E19.97169
G1 X177.787 Y169.532 E20.01169
G1 X178.239 Y169.319 E20.03496
G1 X178.919 Y169.037 E20.06923
G1 X179.524 Y168.828 E20.09904
G1 X180.216 Y168.635 E20.13249
G1 X180.87 Y168.497 E20.16361
G1 X181.643 Y168.384 E20.19999
G1 X182.301 Y168.329 E20.23074
G1 X183.046 Y168.314 E20.26543
G1 X183.706 Y168.342 E20.29619
G1 X184.436 Y168.419 E20.33037
G1 X184.619 Y168.442 E20.33896
G1 X185.341 Y168.544 E20.37292
G1 X187.028 Y168.804 E20.4524
G1 X189.721 Y169.143 E20.57878
G1 X192.341 Y169.397 E20.70135
G1 X195.046 Y169.583 E20.82761
G1 X197.714 Y169.691 E20.95194
G1 X200.42 Y169.723 E21.07795
G1 X203.052 Y169.681 E21.20053
G1 X205.76 Y169.559 E21.32675
G1 X208.43 Y169.364 E21.45141
G1 X211.075 Y169.096 E21.5752
G1 X214.026 Y168.708 E21.71379
G1 X215.714 Y168.459 E21.79325
G1 X216.377 Y168.404 E21.82422
G1 X217.126 Y168.389 E21.85911
G1 X217.788 Y168.417 E21.88996
G1 X218.515 Y168.494 E21.924
G1 X219.172 Y168.606 E21.95504
G1 X219.922 Y168.783 E21.99092
G1 X220.555 Y168.975 E22.02172
G1 X221.281 Y169.246 E22.0578
G1 X221.889 Y169.518 E22.08882
G1 X222.51 Y169.844 E22.12148
G1 X223.111 Y170.208 E22.1542
G1 X223.705 Y170.622 E22.18791
G1 X224.221 Y171.032 E22.2186
G1 X224.799 Y171.553 E22.25483
G1 X225.26 Y172.024 E22.28552
G1 X225.703 Y172.537 E22.31708
G1 X226.188 Y173.163 E22.35396
G1 X226.663 Y173.904 E22.39494
G1 X226.894 Y174.324 E22.41726
G1 X227.224 Y174.991 E22.45191
G1 X227.479 Y175.597 E22.48253
G1 X227.718 Y176.284 E22.5164
G1 X227.903 Y176.946 E22.5484
G1 X228.058 Y177.672 E22.58297
G1 X228.156 Y178.344 E22.61459
G1 X228.218 Y179.103 E22.65005
G1 X228.231 Y179.76 E22.68065
G1 X228.199 Y180.505 E22.71537
G1 X228.13 Y181.157 E22.7459
G1 X228.004 Y181.903 E22.78113
G1 X227.873 Y182.48 E22.80868
G1 X227.152 Y184.995 E22.93051
G1 X226.48 Y187.614 E23.05641
G1 X225.883 Y190.242 E23.1819
G1 X225.372 Y192.836 E23.30501
G1 X224.924 Y195.496 E23.43061
G1 X224.555 Y198.158 E23.55575
G1 X224.262 Y200.815 E23.68022
G1 X224.046 Y203.436 E23.80268
G1 X222.882 Y220.542 E24.60105
G1 X222.83 Y221.174 E24.63058
G1 X222.74 Y221.876 E24.66354
G1 X222.653 Y222.388 E24.68772
G1 X222.503 Y223.02 E24.71796
G1 X222.296 Y223.593 E24.74633
G1 X222.023 Y224.183 E24.7766
G1 X221.68 Y224.735 E24.80687
G1 X221.272 Y225.24 E24.8371
G1 X220.814 Y225.688 E24.86693
G1 X220.311 Y226.098 E24.89715
G1 X219.611 Y226.522 E24.93525
G1 X218.904 Y226.863 E24.9718
G1 X217.277 Y227.592 E25.05482
G1 X214.888 Y228.743 E25.1783
G1 X213.955 Y229.222 E25.22714
G1 X213.311 Y229.527 E25.26032
G1 X212.639 Y229.808 E25.29423
G1 X212.013 Y230.025 E25.32508
G1 X211.263 Y230.233 E25.36133
G1 X210.611 Y230.37 E25.39235
G1 X209.881 Y230.476 E25.4267
G1 X209.229 Y230.53 E25.45716
G1 X208.488 Y230.545 E25.49167
G1 X207.886 Y230.531 E25.51971
G1 X206.638 Y230.443 E25.57797
G1 X203.9 Y230.289 E25.70566
G1 X201.227 Y230.213 E25.83018
G1 X198.555 Y230.213 E25.9546
G1 X195.893 Y230.288 E26.0786
G1 X192.248 Y230.516 E26.24866
G1 X192.026 Y230.525 E26.259
G1 X191.134 Y230.543 E26.30055
G1 X190.467 Y230.514 E26.33164
G1 X189.726 Y230.435 E26.36633
G1 X189.081 Y230.326 E26.39679
G1 X188.339 Y230.152 E26.43228
G1 X187.607 Y229.935 E26.46783
G1 X186.781 Y229.608 E26.5092
G1 X186.421 Y229.441 E26.52768
G1 X183.899 Y228.16 E26.65939
G1 X181.13 Y226.872 E26.8016
G1 X180.452 Y226.551 E26.83653
G1 X179.883 Y226.238 E26.86677
G1 X179.468 Y225.946 E26.89039
G1 X179.283 Y225.802 E26.90131
G1 X178.796 Y225.372 E26.93156
G1 X178.365 Y224.885 E26.96184
G1 X177.958 Y224.283 E26.99568
G1 X177.856 Y224.107 E27.00515
G1 X177.565 Y223.525 E27.03545
G1 X177.348 Y222.913 E27.06569
G1 X177.21 Y222.31 E27.09449
G1 X177.116 Y221.758 E27.12057
G1 X177.05 Y221.239 E27.14493
G1 X176.964 Y220.219 E27.19259
G1 X175.822 Y203.424 E27.97644
G1 X175.603 Y200.764 E28.10072
G1 X175.305 Y198.074 E28.22675
G1 X174.94 Y195.461 E28.3496
G1 X174.489 Y192.781 E28.47615
G1 X173.969 Y190.15 E28.60103
G1 X173.385 Y187.583 E28.72361
G1 X172.714 Y184.968 E28.84932
G1 X172.332 Y183.653 E28.91308
G1 X172.051 Y182.645 E28.96181
G1 X171.972 Y182.325 E28.97716
G1 X171.804 Y181.535 E29.01477
G1 X171.707 Y180.878 E29.04569
G1 X171.646 Y180.151 E29.07966
G1 X171.626 Y179.35 E29.11697
G1 X171.677 Y178.525 E29.15546
G1 X171.735 Y178.055 E29.17751
G1 X171.856 Y177.338 E29.21137
G1 X172.01 Y176.683 E29.2427
G1 X172.239 Y175.929 E29.27939
G1 X172.473 Y175.304 E29.31047
G1 X172.762 Y174.659 E29.34338
G1 X173.059 Y174.09 E29.37327
G1 X173.459 Y173.427 E29.40932
G1 X173.843 Y172.874 E29.44067
G1 X174.314 Y172.28 E29.47597
G1 X174.757 Y171.789 E29.50677
M204 S3000
M205 X10 Y10
G1 F2400 E23.50677
;MESH:mg996r_servo_arm_09.05.2022.stl(5)
G0 F3000 X178.212 Y177.002
G0 X180.49 Y184.318
G0 X182.892 Y208.934
M204 S1800
M205 X8 Y8
;TYPE:WALL-INNER
G1 F2400 E29.50677
G1 F1500 X182.613 Y204.826 E29.69849
G1 X181.258 Y184.882 E30.62931
G1 X181.185 Y183.875 E30.67632
G1 X180.423 Y183.451 E30.71693
G1 X179.964 Y183.116 E30.74339
G1 X179.544 Y182.723 E30.77017
G1 X179.168 Y182.268 E30.79766
G1 X178.864 Y181.789 E30.82407
G1 X178.62 Y181.271 E30.85073
G1 X178.439 Y180.712 E30.87809
G1 X178.332 Y180.149 E30.90478
G1 X178.294 Y179.573 E30.93166
G1 X178.332 Y178.997 E30.95854
G1 X178.439 Y178.434 E30.98522
G1 X178.619 Y177.879 E31.01239
G1 X178.864 Y177.357 E31.03924
G1 X179.167 Y176.881 E31.06552
G1 X179.545 Y176.424 E31.09313
G1 X179.968 Y176.027 E31.12014
G1 X180.429 Y175.691 E31.14671
G1 X180.947 Y175.407 E31.17421
