;FLAVOR:Marlin
;TIME:4607
;Filament used: 3.33596m
;Layer height: 0.2
;MINX:178.594
;MINY:113.6
;MINZ:0.2
;MAXX:221.394
;MAXY:286.4
;MAXZ:2
;Generated with Cura_SteamEngine 4.11.0
M140 S60
M105
M190 S60
M104 S200
M105
M109 S200
M82 ;absolute extrusion mode
M107 ;Start with the fan off
G21 ;Set units to millimeters
G91 ;Change to relative positioning mode for retract filament and nozzle lifting
G1 F200 E-3 ;Retract 3mm filament for a clean start
G92 E0 ;Zero the extruded length
G1 F1000 Z5 ;Lift the nozzle 5mm before homing axes
G90 ;Absolute positioning
M82 ;Set extruder to absolute mode too
G28 X0 Y0 ;First move X/Y to min endstops
G28 Z0 ;Then move Z to min endstops
G1 F1000 Z15 ;After homing lift the nozzle 15mm before start printing

G92 E0
G92 E0
G1 F2400 E-6
;LAYER_COUNT:10
;LAYER:0
M106 S255
M204 S3000
M205 X10 Y10
G1 F600 Z0.275
G0 F3000 X179.624 Y116.541 Z0.275
M204 S1800
M205 X8 Y8
;TYPE:SKIRT
G1 F600 Z0.2
G1 F2400 E0
G1 X180.044 Y115.963 E0.03327
G1 X180.527 Y115.435 E0.06659
G1 X181.065 Y114.964 E0.09989
G1 X181.653 Y114.556 E0.13321
G1 X182.282 Y114.216 E0.1665
G1 X182.946 Y113.949 E0.19983
G1 X183.635 Y113.757 E0.23313
G1 X184.341 Y113.643 E0.26643
G1 X185.145 Y113.603 E0.30392
G1 X185.324 Y113.6 E0.31225
G1 X214.287 Y113.6 E1.66089
G1 X215.077 Y113.611 E1.69768
G1 X215.79 Y113.661 E1.73096
G1 X216.494 Y113.79 E1.76429
G1 X217.178 Y113.998 E1.79758
G1 X217.835 Y114.28 E1.83087
G1 X218.457 Y114.634 E1.8642
G1 X219.035 Y115.055 E1.89749
G1 X219.563 Y115.538 E1.93082
G1 X220.033 Y116.076 E1.96408
G1 X220.441 Y116.664 E1.99741
G1 X220.78 Y117.294 E2.03072
G1 X221.047 Y117.957 E2.064
G1 X221.238 Y118.647 E2.09734
G1 X221.351 Y119.353 E2.13063
G1 X221.391 Y120.15 E2.16779
G1 X221.394 Y120.33 E2.17617
G1 X221.393 Y219.384 E6.78854
G1 X221.383 Y220.088 E6.82133
G1 X221.333 Y220.801 E6.85461
G1 X221.204 Y221.505 E6.88793
G1 X220.997 Y222.189 E6.92121
G1 X220.715 Y222.847 E6.95455
G1 X220.432 Y223.356 E6.98166
G1 X220.292 Y223.583 E6.99408
G1 X218.933 Y225.864 E7.11772
G1 X217.627 Y228.202 E7.24242
G1 X216.407 Y230.54 E7.36522
G1 X215.252 Y232.916 E7.48823
G1 X214.155 Y235.344 E7.61229
G1 X213.131 Y237.789 E7.73572
G1 X212.191 Y240.235 E7.85774
G1 X211.306 Y242.739 E7.98141
G1 X210.489 Y245.281 E8.10574
G1 X209.76 Y247.784 E8.22713
G1 X209.089 Y250.364 E8.35126
G1 X208.491 Y252.956 E8.47513
G1 X207.971 Y255.554 E8.5985
G1 X207.527 Y258.147 E8.721
G1 X207.152 Y260.774 E8.84456
G1 X206.855 Y263.392 E8.96725
G1 X206.63 Y266.028 E9.09044
G1 X206.478 Y268.71 E9.21552
G1 X206.404 Y271.32 E9.3371
G1 X206.394 Y272.705 E9.4016
G1 X206.393 Y279.361 E9.71153
G1 X206.382 Y280.088 E9.74538
G1 X206.331 Y280.801 E9.77867
G1 X206.201 Y281.505 E9.812
G1 X205.994 Y282.189 E9.84528
G1 X205.711 Y282.846 E9.87859
G1 X205.357 Y283.467 E9.91188
G1 X204.935 Y284.045 E9.9452
G1 X204.452 Y284.573 E9.97852
G1 X203.913 Y285.043 E10.01182
G1 X203.324 Y285.449 E10.04513
G1 X202.694 Y285.788 E10.07844
G1 X202.031 Y286.055 E10.11173
G1 X201.341 Y286.245 E10.14505
G1 X200.635 Y286.358 E10.17834
G1 X199.844 Y286.397 E10.21522
G1 X199.664 Y286.4 E10.2236
G1 X185.618 Y286.399 E10.87764
G1 X184.92 Y286.39 E10.91015
G1 X184.207 Y286.341 E10.94343
G1 X183.503 Y286.213 E10.97675
G1 X182.818 Y286.007 E11.01005
G1 X182.161 Y285.725 E11.04335
G1 X181.539 Y285.372 E11.07665
G1 X180.96 Y284.952 E11.10995
G1 X180.431 Y284.47 E11.14328
G1 X179.96 Y283.932 E11.17657
G1 X179.552 Y283.345 E11.20986
G1 X179.212 Y282.715 E11.2432
G1 X178.944 Y282.052 E11.27649
G1 X178.752 Y281.363 E11.3098
G1 X178.638 Y280.657 E11.3431
G1 X178.596 Y279.831 E11.38161
G1 X178.594 Y279.658 E11.38967
G1 X178.595 Y120.587 E18.79668
G1 X178.604 Y119.922 E18.82765
G1 X178.653 Y119.209 E18.86093
G1 X178.782 Y118.505 E18.89425
G1 X178.989 Y117.821 E18.92753
G1 X179.271 Y117.163 E18.96086
G1 X179.624 Y116.541 E18.99417
M204 S3000
M205 X10 Y10
G0 F3000 X180.179 Y116.717
M204 S1800
M205 X8 Y8
G1 F2400 X180.597 Y116.176 E19.026
G1 X181.074 Y115.688 E19.05778
G1 X181.606 Y115.259 E19.0896
G1 X182.184 Y114.894 E19.12143
G1 X182.801 Y114.6 E19.15326
G1 X183.447 Y114.38 E19.18503
G1 X184.115 Y114.237 E19.21684
G1 X184.839 Y114.171 E19.25069
G1 X185.324 Y114.16 E19.27328
G1 X214.287 Y114.16 E20.62192
G1 X215.069 Y114.171 E20.65834
G1 X215.75 Y114.22 E20.69013
G1 X216.421 Y114.349 E20.72195
G1 X217.072 Y114.556 E20.75376
G1 X217.695 Y114.837 E20.78558
G1 X218.281 Y115.189 E20.81741
G1 X218.821 Y115.607 E20.84921
G1 X219.309 Y116.085 E20.88102
G1 X219.738 Y116.617 E20.91284
G1 X220.102 Y117.195 E20.94465
G1 X220.396 Y117.812 E20.97647
G1 X220.615 Y118.459 E21.00828
G1 X220.758 Y119.127 E21.04009
G1 X220.823 Y119.846 E21.0737
G1 X220.834 Y120.33 E21.09625
G1 X220.833 Y219.376 E25.70824
G1 X220.823 Y220.08 E25.74103
G1 X220.774 Y220.761 E25.77282
G1 X220.645 Y221.432 E25.80464
G1 X220.438 Y222.084 E25.83649
G1 X220.157 Y222.706 E25.86827
G1 X219.82 Y223.281 E25.89931
G1 X218.449 Y225.582 E26.02403
G1 X217.135 Y227.934 E26.14948
G1 X215.915 Y230.273 E26.27232
G1 X214.739 Y232.691 E26.39752
G1 X213.648 Y235.105 E26.52087
G1 X212.6 Y237.609 E26.64727
G1 X211.671 Y240.024 E26.76775
G1 X210.776 Y242.559 E26.89294
G1 X209.959 Y245.098 E27.01713
G1 X209.213 Y247.664 E27.14156
G1 X208.543 Y250.241 E27.26555
G1 X207.946 Y252.823 E27.38895
G1 X207.42 Y255.453 E27.51384
G1 X206.975 Y258.048 E27.63644
G1 X206.597 Y260.702 E27.76126
G1 X206.296 Y263.351 E27.88541
G1 X206.072 Y265.986 E28.00855
G1 X205.92 Y268.662 E28.13335
G1 X205.844 Y271.347 E28.25843
G1 X205.834 Y272.701 E28.32148
G1 X205.833 Y279.352 E28.63118
G1 X205.822 Y280.079 E28.66503
G1 X205.772 Y280.761 E28.69687
G1 X205.643 Y281.432 E28.72869
G1 X205.436 Y282.083 E28.7605
G1 X205.154 Y282.705 E28.7923
G1 X204.802 Y283.291 E28.82413
G1 X204.383 Y283.831 E28.85596
G1 X203.905 Y284.318 E28.88773
G1 X203.372 Y284.747 E28.91959
G1 X202.794 Y285.11 E28.95137
G1 X202.177 Y285.403 E28.98318
G1 X201.53 Y285.622 E29.01498
G1 X200.861 Y285.765 E29.04684
G1 X200.148 Y285.829 E29.08017
G1 X199.664 Y285.84 E29.10272
G1 X185.626 Y285.84 E29.75638
G1 X184.928 Y285.831 E29.78889
G1 X184.246 Y285.782 E29.82073
G1 X183.575 Y285.654 E29.85253
G1 X182.924 Y285.448 E29.88433
G1 X182.3 Y285.168 E29.91618
G1 X181.714 Y284.817 E29.94798
G1 X181.173 Y284.4 E29.97979
G1 X180.684 Y283.922 E30.01163
G1 X180.255 Y283.391 E30.04342
G1 X179.89 Y282.813 E30.07525
G1 X179.596 Y282.197 E30.10703
G1 X179.375 Y281.55 E30.13887
G1 X179.231 Y280.882 E30.17069
G1 X179.165 Y280.149 E30.20496
G1 X179.154 Y279.658 E30.22783
G1 X179.155 Y120.595 E37.63447
G1 X179.164 Y119.93 E37.66543
G1 X179.213 Y119.249 E37.69723
G1 X179.341 Y118.577 E37.72908
G1 X179.547 Y117.926 E37.76087
G1 X179.828 Y117.303 E37.7927
G1 X180.179 Y116.717 E37.8245
M204 S3000
M205 X10 Y10
G0 F3000 X180.734 Y116.902
M204 S1800
M205 X8 Y8
G1 F2400 X181.148 Y116.401 E37.85477
G1 X181.62 Y115.955 E37.88501
G1 X182.143 Y115.571 E37.91522
G1 X182.71 Y115.253 E37.94549
G1 X183.311 Y115.007 E37.97573
G1 X183.938 Y114.837 E38.00598
G1 X184.855 Y114.731 E38.04896
G1 X185.324 Y114.72 E38.07081
G1 X214.287 Y114.72 E39.41944
G1 X215.061 Y114.731 E39.45549
G1 X215.708 Y114.78 E39.4857
G1 X216.345 Y114.908 E39.51596
G1 X216.961 Y115.114 E39.5462
G1 X217.548 Y115.394 E39.57648
G1 X218.095 Y115.743 E39.6067
G1 X218.596 Y116.157 E39.63696
G1 X219.041 Y116.63 E39.6672
G1 X219.426 Y117.154 E39.69748
G1 X219.743 Y117.721 E39.72773
G1 X219.988 Y118.322 E39.75795
G1 X220.157 Y118.949 E39.78819
G1 X220.263 Y119.862 E39.83098
G1 X220.274 Y120.33 E39.85278
G1 X220.273 Y219.368 E44.46441
G1 X220.263 Y220.072 E44.49719
G1 X220.214 Y220.72 E44.52745
G1 X220.086 Y221.357 E44.5577
G1 X219.88 Y221.973 E44.58795
G1 X219.478 Y222.768 E44.62943
G1 X219.364 Y222.953 E44.63955
G1 X217.956 Y225.316 E44.76763
G1 X216.651 Y227.653 E44.89227
G1 X215.402 Y230.048 E45.01805
G1 X214.24 Y232.436 E45.14171
G1 X213.129 Y234.895 E45.26735
G1 X212.08 Y237.399 E45.39377
G1 X211.148 Y239.825 E45.51478
G1 X210.235 Y242.409 E45.64239
G1 X209.432 Y244.905 E45.76448
G1 X208.674 Y247.511 E45.89086
G1 X208.005 Y250.085 E46.0147
G1 X207.388 Y252.756 E46.14235
G1 X206.874 Y255.323 E46.26425
G1 X206.419 Y257.978 E46.38968
G1 X206.041 Y260.633 E46.51455
G1 X205.741 Y263.274 E46.63832
G1 X205.511 Y265.977 E46.76464
G1 X205.36 Y268.614 E46.88763
G1 X205.284 Y271.327 E47.01401
G1 X205.274 Y272.697 E47.0778
G1 X205.273 Y279.344 E47.38731
G1 X205.262 Y280.071 E47.42117
G1 X205.213 Y280.719 E47.45143
G1 X205.084 Y281.355 E47.48165
G1 X204.878 Y281.971 E47.51189
G1 X204.597 Y282.557 E47.54215
G1 X204.247 Y283.105 E47.57243
G1 X203.833 Y283.605 E47.60266
G1 X203.36 Y284.05 E47.6329
G1 X202.836 Y284.434 E47.66315
G1 X202.269 Y284.751 E47.6934
G1 X201.667 Y284.995 E47.72364
G1 X201.039 Y285.164 E47.75393
G1 X200.132 Y285.269 E47.79644
G1 X199.664 Y285.28 E47.81824
G1 X185.633 Y285.28 E48.47158
G1 X184.935 Y285.271 E48.50409
G1 X184.287 Y285.222 E48.53435
G1 X183.65 Y285.095 E48.56459
G1 X183.034 Y284.89 E48.59482
G1 X182.447 Y284.611 E48.62509
G1 X181.899 Y284.262 E48.65534
G1 X181.398 Y283.849 E48.68557
G1 X180.951 Y283.377 E48.71584
G1 X180.566 Y282.854 E48.74608
G1 X180.248 Y282.287 E48.77635
G1 X180.002 Y281.686 E48.80659
G1 X179.832 Y281.059 E48.83684
G1 X179.725 Y280.134 E48.8802
G1 X179.714 Y279.658 E48.90237
G1 X179.714 Y120.603 E56.30864
G1 X179.723 Y119.938 E56.33961
G1 X179.772 Y119.29 E56.36987
G1 X179.9 Y118.653 E56.40012
G1 X180.105 Y118.036 E56.43039
G1 X180.385 Y117.45 E56.46064
G1 X180.734 Y116.902 E56.49089
M204 S3000
M205 X10 Y10
G1 F2400 E50.49089
;MESH:endstop aluminium bar template 2mm 28.04.2022.stl
G0 F3000 X184.329 Y120.854
G0 X185.848 Y120.854
G0 X198.594 Y278.6
M204 S1800
M205 X8 Y8
;TYPE:WALL-INNER
G1 F2400 E56.49089
G1 F1500 X186.394 Y278.6 E57.05897
G1 X186.394 Y121.4 E64.37886
G1 X213.594 Y121.4 E65.64541
G1 X213.594 Y219.42 E70.20963
G1 X198.594 Y234.452 E71.19846
G1 X198.594 Y278.6 E73.25417
M204 S3000
M205 X10 Y10
G0 F3000 X192.246 Y144.001
M204 S1800
M205 X8 Y8
G1 F1500 X193.232 Y143.814 E73.30091
G1 X194.144 Y143.386 E73.34782
G1 X194.918 Y142.744 E73.39464
G1 X195.508 Y141.932 E73.44138
G1 X195.878 Y140.998 E73.48816
G1 X196.003 Y140 E73.53499
G1 X195.878 Y139.002 E73.58183
G1 X195.508 Y138.068 E73.62861
G1 X194.918 Y137.256 E73.67534
G1 X194.144 Y136.614 E73.72217
G1 X193.232 Y136.186 E73.76908
G1 X192.246 Y135.999 E73.81581
G1 X191.245 Y136.06 E73.86251
G1 X190.287 Y136.371 E73.90941
G1 X189.437 Y136.911 E73.9563
G1 X188.749 Y137.643 E74.00307
G1 X188.265 Y138.524 E74.04988
G1 X188.016 Y139.497 E74.09665
G1 X188.016 Y140.503 E74.14349
G1 X188.265 Y141.476 E74.19026
G1 X188.749 Y142.357 E74.23706
G1 X189.437 Y143.089 E74.28384
G1 X190.287 Y143.629 E74.33073
G1 X191.245 Y143.94 E74.37763
G1 X192.246 Y144.001 E74.42433
M204 S3000
M205 X10 Y10
G0 F3000 X193.862 Y142.942
G0 X194.535 Y142.385
G0 X195.048 Y141.679
G0 X195.369 Y140.867
G0 X195.479 Y140
G0 X192.246 Y131.001
M204 S1800
M205 X8 Y8
G1 F1500 X193.232 Y130.814 E74.47106
G1 X194.144 Y130.386 E74.51797
G1 X194.918 Y129.744 E74.5648
G1 X195.508 Y128.932 E74.61153
G1 X195.878 Y127.998 E74.65831
G1 X196.003 Y127 E74.70515
G1 X195.878 Y126.002 E74.75198
G1 X195.508 Y125.068 E74.79876
G1 X194.918 Y124.256 E74.8455
G1 X194.144 Y123.614 E74.89232
G1 X193.232 Y123.186 E74.93923
G1 X192.246 Y122.999 E74.98596
G1 X191.245 Y123.06 E75.03266
G1 X190.287 Y123.371 E75.07956
G1 X189.437 Y123.911 E75.12645
G1 X188.749 Y124.643 E75.17323
G1 X188.265 Y125.524 E75.22004
G1 X188.016 Y126.497 E75.2668
G1 X188.016 Y127.503 E75.31365
G1 X188.265 Y128.476 E75.36041
G1 X188.749 Y129.357 E75.40722
G1 X189.437 Y130.089 E75.454
G1 X190.287 Y130.629 E75.50089
G1 X191.245 Y130.94 E75.54779
G1 X192.246 Y131.001 E75.59449
M204 S3000
M205 X10 Y10
G0 F3000 X207.746 Y131.001
M204 S1800
M205 X8 Y8
G1 F1500 X208.732 Y130.814 E75.64122
G1 X209.644 Y130.386 E75.68813
G1 X210.418 Y129.744 E75.73495
G1 X211.008 Y128.932 E75.78169
G1 X211.378 Y127.998 E75.82847
G1 X211.503 Y127 E75.8753
G1 X211.378 Y126.002 E75.92214
G1 X211.008 Y125.068 E75.96892
G1 X210.418 Y124.256 E76.01565
G1 X209.644 Y123.614 E76.06248
G1 X208.732 Y123.186 E76.10939
G1 X207.746 Y122.999 E76.15612
G1 X206.745 Y123.06 E76.20282
G1 X205.787 Y123.371 E76.24972
G1 X204.937 Y123.911 E76.29661
G1 X204.249 Y124.643 E76.34339
G1 X203.765 Y125.524 E76.39019
G1 X203.516 Y126.497 E76.43696
G1 X203.516 Y127.503 E76.4838
G1 X203.765 Y128.476 E76.53057
G1 X204.249 Y129.357 E76.57737
G1 X204.937 Y130.089 E76.62415
G1 X205.787 Y130.629 E76.67104
G1 X206.745 Y130.94 E76.71794
G1 X207.746 Y131.001 E76.76464
M204 S3000
M205 X10 Y10
G0 F3000 X210.869 Y139.133
G0 X210.979 Y140
G0 X210.869 Y140.867
G0 X210.548 Y141.679
G0 X210.035 Y142.385
G0 X207.746 Y144.001
M204 S1800
M205 X8 Y8
G1 F1500 X208.732 Y143.814 E76.81137
G1 X209.644 Y143.386 E76.85828
G1 X210.418 Y142.744 E76.90511
G1 X211.008 Y141.932 E76.95184
G1 X211.378 Y140.998 E76.99862
G1 X211.503 Y140 E77.04546
G1 X211.378 Y139.002 E77.09229
G1 X211.008 Y138.068 E77.13907
G1 X210.418 Y137.256 E77.18581
G1 X209.644 Y136.614 E77.23263
G1 X208.732 Y136.186 E77.27954
G1 X207.746 Y135.999 E77.32627
G1 X206.745 Y136.06 E77.37297
G1 X205.787 Y136.371 E77.41987
G1 X204.937 Y136.911 E77.46676
G1 X204.249 Y137.643 E77.51354
G1 X203.765 Y138.524 E77.56035
G1 X203.516 Y139.497 E77.60711
G1 X203.516 Y140.503 E77.65396
G1 X203.765 Y141.476 E77.70072
G1 X204.249 Y142.357 E77.74753
G1 X204.937 Y143.089 E77.79431
G1 X205.787 Y143.629 E77.8412
G1 X206.745 Y143.94 E77.8881
G1 X207.746 Y144.001 E77.9348
M204 S3000
M205 X10 Y10
G0 F3000 X199.118 Y234.669
G0 X199.084 Y279.09
G0 X199.154 Y279.16
M204 S1800
M205 X8 Y8
G1 F1500 X185.834 Y279.16 E78.55503
G1 X185.834 Y120.84 E85.92707
G1 X214.154 Y120.84 E87.24577
G1 X214.154 Y219.652 E91.84687
G1 X199.154 Y234.684 E92.8357
G1 X199.154 Y279.16 E94.90669
M204 S3000
M205 X10 Y10
G0 F3000 X199.084 Y279.09
G0 X192.216 Y143.537
G0 X192.21 Y143.438
M204 S1800
M205 X8 Y8
G1 F1500 X193.058 Y143.277 E94.94688
G1 X193.841 Y142.909 E94.98717
G1 X194.506 Y142.358 E95.02738
G1 X195.013 Y141.66 E95.06755
G1 X195.331 Y140.858 E95.10773
G1 X195.439 Y140 E95.14799
G1 X195.331 Y139.142 E95.18826
G1 X195.013 Y138.34 E95.22843
G1 X194.506 Y137.642 E95.2686
G1 X193.841 Y137.091 E95.30882
G1 X193.058 Y136.723 E95.3491
G1 X192.21 Y136.562 E95.3893
G1 X191.35 Y136.615 E95.42942
G1 X190.527 Y136.882 E95.4697
G1 X189.797 Y137.346 E95.50998
G1 X189.206 Y137.975 E95.55017
G1 X188.79 Y138.732 E95.59039
G1 X188.576 Y139.568 E95.63057
G1 X188.576 Y140.432 E95.67081
G1 X188.79 Y141.268 E95.71099
G1 X189.206 Y142.025 E95.75121
G1 X189.797 Y142.654 E95.7914
G1 X190.527 Y143.118 E95.83168
G1 X191.35 Y143.385 E95.87196
G1 X192.21 Y143.438 E95.91209
M204 S3000
M205 X10 Y10
G0 F3000 X192.216 Y143.537
G0 X193.07 Y143.315
G0 X193.862 Y142.942
G0 X194.535 Y142.385
G0 X195.048 Y141.679
G0 X195.369 Y140.867
G0 X195.479 Y140
G0 X192.216 Y130.537
G0 X192.21 Y130.438
M204 S1800
M205 X8 Y8
G1 F1500 X193.058 Y130.277 E95.95228
G1 X193.841 Y129.909 E95.99256
G1 X194.506 Y129.358 E96.03278
G1 X195.013 Y128.66 E96.07295
G1 X195.331 Y127.858 E96.11312
G1 X195.439 Y127 E96.15339
G1 X195.331 Y126.142 E96.19366
G1 X195.013 Y125.34 E96.23383
G1 X194.506 Y124.642 E96.274
G1 X193.841 Y124.091 E96.31421
G1 X193.058 Y123.723 E96.3545
G1 X192.21 Y123.562 E96.39469
G1 X191.35 Y123.615 E96.43481
G1 X190.527 Y123.882 E96.4751
G1 X189.797 Y124.346 E96.51538
G1 X189.206 Y124.975 E96.55557
G1 X188.79 Y125.732 E96.59579
G1 X188.576 Y126.568 E96.63597
G1 X188.576 Y127.432 E96.6762
G1 X188.79 Y128.268 E96.71638
G1 X189.206 Y129.025 E96.75661
G1 X189.797 Y129.654 E96.79679
G1 X190.527 Y130.118 E96.83707
G1 X191.35 Y130.385 E96.87736
G1 X192.21 Y130.438 E96.91748
M204 S3000
M205 X10 Y10
G0 F3000 X192.216 Y130.537
G0 X207.716 Y130.537
G0 X207.71 Y130.438
M204 S1800
M205 X8 Y8
G1 F1500 X208.558 Y130.277 E96.95767
G1 X209.341 Y129.909 E96.99796
G1 X210.006 Y129.358 E97.03817
G1 X210.513 Y128.66 E97.07834
G1 X210.831 Y127.858 E97.11852
G1 X210.939 Y127 E97.15878
G1 X210.831 Y126.142 E97.19905
G1 X210.513 Y125.34 E97.23922
G1 X210.006 Y124.642 E97.2794
