;FLAVOR:Marlin
;TIME:2408
;Filament used: 2.11809m
;Layer height: 0.2
;MINX:145.378
;MINY:154.595
;MINZ:0.2
;MAXX:256.047
;MAXY:239.811
;MAXZ:5
;Generated with Cura_SteamEngine 4.11.0
M140 S60
M105
M190 S60
M104 S200
M105
M109 S200
M82 ;absolute extrusion mode
M107 ;Start with the fan off
G21 ;Set units to millimeters
G91 ;Change to relative positioning mode for retract filament and nozzle lifting
G1 F200 E-3 ;Retract 3mm filament for a clean start
G92 E0 ;Zero the extruded length
G1 F1000 Z5 ;Lift the nozzle 5mm before homing axes
G90 ;Absolute positioning
M82 ;Set extruder to absolute mode too
G28 X0 Y0 ;First move X/Y to min endstops
G28 Z0 ;Then move Z to min endstops
G1 F1000 Z15 ;After homing lift the nozzle 15mm before start printing

G92 E0
G92 E0
G1 F2400 E-6
;LAYER_COUNT:25
;LAYER:0
M106 S255
M204 S3000
M205 X10 Y10
G1 F600 Z0.275
G0 F3000 X150.865 Y159.872 Z0.275
M204 S1800
M205 X8 Y8
;TYPE:SKIRT
G1 F600 Z0.2
G1 F2400 E0
G1 X151.639 Y159.16 E0.04897
G1 X152.157 Y158.711 E0.08089
G1 X152.617 Y158.352 E0.10806
G1 X153.459 Y157.755 E0.15612
G1 X154.039 Y157.368 E0.18859
G1 X154.544 Y157.066 E0.21599
G1 X155.445 Y156.583 E0.26359
G1 X156.077 Y156.27 E0.29643
G1 X156.585 Y156.049 E0.32223
G1 X157.57 Y155.67 E0.37137
G1 X158.239 Y155.436 E0.40437
G1 X158.788 Y155.275 E0.43101
G1 X159.783 Y155.031 E0.47872
G1 X160.465 Y154.884 E0.5112
G1 X161.044 Y154.79 E0.53852
G1 X162.048 Y154.674 E0.58558
G1 X162.755 Y154.615 E0.61861
G1 X163.326 Y154.595 E0.64522
G1 X164.407 Y154.607 E0.69556
G1 X165.066 Y154.634 E0.72627
G1 X165.647 Y154.687 E0.75344
G1 X166.678 Y154.829 E0.8019
G1 X167.334 Y154.938 E0.83286
G1 X167.919 Y155.066 E0.86075
G1 X168.948 Y155.343 E0.91037
G1 X169.575 Y155.531 E0.94085
G1 X170.114 Y155.723 E0.96749
G1 X171.088 Y156.12 E1.01647
G1 X171.709 Y156.395 E1.04809
G1 X172.234 Y156.661 E1.0755
G1 X173.174 Y157.192 E1.12577
G1 X173.746 Y157.537 E1.15687
G1 X174.226 Y157.861 E1.18384
G1 X175.024 Y158.454 E1.23013
G1 X175.202 Y158.591 E1.24059
G1 X175.6 Y158.909 E1.26431
G1 X176.036 Y159.291 E1.2913
G1 X176.776 Y160.001 E1.33906
G1 X177.248 Y160.481 E1.3704
G1 X177.637 Y160.919 E1.39768
G1 X178.315 Y161.758 E1.44791
G1 X178.456 Y161.939 E1.45859
G1 X178.799 Y162.396 E1.4852
G1 X178.897 Y162.531 E1.49297
G1 X179.764 Y163.752 E1.5627
G1 X179.864 Y163.897 E1.5709
G1 X181.451 Y166.064 E1.69597
G1 X183.048 Y168.119 E1.81716
G1 X184.739 Y170.171 E1.94097
G1 X186.475 Y172.161 E2.06394
G1 X188.269 Y174.106 E2.18715
G1 X190.14 Y176.022 E2.31185
G1 X192.01 Y177.831 E2.433
G1 X193.979 Y179.63 E2.55719
G1 X195.985 Y181.362 E2.6806
G1 X198.054 Y183.049 E2.8049
G1 X200.13 Y184.645 E2.92683
G1 X202.283 Y186.206 E3.05067
G1 X204.294 Y187.583 E3.16415
G1 X204.5 Y187.72 E3.17567
G1 X205.336 Y188.385 E3.22542
G1 X205.741 Y188.798 E3.25235
G1 X206.286 Y189.409 E3.29047
G1 X208.104 Y191.388 E3.41561
G1 X209.925 Y193.26 E3.53721
G1 X211.856 Y195.137 E3.66261
G1 X213.802 Y196.924 E3.78563
G1 X215.775 Y198.636 E3.90727
G1 X217.86 Y200.343 E4.03274
G1 X219.936 Y201.947 E4.1549
G1 X222.067 Y203.5 E4.27768
G1 X224.254 Y205.001 E4.4012
G1 X226.48 Y206.438 E4.52457
G1 X228.745 Y207.809 E4.64785
G1 X231.056 Y209.122 E4.77162
G1 X233.39 Y210.362 E4.89469
G1 X235.754 Y211.533 E5.01753
G1 X238.162 Y212.642 E5.14097
G1 X240.581 Y213.674 E5.26344
G1 X243.073 Y214.656 E5.38816
G1 X245.542 Y215.548 E5.5104
G1 X248.072 Y216.383 E5.63446
G1 X250.663 Y217.156 E5.76036
G1 X251.391 Y217.362 E5.79559
G1 X252.067 Y217.595 E5.82888
G1 X252.713 Y217.902 E5.86219
G1 X253.321 Y218.28 E5.89552
G1 X253.883 Y218.722 E5.92882
G1 X254.392 Y219.225 E5.96214
G1 X254.841 Y219.781 E5.99542
G1 X255.226 Y220.384 E6.02873
G1 X255.541 Y221.026 E6.06203
G1 X255.783 Y221.7 E6.09537
G1 X255.947 Y222.396 E6.12867
G1 X256.034 Y223.106 E6.16198
G1 X256.047 Y223.527 E6.18159
G1 X256.007 Y224.241 E6.21489
G1 X255.868 Y225.029 E6.25215
G1 X255.751 Y225.507 E6.27506
G1 X253.409 Y234.244 E6.69626
G1 X253.223 Y234.902 E6.7281
G1 X252.99 Y235.578 E6.76139
G1 X252.683 Y236.224 E6.7947
G1 X252.306 Y236.832 E6.82801
G1 X251.864 Y237.394 E6.8613
G1 X251.362 Y237.903 E6.89459
G1 X250.806 Y238.353 E6.9279
G1 X250.203 Y238.738 E6.96121
G1 X249.561 Y239.054 E6.99453
G1 X248.888 Y239.296 E7.02783
G1 X248.192 Y239.461 E7.06114
G1 X247.482 Y239.547 E7.09444
G1 X246.766 Y239.554 E7.12778
G1 X246.303 Y239.516 E7.14941
G1 X245.62 Y239.433 E7.18145
G1 X244.083 Y239.227 E7.25366
G1 X241.424 Y238.947 E7.37816
G1 X238.793 Y238.745 E7.50103
G1 X236.182 Y238.619 E7.62275
G1 X233.506 Y238.566 E7.74738
G1 X230.862 Y238.587 E7.8705
G1 X228.191 Y238.685 E7.99496
G1 X225.581 Y238.855 E8.11675
G1 X222.978 Y239.098 E8.23848
G1 X219.004 Y239.609 E8.42505
G1 X218.095 Y239.745 E8.46785
G1 X217.383 Y239.811 E8.50114
G1 X216.668 Y239.797 E8.53444
G1 X215.958 Y239.703 E8.56779
G1 X215.264 Y239.531 E8.60109
G1 X214.593 Y239.283 E8.6344
G1 X213.955 Y238.961 E8.66767
G1 X213.356 Y238.57 E8.70098
G1 X212.764 Y238.077 E8.73685
G1 X212.422 Y237.751 E8.75886
G1 X183.279 Y208.611 E10.67787
G1 X181.301 Y206.688 E10.80633
G1 X179.361 Y204.906 E10.92899
G1 X177.369 Y203.179 E11.05175
G1 X175.315 Y201.495 E11.17543
G1 X173.244 Y199.893 E11.29735
G1 X171.065 Y198.306 E11.42287
G1 X168.914 Y196.83 E11.54434
G1 X166.673 Y195.382 E11.66858
G1 X164.404 Y194.008 E11.7921
G1 X162.115 Y192.707 E11.91469
G1 X159.772 Y191.462 E12.03824
G1 X157.392 Y190.283 E12.16192
G1 X155.793 Y189.54 E12.24402
G1 X155.342 Y189.309 E12.26761
G1 X154.345 Y188.746 E12.32093
G1 X153.787 Y188.41 E12.35126
G1 X153.29 Y188.075 E12.37917
G1 X152.47 Y187.464 E12.42678
G1 X151.921 Y187.03 E12.45937
G1 X151.49 Y186.652 E12.48606
G1 X150.737 Y185.93 E12.53464
G1 X150.262 Y185.447 E12.56618
G1 X149.875 Y185.01 E12.59336
G1 X149.207 Y184.184 E12.64283
G1 X148.8 Y183.649 E12.67413
G1 X148.479 Y183.179 E12.70063
G1 X147.921 Y182.279 E12.74994
G1 X147.581 Y181.694 E12.78145
G1 X147.317 Y181.18 E12.80836
G1 X146.874 Y180.212 E12.85793
G1 X146.612 Y179.59 E12.88935
G1 X146.414 Y179.045 E12.91635
G1 X146.101 Y178.044 E12.96519
G1 X145.919 Y177.394 E12.99662
G1 X145.794 Y176.843 E13.02293
G1 X145.607 Y175.807 E13.07195
G1 X145.503 Y175.109 E13.10481
G1 X145.447 Y174.535 E13.13167
G1 X145.394 Y173.517 E13.17913
G1 X145.378 Y172.824 E13.21141
G1 X145.395 Y172.239 E13.23866
G1 X145.475 Y171.166 E13.28876
G1 X145.542 Y170.517 E13.31914
G1 X145.631 Y169.944 E13.34614
G1 X145.839 Y168.915 E13.39503
G1 X146.002 Y168.22 E13.42827
G1 X146.157 Y167.683 E13.45429
G1 X146.481 Y166.72 E13.50161
G1 X146.719 Y166.075 E13.53362
G1 X146.949 Y165.539 E13.56078
G1 X147.413 Y164.579 E13.61043
G1 X147.724 Y163.981 E13.64181
G1 X148.014 Y163.489 E13.66841
G1 X148.601 Y162.586 E13.71856
G1 X148.979 Y162.04 E13.74948
G1 X149.333 Y161.58 E13.77651
G1 X150.007 Y160.783 E13.82511
G1 X150.465 Y160.274 E13.85699
G1 X150.865 Y159.872 E13.8834
M204 S3000
M205 X10 Y10
G0 F3000 X151.244 Y160.284
M204 S1800
M205 X8 Y8
G1 F2400 X152.018 Y159.572 E13.93237
G1 X152.522 Y159.136 E13.9634
G1 X152.941 Y158.809 E13.98815
G1 X153.783 Y158.212 E14.03621
G1 X154.348 Y157.835 E14.06784
G1 X154.809 Y157.56 E14.09284
G1 X155.71 Y157.077 E14.14044
G1 X156.322 Y156.773 E14.17226
G1 X156.786 Y156.572 E14.1958
G1 X157.771 Y156.193 E14.24495
G1 X158.42 Y155.966 E14.27696
G1 X158.921 Y155.819 E14.30127
G1 X159.916 Y155.575 E14.34898
G1 X160.58 Y155.432 E14.38061
G1 X161.109 Y155.347 E14.40556
G1 X162.113 Y155.231 E14.45262
G1 X162.799 Y155.173 E14.48467
G1 X163.32 Y155.155 E14.50895
G1 X164.401 Y155.167 E14.55929
G1 X165.04 Y155.193 E14.58907
G1 X165.571 Y155.242 E14.6139
G1 X166.602 Y155.384 E14.66236
G1 X167.24 Y155.49 E14.69247
G1 X167.773 Y155.607 E14.71788
G1 X168.802 Y155.884 E14.7675
G1 X169.411 Y156.067 E14.79711
G1 X169.902 Y156.242 E14.82138
G1 X170.876 Y156.639 E14.87036
G1 X171.479 Y156.906 E14.90107
G1 X171.958 Y157.148 E14.92606
G1 X172.898 Y157.679 E14.97633
G1 X173.454 Y158.015 E15.00658
G1 X173.892 Y158.311 E15.03119
G1 X174.69 Y158.904 E15.07749
G1 X174.852 Y159.028 E15.08699
G1 X175.25 Y159.346 E15.11071
G1 X175.648 Y159.695 E15.13536
G1 X176.388 Y160.405 E15.18311
G1 X176.846 Y160.871 E15.21354
G1 X177.201 Y161.271 E15.23844
G1 X177.879 Y162.11 E15.28867
G1 X178.008 Y162.275 E15.29842
G1 X178.351 Y162.732 E15.32503
G1 X179.253 Y163.999 E15.39745
G1 X179.411 Y164.226 E15.41033
G1 X180.988 Y166.379 E15.5346
G1 X182.618 Y168.477 E15.65831
G1 X184.315 Y170.537 E15.78258
G1 X186.071 Y172.55 E15.90697
G1 X187.87 Y174.499 E16.03048
G1 X189.711 Y176.385 E16.1532
G1 X191.657 Y178.268 E16.27929
G1 X193.594 Y180.038 E16.40147
G1 X195.624 Y181.79 E16.52633
G1 X197.7 Y183.483 E16.65107
G1 X199.779 Y185.081 E16.77317
G1 X201.975 Y186.673 E16.89947
G1 X204.015 Y188.07 E17.0146
G1 X204.189 Y188.186 E17.02433
G1 X204.953 Y188.792 E17.06974
G1 X205.323 Y189.171 E17.0944
G1 X205.886 Y189.802 E17.13378
G1 X207.686 Y191.761 E17.25766
G1 X209.547 Y193.674 E17.38193
G1 X211.465 Y195.538 E17.50647
G1 X213.415 Y197.33 E17.62979
G1 X215.432 Y199.08 E17.75413
G1 X217.482 Y200.758 E17.87749
G1 X219.584 Y202.382 E18.00118
G1 X221.756 Y203.965 E18.12633
G1 X223.961 Y205.478 E18.25085
G1 X226.18 Y206.911 E18.37385
G1 X228.471 Y208.298 E18.49855
G1 X230.768 Y209.603 E18.62157
G1 X233.114 Y210.849 E18.74526
G1 X235.522 Y212.042 E18.87039
G1 X237.946 Y213.158 E18.99465
G1 X240.377 Y214.195 E19.11772
G1 X242.866 Y215.177 E19.24231
G1 X245.384 Y216.086 E19.36696
G1 X247.903 Y216.917 E19.49048
G1 X250.487 Y217.688 E19.61604
G1 X251.239 Y217.901 E19.65243
G1 X251.884 Y218.125 E19.68423
G1 X252.499 Y218.424 E19.71607
G1 X253.074 Y218.791 E19.74783
G1 X253.603 Y219.224 E19.77966
G1 X254.078 Y219.716 E19.81151
G1 X254.492 Y220.259 E19.8433
G1 X254.839 Y220.847 E19.87509
G1 X255.116 Y221.472 E19.90693
G1 X255.318 Y222.125 E19.93876
G1 X255.442 Y222.797 E19.97057
G1 X255.487 Y223.527 E20.00463
G1 X255.447 Y224.209 E20.03644
G1 X255.324 Y224.898 E20.06903
G1 X255.21 Y225.362 E20.09128
G1 X252.87 Y234.092 E20.51214
G1 X252.684 Y234.75 E20.54398
G1 X252.46 Y235.395 E20.57577
G1 X252.162 Y236.01 E20.60759
G1 X251.794 Y236.586 E20.63942
G1 X251.362 Y237.115 E20.67122
G1 X250.871 Y237.59 E20.70303
G1 X250.328 Y238.004 E20.73483
G1 X249.74 Y238.352 E20.76664
G1 X249.115 Y238.629 E20.79848
G1 X248.462 Y238.831 E20.8303
G1 X247.791 Y238.956 E20.86209
G1 X247.109 Y239.001 E20.89391
G1 X246.37 Y238.96 E20.92838
G1 X245.694 Y238.878 E20.96008
G1 X244.142 Y238.67 E21.033
G1 X241.49 Y238.391 E21.15717
G1 X238.828 Y238.187 E21.28148
G1 X236.185 Y238.059 E21.4047
G1 X233.513 Y238.006 E21.52914
G1 X230.837 Y238.027 E21.65375
G1 X228.204 Y238.123 E21.77644
G1 X225.528 Y238.298 E21.90131
G1 X222.882 Y238.545 E22.02505
G1 X218.95 Y239.051 E22.20965
G1 X218.012 Y239.191 E22.25381
G1 X217.332 Y239.252 E22.2856
G1 X216.649 Y239.234 E22.31742
G1 X215.973 Y239.135 E22.34923
G1 X215.313 Y238.959 E22.38104
G1 X214.678 Y238.706 E22.41287
G1 X214.077 Y238.381 E22.44468
G1 X213.518 Y237.989 E22.47647
G1 X212.946 Y237.479 E22.51216
G1 X212.818 Y237.355 E22.52046
G1 X183.635 Y208.175 E24.44211
G1 X181.692 Y206.287 E24.56826
G1 X179.748 Y204.5 E24.69121
G1 X177.733 Y202.753 E24.8154
G1 X175.655 Y201.049 E24.94053
G1 X173.576 Y199.441 E25.06291
G1 X171.417 Y197.869 E25.18727
G1 X169.191 Y196.342 E25.31297
G1 X166.989 Y194.919 E25.43505
G1 X164.693 Y193.528 E25.56005
G1 X162.376 Y192.211 E25.68415
G1 X160.06 Y190.981 E25.80626
G1 X157.626 Y189.775 E25.93274
G1 X156.029 Y189.033 E26.01474
G1 X155.617 Y188.821 E26.03632
G1 X154.62 Y188.258 E26.08963
G1 X154.078 Y187.932 E26.11908
G1 X153.625 Y187.626 E26.14454
G1 X152.805 Y187.015 E26.19215
G1 X152.271 Y186.592 E26.22388
G1 X151.877 Y186.247 E26.24826
G1 X151.124 Y185.525 E26.29684
G1 X150.664 Y185.057 E26.32739
G1 X150.31 Y184.658 E26.35223
G1 X149.642 Y183.832 E26.4017
G1 X149.248 Y183.313 E26.43204
G1 X148.955 Y182.884 E26.45623
G1 X148.397 Y181.984 E26.50554
G1 X148.067 Y181.416 E26.53613
G1 X147.827 Y180.947 E26.56066
G1 X147.384 Y179.979 E26.61023
G1 X147.129 Y179.376 E26.64071
G1 X146.948 Y178.878 E26.66539
G1 X146.635 Y177.877 E26.71422
G1 X146.459 Y177.246 E26.74473
G1 X146.345 Y176.743 E26.76874
G1 X146.158 Y175.707 E26.81776
G1 X146.057 Y175.03 E26.84964
G1 X146.006 Y174.506 E26.87415
G1 X145.953 Y173.488 E26.92162
G1 X145.938 Y172.815 E26.95296
G1 X145.953 Y172.281 E26.97784
G1 X146.033 Y171.208 E27.02794
G1 X146.099 Y170.577 E27.05748
G1 X146.18 Y170.055 E27.08208
G1 X146.388 Y169.026 E27.13096
G1 X146.547 Y168.351 E27.16325
G1 X146.688 Y167.862 E27.18695
G1 X147.012 Y166.899 E27.23426
G1 X147.243 Y166.272 E27.26538
G1 X147.453 Y165.783 E27.29016
G1 X147.917 Y164.823 E27.33981
G1 X148.219 Y164.243 E27.37026
G1 X148.484 Y163.794 E27.39453
G1 X149.071 Y162.891 E27.44468
G1 X149.438 Y162.361 E27.4747
G1 X149.761 Y161.942 E27.49934
G1 X150.435 Y161.145 E27.54794
G1 X150.879 Y160.651 E27.57887
G1 X151.244 Y160.284 E27.60297
M204 S3000
M205 X10 Y10
G0 F3000 X151.623 Y160.696
M204 S1800
M205 X8 Y8
G1 F2400 X152.397 Y159.984 E27.65194
G1 X152.886 Y159.562 E27.68202
G1 X153.265 Y159.266 E27.70441
G1 X154.107 Y158.669 E27.75247
G1 X154.657 Y158.302 E27.78326
G1 X155.073 Y158.053 E27.80583
G1 X155.974 Y157.57 E27.85344
G1 X156.568 Y157.277 E27.88428
G1 X156.987 Y157.094 E27.90557
G1 X157.972 Y156.715 E27.95471
G1 X158.602 Y156.496 E27.98577
G1 X159.054 Y156.363 E28.00771
G1 X160.049 Y156.119 E28.05541
G1 X160.695 Y155.98 E28.08618
G1 X161.173 Y155.903 E28.10873
G1 X162.177 Y155.787 E28.15579
G1 X162.842 Y155.731 E28.18686
G1 X163.314 Y155.715 E28.20885
G1 X164.395 Y155.727 E28.25919
G1 X165.015 Y155.752 E28.28809
G1 X165.494 Y155.796 E28.31048
G1 X166.525 Y155.938 E28.35894
G1 X167.146 Y156.042 E28.38826
G1 X167.627 Y156.148 E28.4112
G1 X168.656 Y156.425 E28.46082
G1 X169.246 Y156.602 E28.4895
G1 X169.691 Y156.761 E28.51151
G1 X170.665 Y157.158 E28.56048
G1 X171.25 Y157.417 E28.59027
G1 X171.683 Y157.636 E28.61287
G1 X172.623 Y158.167 E28.66314
G1 X173.162 Y158.492 E28.69244
G1 X173.558 Y158.76 E28.71471
G1 X174.356 Y159.353 E28.761
G1 X174.503 Y159.466 E28.76964
G1 X174.901 Y159.784 E28.79336
G1 X175.26 Y160.099 E28.8156
G1 X176 Y160.809 E28.86335
G1 X176.445 Y161.262 E28.89292
G1 X176.766 Y161.623 E28.91541
G1 X177.444 Y162.462 E28.96564
G1 X177.56 Y162.612 E28.97447
G1 X177.903 Y163.069 E29.00108
G1 X177.984 Y163.18 E29.00748
G1 X178.841 Y164.387 E29.07641
G1 X178.953 Y164.549 E29.08558
G1 X180.538 Y166.713 E29.21048
G1 X182.191 Y168.84 E29.33592
G1 X183.873 Y170.882 E29.4591
G1 X185.65 Y172.92 E29.58501
G1 X187.471 Y174.893 E29.71003
G1 X189.317 Y176.783 E29.83305
G1 X191.25 Y178.653 E29.95828
G1 X193.247 Y180.478 E30.08425
G1 X195.262 Y182.218 E30.20822
G1 X197.346 Y183.917 E30.33342
G1 X199.468 Y185.548 E30.45805
G1 X201.624 Y187.111 E30.58204
G1 X203.699 Y188.532 E30.69915
G1 X203.879 Y188.652 E30.70922
G1 X204.569 Y189.2 E30.75025
G1 X204.905 Y189.544 E30.77264
G1 X205.451 Y190.156 E30.81083
G1 X207.269 Y192.135 E30.93597
G1 X209.169 Y194.088 E31.06284
G1 X211.064 Y195.93 E31.1859
G1 X213.048 Y197.752 E31.31133
G1 X215.069 Y199.506 E31.43593
G1 X217.143 Y201.204 E31.56074
G1 X219.253 Y202.834 E31.6849
G1 X221.428 Y204.419 E31.81021
G1 X223.634 Y205.933 E31.9348
G1 X225.889 Y207.389 E32.05979
G1 X228.182 Y208.778 E32.18462
G1 X230.521 Y210.107 E32.30989
G1 X232.853 Y211.345 E32.43283
G1 X235.289 Y212.552 E32.55942
G1 X237.699 Y213.662 E32.68297
G1 X240.172 Y214.716 E32.80814
G1 X242.666 Y215.7 E32.93299
G1 X245.196 Y216.614 E33.05825
G1 X247.713 Y217.444 E33.18166
G1 X250.393 Y218.244 E33.31189
G1 X251.086 Y218.44 E33.34542
G1 X251.699 Y218.655 E33.37567
G1 X252.281 Y218.944 E33.40593
G1 X252.823 Y219.302 E33.43618
G1 X253.317 Y219.724 E33.46643
G1 X253.755 Y220.203 E33.49665
G1 X254.131 Y220.733 E33.52691
G1 X254.44 Y221.305 E33.55718
G1 X254.675 Y221.91 E33.58741
G1 X254.835 Y222.54 E33.61767
G1 X254.916 Y223.184 E33.6479
G1 X254.927 Y223.527 E33.66388
G1 X254.887 Y224.175 E33.69411
G1 X254.779 Y224.766 E33.72208
G1 X254.669 Y225.217 E33.7437
G1 X252.331 Y233.939 E34.16417
G1 X252.145 Y234.597 E34.19601
G1 X251.93 Y235.21 E34.22626
G1 X251.642 Y235.792 E34.2565
G1 X251.284 Y236.335 E34.28678
