;FLAVOR:Marlin
;TIME:5517
;Filament used: 5.72969m
;Layer height: 0.2
;MINX:170.799
;MINY:170.799
;MINZ:0.2
;MAXX:229.201
;MAXY:229.201
;MAXZ:20
;Generated with Cura_SteamEngine 4.11.0
M140 S60
M105
M190 S60
M104 S200
M105
M109 S200
M82 ;absolute extrusion mode
M107 ;Start with the fan off
G21 ;Set units to millimeters
G91 ;Change to relative positioning mode for retract filament and nozzle lifting
G1 F200 E-3 ;Retract 3mm filament for a clean start
G92 E0 ;Zero the extruded length
G1 F1000 Z5 ;Lift the nozzle 5mm before homing axes
G90 ;Absolute positioning
M82 ;Set extruder to absolute mode too
G28 X0 Y0 ;First move X/Y to min endstops
G28 Z0 ;Then move Z to min endstops
G1 F1000 Z15 ;After homing lift the nozzle 15mm before start printing

G92 E0
G92 E0
G1 F2400 E-6
;LAYER_COUNT:100
;LAYER:0
M106 S255
M204 S3000
M205 X10 Y10
G1 F600 Z0.275
G0 F3000 X178.916 Y179.787 Z0.275
M204 S1800
M205 X8 Y8
;TYPE:SKIRT
G1 F600 Z0.2
G1 F2400 E0
G1 X179.686 Y179.088 E0.04842
G1 X180.343 Y178.507 E0.08926
G1 X181.659 Y177.284 E0.17292
G1 X181.941 Y177.033 E0.1905
G1 X182.754 Y176.426 E0.23774
G1 X183.566 Y175.915 E0.28242
G1 X184.313 Y175.459 E0.32317
G1 X185.925 Y174.417 E0.41255
G1 X186.253 Y174.218 E0.43041
G1 X187.105 Y173.793 E0.47474
G1 X188.069 Y173.399 E0.52324
G1 X188.856 Y173.09 E0.56261
G1 X190.563 Y172.37 E0.64887
G1 X190.887 Y172.242 E0.66509
G1 X191.843 Y171.954 E0.71159
G1 X192.831 Y171.74 E0.75866
G1 X193.655 Y171.574 E0.7978
G1 X195.504 Y171.151 E0.88612
G1 X195.813 Y171.086 E0.90082
G1 X196.831 Y170.964 E0.94856
G1 X197.884 Y170.923 E0.99763
G1 X198.733 Y170.901 E1.03718
G1 X200.554 Y170.808 E1.12208
G1 X201.053 Y170.799 E1.14532
G1 X201.952 Y170.858 E1.18727
G1 X202.915 Y170.99 E1.23253
G1 X203.864 Y171.132 E1.27722
G1 X205.721 Y171.364 E1.36436
G1 X205.904 Y171.39 E1.37296
G1 X206.606 Y171.53 E1.4063
G1 X206.962 Y171.633 E1.42355
G1 X207.93 Y171.945 E1.47091
G1 X208.789 Y172.233 E1.5131
G1 X210.547 Y172.772 E1.59872
G1 X210.814 Y172.859 E1.61179
G1 X211.775 Y173.27 E1.66046
G1 X212.61 Y173.711 E1.70443
G1 X213.313 Y174.095 E1.74173
G1 X215.128 Y175.025 E1.8367
G1 X215.311 Y175.122 E1.84634
G1 X215.924 Y175.492 E1.87968
G1 X216.233 Y175.717 E1.89748
G1 X216.997 Y176.309 E1.94248
G1 X217.673 Y176.849 E1.98277
G1 X219.17 Y177.982 E2.07019
G1 X219.439 Y178.193 E2.08611
G1 X220.212 Y178.915 E2.13536
G1 X220.912 Y179.686 E2.18386
G1 X221.493 Y180.344 E2.22473
G1 X222.715 Y181.657 E2.30825
G1 X222.982 Y181.957 E2.32695
G1 X223.574 Y182.754 E2.37318
G1 X224.085 Y183.566 E2.41785
G1 X224.541 Y184.313 E2.45861
G1 X225.583 Y185.925 E2.54798
G1 X225.782 Y186.253 E2.56585
G1 X226.207 Y187.105 E2.61018
G1 X226.601 Y188.069 E2.65868
G1 X226.91 Y188.856 E2.69804
G1 X227.63 Y190.563 E2.78431
G1 X227.758 Y190.887 E2.80053
G1 X228.046 Y191.843 E2.84702
G1 X228.26 Y192.831 E2.8941
G1 X228.426 Y193.655 E2.93324
G1 X228.849 Y195.504 E3.02156
G1 X228.914 Y195.813 E3.03626
G1 X229.036 Y196.831 E3.084
G1 X229.077 Y197.884 E3.13307
G1 X229.099 Y198.734 E3.17266
G1 X229.192 Y200.554 E3.25752
G1 X229.201 Y201.053 E3.28076
G1 X229.142 Y201.952 E3.32271
G1 X229.01 Y202.915 E3.36797
G1 X228.868 Y203.864 E3.41265
G1 X228.636 Y205.721 E3.4998
G1 X228.61 Y205.904 E3.5084
G1 X228.47 Y206.606 E3.54173
G1 X228.367 Y206.962 E3.55899
G1 X228.055 Y207.93 E3.60635
G1 X227.767 Y208.789 E3.64854
G1 X227.228 Y210.547 E3.73416
G1 X227.062 Y211.025 E3.75772
G1 X226.719 Y211.795 E3.79697
G1 X226.283 Y212.623 E3.84054
G1 X225.895 Y213.333 E3.87822
G1 X224.975 Y215.128 E3.97214
G1 X224.878 Y215.311 E3.98178
G1 X224.508 Y215.924 E4.01512
G1 X224.283 Y216.233 E4.03292
G1 X223.691 Y216.997 E4.07793
G1 X223.151 Y217.673 E4.11822
G1 X222.018 Y219.17 E4.20564
G1 X221.803 Y219.444 E4.22185
G1 X221.084 Y220.213 E4.27087
G1 X220.314 Y220.912 E4.3193
G1 X219.657 Y221.493 E4.36014
G1 X218.341 Y222.716 E4.44379
G1 X218.059 Y222.967 E4.46137
G1 X217.246 Y223.574 E4.50862
G1 X216.434 Y224.085 E4.55329
G1 X215.687 Y224.541 E4.59404
G1 X214.075 Y225.583 E4.68342
G1 X213.747 Y225.782 E4.70128
G1 X212.895 Y226.207 E4.74562
G1 X211.931 Y226.601 E4.79411
G1 X211.144 Y226.91 E4.83348
G1 X209.437 Y227.63 E4.91975
G1 X209.113 Y227.758 E4.93597
G1 X208.157 Y228.046 E4.98246
G1 X207.169 Y228.26 E5.02953
G1 X206.345 Y228.426 E5.06867
G1 X204.496 Y228.849 E5.15699
G1 X204.187 Y228.914 E5.1717
G1 X203.169 Y229.036 E5.21944
G1 X202.116 Y229.077 E5.26851
G1 X201.267 Y229.099 E5.30805
G1 X199.446 Y229.192 E5.39296
G1 X198.947 Y229.201 E5.4162
G1 X198.048 Y229.142 E5.45815
G1 X197.085 Y229.01 E5.50341
G1 X196.136 Y228.868 E5.54809
G1 X194.279 Y228.636 E5.63523
G1 X194.096 Y228.61 E5.64384
G1 X193.394 Y228.47 E5.67717
G1 X193.038 Y228.367 E5.69443
G1 X192.07 Y228.055 E5.74179
G1 X191.211 Y227.767 E5.78397
G1 X189.453 Y227.228 E5.86959
G1 X188.975 Y227.062 E5.89316
G1 X188.205 Y226.719 E5.93241
G1 X187.377 Y226.283 E5.97598
G1 X186.667 Y225.895 E6.01365
G1 X184.872 Y224.975 E6.10758
G1 X184.689 Y224.878 E6.11722
G1 X184.076 Y224.508 E6.15056
G1 X183.767 Y224.283 E6.16836
G1 X183.003 Y223.691 E6.21336
G1 X182.327 Y223.151 E6.25365
G1 X180.83 Y222.018 E6.34107
G1 X180.556 Y221.803 E6.35729
G1 X179.787 Y221.084 E6.40631
G1 X179.088 Y220.314 E6.45474
G1 X178.507 Y219.657 E6.49558
G1 X177.284 Y218.341 E6.57923
G1 X177.018 Y218.042 E6.59786
G1 X176.426 Y217.245 E6.64409
G1 X175.915 Y216.433 E6.68877
G1 X175.459 Y215.686 E6.72952
G1 X174.417 Y214.074 E6.8189
G1 X174.229 Y213.767 E6.83566
G1 X173.793 Y212.895 E6.88106
G1 X173.399 Y211.931 E6.92955
G1 X173.09 Y211.144 E6.96892
G1 X172.37 Y209.437 E7.05519
G1 X172.242 Y209.113 E7.07141
G1 X171.954 Y208.157 E7.1179
G1 X171.74 Y207.169 E7.16497
G1 X171.574 Y206.345 E7.20411
G1 X171.151 Y204.496 E7.29243
G1 X171.086 Y204.187 E7.30714
G1 X170.964 Y203.169 E7.35488
G1 X170.923 Y202.116 E7.40395
G1 X170.901 Y201.266 E7.44354
G1 X170.808 Y199.446 E7.5284
G1 X170.799 Y198.947 E7.55164
G1 X170.858 Y198.048 E7.59359
G1 X170.99 Y197.085 E7.63885
G1 X171.132 Y196.136 E7.68353
G1 X171.364 Y194.279 E7.77067
G1 X171.39 Y194.096 E7.77928
G1 X171.53 Y193.394 E7.81261
G1 X171.633 Y193.038 E7.82987
G1 X171.945 Y192.07 E7.87722
G1 X172.233 Y191.211 E7.91941
G1 X172.772 Y189.453 E8.00503
G1 X172.938 Y188.975 E8.02859
G1 X173.281 Y188.205 E8.06784
G1 X173.717 Y187.377 E8.11142
G1 X174.105 Y186.667 E8.14909
G1 X175.025 Y184.872 E8.24301
G1 X175.122 Y184.689 E8.25266
G1 X175.492 Y184.076 E8.286
G1 X175.717 Y183.767 E8.3038
G1 X176.309 Y183.003 E8.3488
G1 X176.849 Y182.327 E8.38909
G1 X177.982 Y180.83 E8.47651
G1 X178.197 Y180.556 E8.49273
G1 X178.916 Y179.787 E8.54175
M204 S3000
M205 X10 Y10
G0 F3000 X179.292 Y180.201
M204 S1800
M205 X8 Y8
G1 F2400 X180.057 Y179.508 E8.58981
G1 X180.719 Y178.923 E8.63095
G1 X182.041 Y177.694 E8.715
G1 X182.311 Y177.453 E8.73185
G1 X183.052 Y176.9 E8.77491
G1 X183.858 Y176.393 E8.81924
G1 X184.626 Y175.924 E8.86115
G1 X186.229 Y174.888 E8.95002
G1 X186.539 Y174.699 E8.96693
G1 X187.317 Y174.311 E9.00741
G1 X188.274 Y173.92 E9.05555
G1 X189.077 Y173.605 E9.09571
G1 X190.781 Y172.886 E9.18183
G1 X191.09 Y172.764 E9.1973
G1 X191.962 Y172.501 E9.23971
G1 X192.941 Y172.289 E9.28635
G1 X193.781 Y172.12 E9.32625
G1 X195.771 Y171.666 E9.4213
G1 X195.924 Y171.635 E9.42856
G1 X196.853 Y171.524 E9.47213
G1 X197.898 Y171.483 E9.52083
G1 X198.777 Y171.461 E9.56177
G1 X200.583 Y171.368 E9.64598
G1 X201.056 Y171.359 E9.66801
G1 X201.876 Y171.413 E9.70627
G1 X202.832 Y171.544 E9.7512
G1 X203.791 Y171.687 E9.79635
G1 X205.642 Y171.918 E9.88321
G1 X205.825 Y171.944 E9.89182
G1 X206.791 Y172.166 E9.93797
G1 X207.752 Y172.476 E9.98499
G1 X208.646 Y172.776 E10.0289
G1 X210.382 Y173.308 E10.11344
G1 X210.637 Y173.391 E10.12593
G1 X211.514 Y173.765 E10.17033
G1 X212.342 Y174.202 E10.21392
G1 X213.07 Y174.599 E10.25253
G1 X214.866 Y175.52 E10.34652
G1 X215.049 Y175.617 E10.35616
G1 X215.89 Y176.16 E10.40278
G1 X216.647 Y176.747 E10.44738
G1 X217.321 Y177.286 E10.48757
G1 X218.832 Y178.429 E10.57579
G1 X219.092 Y178.633 E10.59118
G1 X219.797 Y179.291 E10.63608
G1 X220.492 Y180.057 E10.68424
G1 X221.06 Y180.7 E10.72419
G1 X222.305 Y182.038 E10.80929
G1 X222.56 Y182.326 E10.82721
G1 X223.1 Y183.052 E10.86934
G1 X223.607 Y183.858 E10.91368
G1 X224.076 Y184.626 E10.95558
G1 X225.112 Y186.229 E11.04445
G1 X225.301 Y186.539 E11.06136
G1 X225.689 Y187.317 E11.10184
G1 X226.08 Y188.274 E11.14998
G1 X226.395 Y189.077 E11.19014
G1 X227.114 Y190.781 E11.27626
G1 X227.236 Y191.09 E11.29173
G1 X227.499 Y191.962 E11.33414
G1 X227.711 Y192.941 E11.38079
G1 X227.88 Y193.781 E11.42068
G1 X228.334 Y195.771 E11.51573
G1 X228.365 Y195.924 E11.523
G1 X228.476 Y196.853 E11.56656
G1 X228.517 Y197.898 E11.61526
G1 X228.539 Y198.778 E11.65625
G1 X228.632 Y200.583 E11.74041
G1 X228.641 Y201.056 E11.76244
G1 X228.587 Y201.876 E11.8007
G1 X228.456 Y202.832 E11.84563
G1 X228.313 Y203.791 E11.89078
G1 X228.082 Y205.642 E11.97764
G1 X228.056 Y205.825 E11.98625
G1 X227.834 Y206.791 E12.0324
G1 X227.524 Y207.752 E12.07942
G1 X227.224 Y208.646 E12.12333
G1 X226.692 Y210.382 E12.20788
G1 X226.537 Y210.831 E12.22999
G1 X226.224 Y211.534 E12.26583
G1 X225.791 Y212.354 E12.30901
G1 X225.414 Y213.045 E12.34566
G1 X224.48 Y214.866 E12.44096
G1 X224.383 Y215.049 E12.4506
G1 X223.84 Y215.89 E12.49721
G1 X223.253 Y216.647 E12.54182
G1 X222.714 Y217.321 E12.582
G1 X221.496 Y218.929 E12.67593
G1 X221.364 Y219.096 E12.68585
G1 X220.708 Y219.799 E12.73062
G1 X219.943 Y220.492 E12.77868
G1 X219.281 Y221.077 E12.81982
G1 X217.959 Y222.306 E12.90387
G1 X217.689 Y222.547 E12.92072
G1 X216.948 Y223.1 E12.96378
G1 X216.142 Y223.607 E13.00811
G1 X215.374 Y224.076 E13.05002
G1 X213.771 Y225.112 E13.13889
G1 X213.461 Y225.301 E13.1558
G1 X212.683 Y225.689 E13.19628
G1 X211.726 Y226.08 E13.24442
G1 X210.923 Y226.395 E13.28458
G1 X209.219 Y227.114 E13.3707
G1 X208.91 Y227.236 E13.38617
G1 X208.038 Y227.499 E13.42858
G1 X207.059 Y227.711 E13.47522
G1 X206.219 Y227.88 E13.51512
G1 X204.229 Y228.334 E13.61017
G1 X204.076 Y228.365 E13.61743
G1 X203.147 Y228.476 E13.661
G1 X202.102 Y228.517 E13.7097
G1 X201.223 Y228.539 E13.75064
G1 X199.417 Y228.632 E13.83485
G1 X198.944 Y228.641 E13.85688
G1 X198.124 Y228.587 E13.89514
G1 X197.168 Y228.456 E13.94007
G1 X196.209 Y228.313 E13.98522
G1 X194.358 Y228.082 E14.07208
G1 X194.175 Y228.056 E14.08069
G1 X193.209 Y227.834 E14.12684
G1 X192.248 Y227.524 E14.17386
G1 X191.354 Y227.224 E14.21777
G1 X189.618 Y226.692 E14.30231
G1 X189.169 Y226.537 E14.32443
G1 X188.466 Y226.224 E14.36027
G1 X187.646 Y225.791 E14.40344
G1 X186.955 Y225.414 E14.4401
G1 X185.134 Y224.48 E14.53539
G1 X184.951 Y224.383 E14.54504
G1 X184.11 Y223.84 E14.59165
G1 X183.353 Y223.253 E14.63626
G1 X182.679 Y222.714 E14.67644
G1 X181.071 Y221.496 E14.77037
G1 X180.904 Y221.364 E14.78028
G1 X180.201 Y220.708 E14.82506
G1 X179.508 Y219.943 E14.87312
G1 X178.923 Y219.281 E14.91426
G1 X177.694 Y217.959 E14.99831
G1 X177.44 Y217.673 E15.01612
G1 X176.9 Y216.947 E15.05825
G1 X176.393 Y216.141 E15.10259
G1 X175.918 Y215.363 E15.14504
G1 X174.888 Y213.77 E15.23337
G1 X174.709 Y213.479 E15.24928
G1 X174.311 Y212.683 E15.29072
G1 X173.92 Y211.726 E15.33885
G1 X173.605 Y210.923 E15.37902
G1 X172.886 Y209.219 E15.46514
G1 X172.764 Y208.91 E15.48061
G1 X172.501 Y208.038 E15.52302
G1 X172.289 Y207.059 E15.56966
G1 X172.12 Y206.219 E15.60956
G1 X171.666 Y204.229 E15.7046
G1 X171.635 Y204.076 E15.71187
G1 X171.524 Y203.147 E15.75544
G1 X171.483 Y202.102 E15.80413
G1 X171.461 Y201.222 E15.84512
G1 X171.368 Y199.417 E15.92928
G1 X171.359 Y198.944 E15.95131
G1 X171.413 Y198.124 E15.98958
G1 X171.544 Y197.168 E16.03451
G1 X171.687 Y196.209 E16.07966
G1 X171.918 Y194.358 E16.16652
G1 X171.944 Y194.175 E16.17512
G1 X172.166 Y193.209 E16.22128
G1 X172.476 Y192.248 E16.26829
G1 X172.776 Y191.354 E16.3122
G1 X173.308 Y189.618 E16.39675
G1 X173.463 Y189.169 E16.41887
G1 X173.776 Y188.466 E16.4547
G1 X174.209 Y187.646 E16.49788
G1 X174.586 Y186.955 E16.53453
G1 X175.52 Y185.134 E16.62983
G1 X175.617 Y184.951 E16.63947
G1 X176.16 Y184.11 E16.68609
G1 X176.747 Y183.353 E16.73069
G1 X177.286 Y182.679 E16.77088
G1 X178.504 Y181.071 E16.86481
G1 X178.636 Y180.904 E16.87472
G1 X179.292 Y180.201 E16.91949
M204 S3000
M205 X10 Y10
G0 F3000 X179.669 Y180.616
M204 S1800
M205 X8 Y8
G1 F2400 X180.428 Y179.927 E16.96723
G1 X181.097 Y179.336 E17.00879
G1 X182.422 Y178.104 E17.09304
G1 X182.681 Y177.874 E17.10917
G1 X183.351 Y177.373 E17.14812
G1 X184.149 Y176.871 E17.19202
G1 X184.946 Y176.385 E17.23549
G1 X186.534 Y175.358 E17.32355
G1 X186.825 Y175.18 E17.33943
G1 X187.529 Y174.829 E17.37606
G1 X188.478 Y174.442 E17.42379
G1 X189.278 Y174.128 E17.4638
G1 X190.999 Y173.402 E17.55078
G1 X191.292 Y173.286 E17.56545
G1 X192.081 Y173.049 E17.60381
G1 X193.052 Y172.838 E17.65008
G1 X193.899 Y172.667 E17.69032
G1 X195.883 Y172.215 E17.78507
G1 X196.036 Y172.184 E17.79234
G1 X196.876 Y172.083 E17.83173
G1 X197.912 Y172.043 E17.88001
G1 X198.78 Y172.021 E17.92044
G1 X200.611 Y171.927 E18.00581
G1 X201.059 Y171.919 E18.02668
G1 X201.8 Y171.968 E18.06126
G1 X202.75 Y172.098 E18.1059
G1 X203.685 Y172.238 E18.14993
G1 X205.564 Y172.472 E18.2381
G1 X205.747 Y172.498 E18.2467
G1 X206.62 Y172.699 E18.28842
G1 X207.574 Y173.007 E18.3351
G1 X208.458 Y173.303 E18.37851
G1 X210.34 Y173.882 E18.47019
G1 X210.46 Y173.922 E18.47608
G1 X211.252 Y174.26 E18.51618
G1 X212.073 Y174.694 E18.55942
G1 X212.796 Y175.089 E18.59779
G1 X214.604 Y176.015 E18.69237
G1 X214.787 Y176.112 E18.70202
G1 X215.547 Y176.602 E18.74412
G1 X216.297 Y177.184 E18.78833
G1 X216.992 Y177.74 E18.82977
G1 X218.579 Y178.941 E18.92245
G1 X218.745 Y179.072 E18.93229
G1 X219.383 Y179.667 E18.97291
G1 X220.073 Y180.428 E19.02075
G1 X220.647 Y181.078 E19.06113
G1 X221.895 Y182.419 E19.14643
G1 X222.138 Y182.694 E19.16351
G1 X222.627 Y183.351 E19.20165
G1 X223.129 Y184.149 E19.24555
G1 X223.615 Y184.946 E19.28902
G1 X224.642 Y186.534 E19.37708
G1 X224.82 Y186.825 E19.39296
G1 X225.171 Y187.529 E19.42959
G1 X225.558 Y188.478 E19.47731
G1 X225.872 Y189.278 E19.51733
G1 X226.598 Y190.999 E19.60431
G1 X226.714 Y191.292 E19.61898
G1 X226.951 Y192.081 E19.65734
G1 X227.162 Y193.052 E19.70361
G1 X227.333 Y193.899 E19.74385
G1 X227.785 Y195.883 E19.8386
G1 X227.816 Y196.036 E19.84587
G1 X227.917 Y196.876 E19.88526
G1 X227.957 Y197.912 E19.93354
G1 X227.979 Y198.781 E19.97402
G1 X228.073 Y200.611 E20.05934
G1 X228.081 Y201.059 E20.0802
G1 X228.032 Y201.8 E20.11478
G1 X227.902 Y202.75 E20.15943
G1 X227.762 Y203.685 E20.20345
G1 X227.528 Y205.564 E20.29162
G1 X227.502 Y205.747 E20.30023
G1 X227.301 Y206.62 E20.34195
G1 X226.993 Y207.574 E20.38863
G1 X226.697 Y208.458 E20.43203
G1 X226.157 Y210.218 E20.51776
G1 X226.011 Y210.638 E20.53846
G1 X225.728 Y211.273 E20.57083
G1 X225.3 Y212.086 E20.61362
G1 X224.901 Y212.815 E20.65231
G1 X223.985 Y214.604 E20.7459
G1 X223.888 Y214.787 E20.75555
G1 X223.398 Y215.547 E20.79765
G1 X222.816 Y216.297 E20.84186
G1 X222.26 Y216.992 E20.8833
G1 X221.056 Y218.582 E20.97617
G1 X220.924 Y218.749 E20.98608
G1 X220.331 Y219.384 E21.02654
G1 X219.572 Y220.073 E21.07427
G1 X218.903 Y220.664 E21.11584
G1 X217.578 Y221.896 E21.20008
G1 X217.319 Y222.126 E21.21621
G1 X216.649 Y222.627 E21.25517
G1 X215.851 Y223.129 E21.29907
G1 X215.054 Y223.615 E21.34253
G1 X213.466 Y224.642 E21.4306
G1 X213.175 Y224.82 E21.44648
G1 X212.471 Y225.171 E21.48311
G1 X211.522 Y225.558 E21.53083
G1 X210.722 Y225.872 E21.57085
G1 X209.001 Y226.598 E21.65783
G1 X208.708 Y226.714 E21.6725
G1 X207.919 Y226.951 E21.71086
G1 X206.948 Y227.162 E21.75713
G1 X206.101 Y227.333 E21.79736
G1 X204.117 Y227.785 E21.89211
G1 X203.964 Y227.816 E21.89938
G1 X203.124 Y227.917 E21.93878
G1 X202.088 Y227.957 E21.98706
G1 X201.22 Y227.979 E22.02749
G1 X199.389 Y228.073 E22.11286
G1 X198.941 Y228.081 E22.13372
G1 X198.2 Y228.032 E22.1683
G1 X197.25 Y227.902 E22.21295
G1 X196.315 Y227.762 E22.25697
G1 X194.436 Y227.528 E22.34514
G1 X194.253 Y227.502 E22.35375
G1 X193.38 Y227.301 E22.39546
G1 X192.426 Y226.993 E22.44214
G1 X191.542 Y226.697 E22.48555
G1 X189.782 Y226.157 E22.57128
G1 X189.362 Y226.011 E22.59198
