;FLAVOR:Marlin
;TIME:465
;Filament used: 0.426535m
;Layer height: 0.2
;MINX:178.496
;MINY:177.149
;MINZ:0.2
;MAXX:222.852
;MAXY:221.494
;MAXZ:5
;Generated with Cura_SteamEngine 4.11.0
M140 S60
M105
M190 S60
M104 S200
M105
M109 S200
M82 ;absolute extrusion mode
M107 ;Start with the fan off
G21 ;Set units to millimeters
G91 ;Change to relative positioning mode for retract filament and nozzle lifting
G1 F200 E-3 ;Retract 3mm filament for a clean start
G92 E0 ;Zero the extruded length
G1 F1000 Z5 ;Lift the nozzle 5mm before homing axes
G90 ;Absolute positioning
M82 ;Set extruder to absolute mode too
G28 X0 Y0 ;First move X/Y to min endstops
G28 Z0 ;Then move Z to min endstops
G1 F1000 Z15 ;After homing lift the nozzle 15mm before start printing

G92 E0
G92 E0
G1 F2400 E-6
;LAYER_COUNT:25
;LAYER:0
M106 S255
M204 S3000
M205 X10 Y10
G1 F600 Z0.275
G0 F3000 X202.892 Y180.879 Z0.275
M204 S1800
M205 X8 Y8
;TYPE:SKIRT
G1 F600 Z0.2
G1 F2400 E0
G1 X203.181 Y180.579 E0.0194
G1 X203.546 Y180.224 E0.04311
G1 X203.953 Y179.858 E0.06859
G1 X204.616 Y179.342 E0.10771
G1 X205.191 Y178.949 E0.14014
G1 X205.753 Y178.613 E0.17063
G1 X206.491 Y178.235 E0.20924
G1 X207.074 Y177.98 E0.23887
G1 X207.803 Y177.714 E0.27501
G1 X208.461 Y177.521 E0.30694
G1 X209.174 Y177.36 E0.34097
G1 X209.882 Y177.244 E0.37438
G1 X210.621 Y177.172 E0.40895
G1 X211.299 Y177.149 E0.44054
G1 X212.127 Y177.175 E0.47912
G1 X212.759 Y177.231 E0.50866
G1 X213.461 Y177.34 E0.54174
G1 X214.262 Y177.52 E0.57997
G1 X214.887 Y177.699 E0.61024
G1 X215.528 Y177.929 E0.64195
G1 X216.305 Y178.265 E0.68137
G1 X216.768 Y178.495 E0.70544
G1 X217.128 Y178.7 E0.72473
G1 X217.614 Y178.997 E0.75126
G1 X218.282 Y179.466 E0.78926
G1 X218.803 Y179.884 E0.82036
G1 X219.395 Y180.423 E0.85764
G1 X219.829 Y180.871 E0.88669
G1 X220.225 Y181.317 E0.91446
G1 X220.562 Y181.74 E0.93964
G1 X220.867 Y182.172 E0.96427
G1 X221.169 Y182.651 E0.99064
G1 X221.485 Y183.205 E1.02033
G1 X221.749 Y183.716 E1.04712
G1 X222.018 Y184.335 E1.07854
G1 X222.299 Y185.116 E1.11719
G1 X222.485 Y185.752 E1.14805
G1 X222.628 Y186.377 E1.1779
G1 X222.771 Y187.28 E1.22047
G1 X222.826 Y187.824 E1.24593
G1 X222.852 Y188.591 E1.28167
G1 X222.831 Y189.337 E1.31642
G1 X222.767 Y190.029 E1.34878
G1 X222.669 Y190.682 E1.37953
G1 X222.484 Y191.516 E1.4193
G1 X222.306 Y192.136 E1.44934
G1 X222.057 Y192.834 E1.48385
G1 X221.787 Y193.469 E1.51598
G1 X221.437 Y194.156 E1.55188
G1 X221.09 Y194.749 E1.58387
G1 X220.711 Y195.314 E1.61555
G1 X220.204 Y195.969 E1.65412
G1 X219.829 Y196.401 E1.68076
G1 X219.202 Y197.029 E1.72208
G1 X218.783 Y197.405 E1.7483
G1 X218.462 Y197.664 E1.7675
G1 X217.474 Y198.407 E1.82506
G1 X216.474 Y199.17 E1.88363
G1 X189.816 Y219.797 E3.45315
G1 X189.264 Y220.212 E3.4853
G1 X188.669 Y220.609 E3.51861
G1 X188.034 Y220.937 E3.55189
G1 X187.366 Y221.192 E3.58518
G1 X186.673 Y221.372 E3.61852
G1 X185.965 Y221.473 E3.65182
G1 X185.25 Y221.494 E3.68513
G1 X184.358 Y221.408 E3.72686
G1 X184.09 Y221.363 E3.73951
G1 X183.393 Y221.205 E3.77279
G1 X182.717 Y220.97 E3.80612
G1 X182.072 Y220.662 E3.8394
G1 X181.465 Y220.283 E3.87272
G1 X181.023 Y219.942 E3.89872
G1 X180.863 Y219.807 E3.90846
G1 X180.343 Y219.316 E3.94177
G1 X179.881 Y218.77 E3.97507
G1 X179.483 Y218.176 E4.00836
G1 X179.036 Y217.263 E4.0557
G1 X178.941 Y217.022 E4.06776
G1 X178.716 Y216.343 E4.10107
G1 X178.569 Y215.643 E4.13438
G1 X178.496 Y214.578 E4.18408
G1 X178.497 Y214.512 E4.18716
G1 X178.548 Y213.799 E4.22044
G1 X178.678 Y213.095 E4.25378
G1 X178.885 Y212.411 E4.28705
G1 X179.168 Y211.754 E4.32036
G1 X179.523 Y211.133 E4.35367
G1 X179.755 Y210.798 E4.37265
G1 X180.45 Y209.861 E4.42697
G1 X200.756 Y183.618 E5.97205
G1 X201.813 Y182.225 E6.05347
G1 X202.216 Y181.691 E6.08462
G1 X202.545 Y181.28 E6.10914
G1 X202.892 Y180.879 E6.13383
M204 S3000
M205 X10 Y10
G0 F3000 X203.571 Y180.981
M204 S1800
M205 X8 Y8
G1 F2400 X203.936 Y180.626 E6.15754
G1 X204.319 Y180.282 E6.18151
G1 X204.952 Y179.789 E6.21887
G1 X205.498 Y179.418 E6.24961
G1 X206.033 Y179.098 E6.27864
G1 X206.737 Y178.739 E6.31544
G1 X207.291 Y178.496 E6.3436
G1 X207.986 Y178.244 E6.37803
G1 X208.608 Y178.061 E6.40822
G1 X209.289 Y177.908 E6.44072
G1 X209.962 Y177.798 E6.47247
G1 X210.666 Y177.731 E6.5054
G1 X211.308 Y177.709 E6.53531
G1 X212.102 Y177.734 E6.5723
G1 X212.697 Y177.787 E6.60012
G1 X213.365 Y177.892 E6.63161
G1 X214.131 Y178.064 E6.66816
G1 X214.72 Y178.234 E6.69671
G1 X215.331 Y178.453 E6.72693
G1 X216.075 Y178.776 E6.7647
G1 X216.836 Y179.178 E6.80477
G1 X217.322 Y179.475 E6.8313
G1 X217.932 Y179.903 E6.86599
G1 X218.453 Y180.321 E6.8971
G1 X218.993 Y180.813 E6.93111
G1 X219.427 Y181.261 E6.96016
G1 X219.792 Y181.672 E6.98575
G1 X220.114 Y182.078 E7.00988
G1 X220.407 Y182.491 E7.03346
G1 X220.683 Y182.928 E7.05753
G1 X220.999 Y183.482 E7.08723
G1 X221.245 Y183.96 E7.11226
G1 X221.501 Y184.551 E7.14225
G1 X221.769 Y185.297 E7.17916
G1 X221.945 Y185.898 E7.20832
G1 X222.08 Y186.492 E7.23668
G1 X222.216 Y187.359 E7.27755
G1 X222.268 Y187.867 E7.30133
G1 X222.292 Y188.602 E7.33557
G1 X222.271 Y189.311 E7.3686
G1 X222.211 Y189.968 E7.39932
G1 X222.117 Y190.59 E7.42861
G1 X221.94 Y191.384 E7.46649
G1 X221.771 Y191.971 E7.49493
G1 X221.532 Y192.639 E7.52797
G1 X221.276 Y193.238 E7.5583
G1 X220.942 Y193.894 E7.59258
G1 X220.612 Y194.458 E7.62301
G1 X220.252 Y194.992 E7.65299
G1 X219.767 Y195.62 E7.68994
G1 X219.415 Y196.025 E7.71493
G1 X218.811 Y196.628 E7.75467
G1 X218.419 Y196.98 E7.7792
G1 X218.125 Y197.216 E7.79676
G1 X217.168 Y197.936 E7.85252
G1 X216.131 Y198.727 E7.91325
G1 X189.479 Y219.349 E9.4824
G1 X188.927 Y219.764 E9.51456
G1 X188.358 Y220.142 E9.54637
G1 X187.749 Y220.451 E9.57817
G1 X187.107 Y220.686 E9.61
G1 X186.443 Y220.845 E9.64179
G1 X185.765 Y220.926 E9.67359
G1 X185.081 Y220.926 E9.70544
G1 X184.451 Y220.855 E9.73496
G1 X184.183 Y220.81 E9.74761
G1 X183.517 Y220.658 E9.77942
G1 X182.873 Y220.429 E9.81125
G1 X182.261 Y220.126 E9.84305
G1 X181.688 Y219.754 E9.87486
G1 X181.224 Y219.379 E9.90264
G1 X180.728 Y218.909 E9.93446
G1 X180.291 Y218.384 E9.96626
G1 X179.918 Y217.812 E9.99806
G1 X179.557 Y217.058 E10.03699
G1 X179.462 Y216.817 E10.04905
G1 X179.249 Y216.167 E10.0809
G1 X179.113 Y215.498 E10.11269
G1 X179.056 Y214.587 E10.15519
G1 X179.057 Y214.521 E10.15826
G1 X179.107 Y213.839 E10.19011
G1 X179.236 Y213.168 E10.22192
G1 X179.443 Y212.517 E10.25373
G1 X179.725 Y211.895 E10.28553
G1 X180.204 Y211.131 E10.32752
G1 X180.893 Y210.204 E10.3813
G1 X201.199 Y183.961 E11.92638
G1 X202.261 Y182.562 E12.00817
G1 X202.653 Y182.041 E12.03853
G1 X202.982 Y181.63 E12.06305
G1 X203.571 Y180.981 E12.10386
M204 S3000
M205 X10 Y10
G0 F3000 X203.962 Y181.382
M204 S1800
M205 X8 Y8
G1 F2400 X204.327 Y181.027 E12.12756
G1 X204.959 Y180.485 E12.16633
G1 X205.567 Y180.042 E12.20136
G1 X206.06 Y179.729 E12.22855
G1 X206.634 Y179.412 E12.25909
G1 X207.261 Y179.116 E12.29137
G1 X207.828 Y178.89 E12.31979
G1 X208.498 Y178.672 E12.3526
G1 X209.054 Y178.53 E12.37932
G1 X209.742 Y178.396 E12.41196
G1 X210.373 Y178.316 E12.44158
G1 X211.051 Y178.273 E12.47321
G1 X211.316 Y178.269 E12.48555
G1 X212.077 Y178.293 E12.52101
G1 X212.635 Y178.344 E12.5471
G1 X213.269 Y178.444 E12.57698
G1 X214 Y178.608 E12.61187
G1 X214.554 Y178.769 E12.63873
G1 X215.134 Y178.977 E12.66742
G1 X215.844 Y179.286 E12.70348
G1 X216.544 Y179.656 E12.74035
G1 X217.03 Y179.953 E12.76687
G1 X217.581 Y180.34 E12.79822
G1 X218.102 Y180.758 E12.82932
G1 X218.59 Y181.202 E12.86005
G1 X219.024 Y181.65 E12.88909
G1 X219.359 Y182.027 E12.91257
G1 X219.788 Y182.582 E12.94524
G1 X220.196 Y183.206 E12.97995
G1 X220.512 Y183.76 E13.00965
G1 X220.865 Y184.48 E13.04699
G1 X221.105 Y185.086 E13.07734
G1 X221.338 Y185.802 E13.1124
G1 X221.476 Y186.341 E13.13831
G1 X221.592 Y186.948 E13.16709
G1 X221.699 Y187.78 E13.20615
G1 X221.732 Y188.613 E13.24496
G1 X221.712 Y189.284 E13.27622
G1 X221.654 Y189.908 E13.3054
G1 X221.564 Y190.498 E13.33319
G1 X221.396 Y191.252 E13.36916
G1 X221.236 Y191.806 E13.39602
G1 X221.007 Y192.444 E13.42758
G1 X220.766 Y193.007 E13.4561
G1 X220.447 Y193.632 E13.48877
G1 X220.133 Y194.167 E13.51766
G1 X219.794 Y194.671 E13.54594
G1 X219.329 Y195.27 E13.58125
G1 X219 Y195.648 E13.60458
G1 X218.421 Y196.227 E13.64271
G1 X217.788 Y196.769 E13.68152
G1 X216.8 Y197.512 E13.73908
G1 X215.788 Y198.284 E13.79835
G1 X189.143 Y218.901 E15.36709
G1 X188.591 Y219.316 E15.39925
G1 X188.049 Y219.674 E15.4295
G1 X187.467 Y219.962 E15.45973
G1 X186.853 Y220.177 E15.49003
G1 X186.219 Y220.315 E15.52024
G1 X185.572 Y220.374 E15.55049
G1 X184.922 Y220.353 E15.58077
G1 X184.276 Y220.258 E15.61118
G1 X183.643 Y220.111 E15.64144
G1 X183.033 Y219.888 E15.67168
G1 X182.455 Y219.591 E15.70194
G1 X181.745 Y219.086 E15.74251
G1 X181.585 Y218.951 E15.75226
G1 X181.115 Y218.503 E15.78249
G1 X180.704 Y218 E15.81274
G1 X180.358 Y217.45 E15.843
G1 X180.078 Y216.852 E15.87374
G1 X179.983 Y216.611 E15.88581
G1 X179.782 Y215.993 E15.91607
G1 X179.659 Y215.356 E15.94627
G1 X179.616 Y214.595 E15.98177
G1 X179.617 Y214.529 E15.98484
G1 X179.666 Y213.881 E16.0151
G1 X179.795 Y213.245 E16.04532
G1 X180.001 Y212.629 E16.07556
G1 X180.282 Y212.043 E16.10582
G1 X180.654 Y211.465 E16.13783
G1 X181.336 Y210.547 E16.19108
G1 X201.642 Y184.304 E17.73616
G1 X202.733 Y182.866 E17.82021
G1 X203.09 Y182.391 E17.84788
G1 X203.419 Y181.98 E17.8724
G1 X203.962 Y181.382 E17.91001
M204 S3000
M205 X10 Y10
G1 F2400 E11.91001
;MESH:Part_31_Chamber_Carrying_Handle_Clip_22.04.2021.stl
G0 F3000 X206.43 Y185.659
G0 X207.516 Y186.418
G0 X190.909 Y209.09
M204 S1800
M205 X8 Y8
;TYPE:WALL-INNER
G1 F2400 E17.91001
G1 F1500 X192.251 Y207.355 E18.01214
G1 X192.252 Y207.354 E18.01221
G1 X207.403 Y187.774 E19.16502
G1 X207.425 Y187.746 E19.16668
G1 X207.933 Y187.089 E19.20535
G1 X208.114 Y186.856 E19.21909
G1 X208.429 Y186.39 E19.24528
G1 X208.442 Y186.371 E19.24635
G1 X208.75 Y186.021 E19.26806
G1 X208.939 Y185.855 E19.27977
G1 X209.106 Y185.707 E19.29016
G1 X209.483 Y185.451 E19.31138
G1 X209.692 Y185.345 E19.32229
G1 X209.9 Y185.239 E19.33316
G1 X210.332 Y185.084 E19.35454
G1 X210.562 Y185.033 E19.36551
G1 X210.79 Y184.981 E19.37639
G1 X211.234 Y184.938 E19.39717
G1 X211.465 Y184.945 E19.40793
G1 X211.72 Y184.953 E19.41981
G1 X212.167 Y185.024 E19.44088
G1 X212.197 Y185.032 E19.44233
G1 X212.636 Y185.16 E19.46362
G1 X213.039 Y185.336 E19.4841
G1 X213.051 Y185.343 E19.48474
G1 X213.447 Y185.577 E19.50616
G1 X213.801 Y185.853 E19.52706
G1 X213.819 Y185.867 E19.52813
G1 X214.155 Y186.205 E19.55032
G1 X214.422 Y186.549 E19.57059
G1 X214.428 Y186.559 E19.57114
G1 X214.655 Y186.943 E19.59191
G1 X214.84 Y187.371 E19.61362
G1 X214.848 Y187.39 E19.61458
G1 X214.976 Y187.83 E19.63592
G1 X215.045 Y188.273 E19.65679
G1 X215.048 Y188.289 E19.65755
G1 X215.062 Y188.765 E19.67973
G1 X215.019 Y189.21 E19.70054
G1 X215.017 Y189.22 E19.70102
G1 X214.916 Y189.668 E19.7224
G1 X214.761 Y190.1 E19.74378
G1 X214.549 Y190.517 E19.76556
G1 X214.293 Y190.894 E19.78678
G1 X214.283 Y190.906 E19.7875
G1 X213.979 Y191.25 E19.80888
G1 X213.639 Y191.549 E19.82996
G1 X213.63 Y191.557 E19.83052
G1 X213.136 Y191.891 E19.85829
G1 X212.911 Y192.065 E19.87154
G1 X212.267 Y192.563 E19.90944
G1 X212.23 Y192.592 E19.91163
G1 X192.645 Y207.747 E21.06474
G1 X192.644 Y207.748 E21.0648
G1 X190.909 Y209.09 E21.11628
M204 S3000
M205 X10 Y10
G0 F3000 X211.942 Y192.144
M204 S1800
M205 X8 Y8
G1 F1500 X212.782 Y191.899 E21.14523
G1 X213.047 Y191.742 E21.15052
G1 X213.547 Y191.446 E21.1578
G1 X213.861 Y191.133 E21.16325
G1 X214.179 Y190.815 E21.16876
G1 X214.405 Y190.433 E21.17415
G1 X214.633 Y190.047 E21.17949
G1 X214.757 Y189.622 E21.18478
G1 X214.883 Y189.19 E21.19029
G1 X214.895 Y188.76 E21.19546
G1 X214.91 Y188.295 E21.20117
G1 X214.814 Y187.867 E21.20651
G1 X214.715 Y187.426 E21.21208
G1 X214.508 Y187.019 E21.21763
G1 X214.31 Y186.63 E21.22294
G1 X214.032 Y186.315 E21.22798
G1 X213.718 Y185.961 E21.23387
G1 X213.354 Y185.715 E21.23923
G1 X212.981 Y185.462 E21.24476
G1 X212.58 Y185.318 E21.24994
G1 X212.159 Y185.166 E21.25546
G1 X211.701 Y185.109 E21.26159
G1 X211.461 Y185.078 E21.26427
G1 X211.249 Y185.097 E21.26652
G1 X210.805 Y185.139 E21.27237
G1 X210.591 Y185.16 E21.27465
G1 X210.386 Y185.233 E21.27694
G1 X209.955 Y185.389 E21.28298
G1 X209.752 Y185.462 E21.28527
G1 X209.574 Y185.583 E21.28757
G1 X209.197 Y185.84 E21.29369
G1 X209.028 Y185.955 E21.29588
G1 X208.865 Y186.128 E21.2985
G1 X208.545 Y186.468 E21.30429
G1 X208.264 Y186.944 E21.31129
G1 X208.101 Y187.218 E21.31675
G1 X207.85 Y188.074 E21.34516
G1 X207.849 Y188.11 E21.34681
G1 X207.823 Y188.972 E21.38696
G1 X208.02 Y189.843 E21.42854
G1 X208.425 Y190.636 E21.47001
G1 X209.014 Y191.305 E21.51151
G1 X209.757 Y191.808 E21.55329
G1 X210.577 Y192.1 E21.59382
G1 X211.253 Y192.186 E21.62555
G1 X211.895 Y192.146 E21.65551
G1 X211.942 Y192.144 E21.65764
M204 S3000
M205 X10 Y10
G0 F3000 X187.777 Y212.222
M204 S1800
M205 X8 Y8
G1 F1500 X189.12 Y210.487 E21.75981
G1 X207.66 Y186.527 E23.17049
G1 X207.996 Y186.031 E23.19838
G1 X208.356 Y185.621 E23.22379
G1 X208.756 Y185.268 E23.24863
G1 X209.201 Y184.966 E23.27367
G1 X209.677 Y184.724 E23.29854
G1 X210.172 Y184.546 E23.32303
G1 X210.703 Y184.427 E23.34837
G1 X211.221 Y184.377 E23.3726
G1 X211.769 Y184.394 E23.39813
G1 X212.295 Y184.477 E23.42293
G1 X212.822 Y184.631 E23.44849
G1 X213.295 Y184.837 E23.47252
G1 X213.764 Y185.114 E23.49788
G1 X214.191 Y185.447 E23.52309
G1 X214.573 Y185.831 E23.54832
G1 X214.888 Y186.237 E23.57224
G1 X215.156 Y186.691 E23.59679
G1 X215.376 Y187.199 E23.62257
G1 X215.523 Y187.705 E23.64711
G1 X215.607 Y188.241 E23.67237
G1 X215.623 Y188.779 E23.69743
G1 X215.573 Y189.297 E23.72166
G1 X215.454 Y189.828 E23.747
G1 X215.276 Y190.323 E23.7715
G1 X215.034 Y190.799 E23.79636
G1 X214.732 Y191.244 E23.8214
G1 X214.379 Y191.644 E23.84625
G1 X213.97 Y192.003 E23.87159
G1 X213.464 Y192.345 E23.90002
G1 X189.512 Y210.879 E25.31024
G1 X187.777 Y212.222 E25.36174
M204 S3000
M205 X10 Y10
G0 F3000 X211.845 Y191.589
M204 S1800
M205 X8 Y8
G1 F1500 X212.557 Y191.381 E25.39628
G1 X213.201 Y191 E25.43112
G1 X213.733 Y190.469 E25.46612
G1 X214.115 Y189.823 E25.50107
G1 X214.325 Y189.102 E25.53604
G1 X214.348 Y188.349 E25.57112
G1 X214.184 Y187.617 E25.60605
G1 X213.843 Y186.948 E25.64101
G1 X213.345 Y186.385 E25.67601
G1 X212.725 Y185.965 E25.71088
G1 X212.027 Y185.714 E25.74542
G1 X211.452 Y185.641 E25.77241
G1 X210.714 Y185.711 E25.80693
G1 X210.008 Y185.965 E25.84187
G1 X209.394 Y186.383 E25.87645
G1 X208.995 Y186.807 E25.90356
G1 X208.619 Y187.443 E25.93797
G1 X208.408 Y188.163 E25.9729
G1 X208.385 Y188.918 E26.00808
G1 X208.551 Y189.651 E26.04307
G1 X208.892 Y190.319 E26.07799
G1 X209.387 Y190.881 E26.11287
G1 X210.012 Y191.304 E26.14801
G1 X210.708 Y191.552 E26.18241
G1 X211.272 Y191.624 E26.20889
G1 X211.845 Y191.589 E26.23562
M204 S3000
M205 X10 Y10
G0 F3000 X185.31 Y214.714
G0 X185.322 Y214.831
M204 S1800
M205 X8 Y8
;TYPE:WALL-OUTER
G1 F1500 X185.192 Y214.732 E26.24323
G1 X185.169 Y214.678 E26.24596
G1 X185.993 Y213.612 E26.3087
G1 X207.206 Y186.198 E27.92275
G1 X207.553 Y185.686 E27.95155
G1 X207.958 Y185.225 E27.98012
G1 X208.409 Y184.827 E28.00813
G1 X208.912 Y184.485 E28.03646
G1 X209.46 Y184.207 E28.06507
G1 X210.017 Y184.006 E28.09264
G1 X210.608 Y183.874 E28.12084
G1 X211.208 Y183.816 E28.14891
G1 X211.818 Y183.835 E28.17733
G1 X212.422 Y183.93 E28.2058
G1 X213.008 Y184.101 E28.23422
G1 X213.552 Y184.338 E28.26185
G1 X214.081 Y184.651 E28.29047
G1 X214.563 Y185.027 E28.31894
G1 X214.991 Y185.457 E28.34719
G1 X215.352 Y185.922 E28.3746
G1 X215.659 Y186.443 E28.40276
G1 X215.904 Y187.008 E28.43143
G1 X216.07 Y187.58 E28.45917
G1 X216.166 Y188.193 E28.48806
G1 X216.184 Y188.793 E28.51601
G1 X216.126 Y189.392 E28.54403
G1 X215.994 Y189.983 E28.57223
G1 X215.793 Y190.54 E28.5998
G1 X215.515 Y191.088 E28.62842
G1 X215.173 Y191.591 E28.65674
G1 X214.775 Y192.042 E28.68475
G1 X214.315 Y192.446 E28.71326
G1 X213.793 Y192.799 E28.7426
G1 X186.388 Y214.007 E30.35618
G1 X185.322 Y214.831 E30.3998
M204 S3000
M205 X10 Y10
G0 F3000 X185.192 Y214.732
G0 X185.178 Y214.698
