;FLAVOR:Marlin
;TIME:3025
;Filament used: 2.59203m
;Layer height: 0.2
;MINX:167.443
;MINY:163.781
;MINZ:0.2
;MAXX:232.557
;MAXY:236.217
;MAXZ:16.4
;Generated with Cura_SteamEngine 4.11.0
M140 S60
M105
M190 S60
M104 S200
M105
M109 S200
M82 ;absolute extrusion mode
M107 ;Start with the fan off
G21 ;Set units to millimeters
G91 ;Change to relative positioning mode for retract filament and nozzle lifting
G1 F200 E-3 ;Retract 3mm filament for a clean start
G92 E0 ;Zero the extruded length
G1 F1000 Z5 ;Lift the nozzle 5mm before homing axes
G90 ;Absolute positioning
M82 ;Set extruder to absolute mode too
G28 X0 Y0 ;First move X/Y to min endstops
G28 Z0 ;Then move Z to min endstops
G1 F1000 Z15 ;After homing lift the nozzle 15mm before start printing

G92 E0
G92 E0
G1 F2400 E-6
;LAYER_COUNT:83
;LAYER:0
M106 S255
M204 S3000
M205 X10 Y10
G1 F600 Z0.275
G0 F3000 X194.695 Y165.766 Z0.275
M204 S1800
M205 X8 Y8
;TYPE:SKIRT
G1 F600 Z0.2
G1 F2400 E0
G1 X195.216 Y165.276 E0.0333
G1 X195.789 Y164.848 E0.06661
G1 X196.406 Y164.486 E0.09992
G1 X197.06 Y164.195 E0.13325
G1 X197.741 Y163.979 E0.16651
G1 X198.443 Y163.841 E0.19983
G1 X199.156 Y163.781 E0.23315
G1 X199.871 Y163.802 E0.26645
G1 X200.579 Y163.902 E0.29975
G1 X201.272 Y164.081 E0.33308
G1 X201.94 Y164.335 E0.36635
G1 X202.709 Y164.731 E0.40663
G1 X202.854 Y164.812 E0.41436
G1 X228.843 Y179.818 E1.81176
G1 X229.442 Y180.176 E1.84426
G1 X230.035 Y180.577 E1.87759
G1 X230.579 Y181.041 E1.91088
G1 X231.068 Y181.563 E1.94419
G1 X231.495 Y182.137 E1.9775
G1 X231.856 Y182.754 E2.01079
G1 X232.146 Y183.408 E2.0441
G1 X232.361 Y184.091 E2.07744
G1 X232.499 Y184.792 E2.11071
G1 X232.557 Y185.505 E2.14402
G1 X232.535 Y186.22 E2.17733
G1 X232.434 Y186.928 E2.21063
G1 X232.254 Y187.621 E2.24397
G1 X231.999 Y188.289 E2.27726
G1 X231.647 Y188.977 E2.31325
G1 X231.495 Y189.25 E2.3278
G1 X206.564 Y232.431 E4.64955
G1 X206.165 Y233.099 E4.68578
G1 X205.765 Y233.692 E4.71909
G1 X205.301 Y234.236 E4.75238
G1 X204.779 Y234.726 E4.78572
G1 X204.206 Y235.153 E4.819
G1 X203.589 Y235.515 E4.85231
G1 X202.935 Y235.805 E4.88562
G1 X202.253 Y236.02 E4.91892
G1 X201.551 Y236.158 E4.95223
G1 X200.838 Y236.217 E4.98554
G1 X200.123 Y236.196 E5.01885
G1 X199.415 Y236.095 E5.05215
G1 X198.723 Y235.916 E5.08544
G1 X198.054 Y235.66 E5.11879
G1 X197.299 Y235.272 E5.15832
G1 X197.134 Y235.181 E5.16709
G1 X171.163 Y220.186 E6.56351
G1 X170.564 Y219.829 E6.59598
G1 X169.971 Y219.429 E6.62928
G1 X169.427 Y218.965 E6.66258
G1 X168.937 Y218.444 E6.69588
G1 X168.509 Y217.871 E6.72918
G1 X168.147 Y217.254 E6.76249
G1 X167.857 Y216.6 E6.79581
G1 X167.641 Y215.918 E6.82912
G1 X167.503 Y215.216 E6.86243
G1 X167.443 Y214.504 E6.8957
G1 X167.464 Y213.789 E6.92901
G1 X167.564 Y213.08 E6.96235
G1 X167.743 Y212.388 E6.99563
G1 X167.998 Y211.72 E7.02893
G1 X168.348 Y211.031 E7.06491
G1 X168.505 Y210.75 E7.0799
G1 X193.457 Y167.533 E9.4036
G1 X193.832 Y166.904 E9.43769
G1 X194.231 Y166.311 E9.47098
G1 X194.695 Y165.766 E9.50431
M204 S3000
M205 X10 Y10
G0 F3000 X195.143 Y166.108
M204 S1800
M205 X8 Y8
G1 F2400 X195.647 Y165.647 E9.53611
G1 X196.202 Y165.248 E9.56794
G1 X196.799 Y164.916 E9.59975
G1 X197.431 Y164.656 E9.63157
G1 X198.089 Y164.472 E9.66338
G1 X198.764 Y164.367 E9.69519
G1 X199.447 Y164.34 E9.72702
G1 X200.128 Y164.394 E9.75883
G1 X200.798 Y164.526 E9.79063
G1 X201.448 Y164.737 E9.82245
G1 X202.118 Y165.047 E9.85682
G1 X202.574 Y165.297 E9.88104
G1 X228.556 Y180.299 E11.27806
G1 X229.155 Y180.657 E11.31056
G1 X229.72 Y181.041 E11.34237
G1 X230.236 Y181.489 E11.37418
G1 X230.697 Y181.994 E11.40602
G1 X231.095 Y182.549 E11.43783
G1 X231.426 Y183.147 E11.46965
G1 X231.684 Y183.779 E11.50144
G1 X231.867 Y184.437 E11.53324
G1 X231.972 Y185.112 E11.56505
G1 X231.998 Y185.795 E11.59688
G1 X231.943 Y186.476 E11.62869
G1 X231.809 Y187.146 E11.6605
G1 X231.598 Y187.796 E11.69233
G1 X231.301 Y188.439 E11.72531
G1 X231.046 Y188.906 E11.75008
G1 X206.079 Y232.151 E14.07525
G1 X205.685 Y232.812 E14.11109
G1 X205.301 Y233.378 E14.14293
G1 X204.853 Y233.894 E14.17475
G1 X204.349 Y234.355 E14.20656
G1 X203.794 Y234.753 E14.23836
G1 X203.196 Y235.084 E14.27019
G1 X202.564 Y235.343 E14.30199
G1 X201.906 Y235.527 E14.33381
G1 X201.231 Y235.632 E14.36561
G1 X200.548 Y235.658 E14.39744
G1 X199.867 Y235.604 E14.42925
G1 X199.197 Y235.47 E14.46107
G1 X198.547 Y235.259 E14.49289
G1 X197.9 Y234.96 E14.52608
G1 X197.414 Y234.696 E14.55183
G1 X171.45 Y219.705 E15.94787
G1 X170.851 Y219.348 E15.98034
G1 X170.286 Y218.964 E16.01215
G1 X169.769 Y218.517 E16.04397
G1 X169.308 Y218.013 E16.07578
G1 X168.909 Y217.458 E16.10761
G1 X168.577 Y216.861 E16.13942
G1 X168.318 Y216.229 E16.17122
G1 X168.134 Y215.571 E16.20303
G1 X168.028 Y214.896 E16.23485
G1 X168.002 Y214.213 E16.26668
G1 X168.056 Y213.532 E16.29849
G1 X168.189 Y212.862 E16.33029
G1 X168.399 Y212.212 E16.3621
G1 X168.695 Y211.57 E16.39502
G1 X168.954 Y211.094 E16.42025
G1 X193.942 Y167.813 E18.74736
G1 X194.313 Y167.19 E18.78113
G1 X194.696 Y166.625 E18.81291
G1 X195.143 Y166.108 E18.84474
M204 S3000
M205 X10 Y10
G0 F3000 X195.589 Y166.453
M204 S1800
M205 X8 Y8
G1 F2400 X196.075 Y166.022 E18.87498
G1 X196.61 Y165.653 E18.90525
G1 X197.187 Y165.354 E18.93551
G1 X197.795 Y165.127 E18.96573
G1 X198.427 Y164.977 E18.99597
G1 X199.073 Y164.905 E19.02624
G1 X199.723 Y164.914 E19.05651
G1 X200.366 Y165.002 E19.08673
G1 X200.994 Y165.168 E19.11698
G1 X201.85 Y165.539 E19.16042
G1 X202.294 Y165.782 E19.18399
G1 X228.269 Y180.78 E20.58063
G1 X228.868 Y181.138 E20.61313
G1 X229.404 Y181.505 E20.64337
G1 X229.891 Y181.935 E20.67363
G1 X230.321 Y182.421 E20.70384
G1 X230.689 Y182.957 E20.73412
G1 X230.988 Y183.534 E20.76438
G1 X231.213 Y184.143 E20.79461
G1 X231.363 Y184.775 E20.82485
G1 X231.433 Y185.421 E20.85511
G1 X231.424 Y186.07 E20.88533
G1 X231.335 Y186.714 E20.91561
G1 X231.167 Y187.342 E20.94588
G1 X230.808 Y188.173 E20.98803
G1 X230.557 Y188.632 E21.01239
G1 X205.594 Y231.871 E23.33723
G1 X205.204 Y232.525 E23.37268
G1 X204.837 Y233.062 E23.40297
G1 X204.407 Y233.549 E23.43322
G1 X203.921 Y233.979 E23.46344
G1 X203.385 Y234.347 E23.49371
G1 X202.809 Y234.646 E23.52393
G1 X202.2 Y234.873 E23.55419
G1 X201.568 Y235.022 E23.58443
G1 X200.922 Y235.093 E23.61469
G1 X200.272 Y235.084 E23.64496
G1 X199.629 Y234.995 E23.67519
G1 X199.001 Y234.828 E23.70544
G1 X198.166 Y234.467 E23.7478
G1 X197.694 Y234.211 E23.77281
G1 X171.737 Y219.224 E25.16847
G1 X171.138 Y218.867 E25.20094
G1 X170.601 Y218.5 E25.23123
G1 X170.114 Y218.071 E25.26145
G1 X169.683 Y217.585 E25.2917
G1 X169.315 Y217.05 E25.32193
G1 X169.015 Y216.473 E25.35221
G1 X168.789 Y215.864 E25.38246
G1 X168.639 Y215.232 E25.41271
G1 X168.567 Y214.587 E25.44293
G1 X168.576 Y213.937 E25.4732
G1 X168.664 Y213.294 E25.50342
G1 X168.831 Y212.666 E25.53368
G1 X169.188 Y211.835 E25.57579
G1 X169.443 Y211.368 E25.60057
G1 X194.427 Y168.093 E27.92734
G1 X194.794 Y167.477 E27.96073
G1 X195.16 Y166.94 E27.99099
G1 X195.589 Y166.453 E28.02121
M204 S3000
M205 X10 Y10
G1 F2400 E22.02121
;MESH:Part_13_Motor_Case_Optical_Switch_06.11.2020.stl
G0 F3000 X198.324 Y170.574
G0 X199.639 Y171.332
G0 X198.596 Y203.096
G0 X196.728 Y206.331
G0 X200.161 Y227.922
M204 S1800
M205 X8 Y8
;TYPE:WALL-INNER
G1 F2400 E28.02121
G1 F1500 X199.919 Y227.782 E28.03423
G1 X175.739 Y213.822 E29.33433
G1 X199.7 Y172.32 E31.56579
G1 X199.839 Y172.078 E31.57878
G1 X200.081 Y172.218 E31.5872
G1 X224.261 Y186.178 E32.88729
G1 X200.3 Y227.68 E35.11875
G1 X200.161 Y227.922 E35.12715
M204 S3000
M205 X10 Y10
G0 F3000 X200.756 Y211.29
M204 S1800
M205 X8 Y8
G1 F1500 X204.766 Y204.345 E35.50057
G1 X204.906 Y204.103 E35.51359
G1 X204.664 Y203.963 E35.522
G1 X200.489 Y201.553 E35.74647
G1 X199.614 Y203.068 E35.82794
G1 X198.401 Y202.369 E35.89313
G1 X196.141 Y206.284 E36.10362
G1 X196.001 Y206.526 E36.11664
G1 X196.243 Y206.666 E36.12505
G1 X196.972 Y207.086 E36.16422
G1 X197.214 Y207.226 E36.17724
G1 X197.074 Y207.468 E36.18565
G1 X196.479 Y208.498 E36.24104
G1 X196.339 Y208.74 E36.25406
G1 X196.581 Y208.88 E36.26247
G1 X200.756 Y211.29 E36.48694
M204 S3000
M205 X10 Y10
G0 F3000 X193.827 Y207.29
M204 S1800
M205 X8 Y8
G1 F1500 X194.702 Y205.775 E36.56841
G1 X195.916 Y206.475 E36.63366
G1 X198.176 Y202.56 E36.84415
G1 X198.316 Y202.318 E36.85717
G1 X198.074 Y202.178 E36.86558
G1 X197.103 Y201.618 E36.91777
G1 X197.977 Y200.102 E36.99926
G1 X193.561 Y197.553 E37.23668
G1 X189.411 Y204.74 E37.62312
G1 X193.827 Y207.29 E37.86057
M204 S3000
M205 X10 Y10
G0 F3000 X200.341 Y228.591
G0 X200.366 Y228.687
M204 S1800
M205 X8 Y8
G1 F1500 X200.124 Y228.547 E37.87359
G1 X174.974 Y214.027 E39.22584
G1 X199.495 Y171.555 E41.50946
G1 X199.634 Y171.313 E41.52245
G1 X199.876 Y171.453 E41.53086
G1 X225.026 Y185.973 E42.88311
G1 X200.505 Y228.445 E45.16673
G1 X200.366 Y228.687 E45.17512
M204 S3000
M205 X10 Y10
G0 F3000 X200.341 Y228.591
G0 X200.576 Y210.621
G0 X200.551 Y210.525
M204 S1800
M205 X8 Y8
G1 F1500 X204.001 Y204.55 E45.49639
G1 X204.141 Y204.308 E45.50941
G1 X203.899 Y204.168 E45.51782
G1 X200.694 Y202.318 E45.69014
G1 X199.819 Y203.833 E45.7716
G1 X198.606 Y203.134 E45.83679
G1 X196.906 Y206.079 E45.99513
G1 X196.766 Y206.321 E46.00815
G1 X197.008 Y206.461 E46.01656
G1 X197.737 Y206.881 E46.05574
G1 X197.979 Y207.021 E46.06875
G1 X197.839 Y207.263 E46.07716
G1 X197.244 Y208.293 E46.13255
G1 X197.104 Y208.535 E46.14557
G1 X197.346 Y208.675 E46.15398
G1 X200.551 Y210.525 E46.3263
M204 S3000
M205 X10 Y10
G0 F3000 X200.576 Y210.621
G0 X193.647 Y206.621
G0 X193.622 Y206.525
M204 S1800
M205 X8 Y8
G1 F1500 X194.497 Y205.01 E46.40776
G1 X195.711 Y205.71 E46.47302
G1 X197.411 Y202.765 E46.63135
G1 X197.551 Y202.523 E46.64437
G1 X197.309 Y202.383 E46.65278
G1 X196.338 Y201.823 E46.70498
G1 X197.212 Y200.307 E46.78646
G1 X193.766 Y198.318 E46.97173
G1 X190.176 Y204.535 E47.30602
G1 X193.622 Y206.525 E47.49131
M204 S3000
M205 X10 Y10
G0 F3000 X193.647 Y206.621
G0 X200.341 Y228.591
G0 X200.571 Y229.452
M204 S1800
M205 X8 Y8
;TYPE:WALL-OUTER
G1 F1500 X200.329 Y229.312 E47.50433
G1 X174.209 Y214.232 E48.90873
G1 X199.29 Y170.79 E51.2445
G1 X199.429 Y170.548 E51.2575
G1 X199.671 Y170.688 E51.26591
G1 X225.791 Y185.768 E52.67031
G1 X200.71 Y229.21 E55.00608
G1 X200.571 Y229.452 E55.01448
M204 S3000
M205 X10 Y10
G0 F3000 X200.398 Y229.352
G0 X200.341 Y228.591
G0 X200.016 Y210.331
G0 X200.346 Y209.76
M204 S1800
M205 X8 Y8
G1 F1500 X203.236 Y204.755 E55.2836
G1 X203.376 Y204.513 E55.29661
G1 X203.134 Y204.373 E55.30502
G1 X200.899 Y203.083 E55.42519
G1 X200.024 Y204.598 E55.50665
G1 X198.811 Y203.899 E55.57184
G1 X197.671 Y205.874 E55.67803
G1 X197.531 Y206.116 E55.69104
G1 X197.773 Y206.256 E55.69945
G1 X198.502 Y206.676 E55.73863
G1 X198.744 Y206.816 E55.75165
G1 X198.604 Y207.058 E55.76006
G1 X198.009 Y208.088 E55.81545
G1 X197.869 Y208.33 E55.82847
G1 X198.111 Y208.47 E55.83688
G1 X200.346 Y209.76 E55.95704
M204 S3000
M205 X10 Y10
G0 F3000 X200.446 Y209.587
G0 X201.016 Y209.918
G0 X193.086 Y206.33
G0 X193.417 Y205.76
M204 S1800
M205 X8 Y8
G1 F1500 X194.292 Y204.245 E56.0385
G1 X195.506 Y204.945 E56.10376
G1 X196.646 Y202.97 E56.20994
G1 X196.786 Y202.728 E56.22296
G1 X196.544 Y202.588 E56.23137
G1 X195.573 Y202.028 E56.28357
G1 X196.447 Y200.512 E56.36505
G1 X193.971 Y199.083 E56.49816
G1 X190.941 Y204.33 E56.7803
G1 X193.417 Y205.76 E56.91344
M204 S3000
M205 X10 Y10
G0 F3000 X193.517 Y205.587
G0 X194.087 Y205.918
G0 X194.903 Y206.526
M204 S1800
M205 X8 Y8
;TYPE:SKIN
G1 F1500 X196.462 Y207.428 E56.99731
G1 X195.587 Y208.941 E57.07869
G1 X200.957 Y212.041 E57.36742
G1 X205.658 Y203.902 E57.80508
G1 X200.288 Y200.802 E58.0938
G1 X199.413 Y202.317 E58.17527
G1 X197.855 Y201.416 E58.25907
G1 X198.728 Y199.9 E58.34053
G1 X193.36 Y196.802 E58.62913
G1 X188.66 Y204.941 E59.06676
G1 X194.028 Y208.041 E59.35541
G1 X194.903 Y206.526 E59.43687
M204 S3000
M205 X10 Y10
G0 F3000 X176.49 Y213.621
M204 S1800
M205 X8 Y8
G1 F1500 X200.04 Y172.829 E61.63013
G1 X223.51 Y186.379 E62.89205
G1 X199.96 Y227.171 E65.08531
G1 X176.49 Y213.621 E66.34723
M204 S3000
M205 X10 Y10
G0 F3000 X176.935 Y213.365
M204 S1800
M205 X8 Y8
G1 F1500 X177.436 Y213.866 E66.38022
M204 S3000
M205 X10 Y10
G0 F3000 X177.225 Y212.863
M204 S1800
M205 X8 Y8
G1 F1500 X179.31 Y214.948 E66.51753
G1 X179.38 Y215.018
M204 S3000
M205 X10 Y10
G0 F3000 X181.184 Y216.03
M204 S1800
M205 X8 Y8
G1 F1500 X177.515 Y212.361 E66.75914
M204 S3000
M205 X10 Y10
G0 F3000 X177.805 Y211.859
M204 S1800
M205 X8 Y8
G1 F1500 X183.057 Y217.112 E67.10502
G1 X183.127 Y217.182
M204 S3000
M205 X10 Y10
G0 F3000 X184.931 Y218.194
M204 S1800
M205 X8 Y8
G1 F1500 X178.095 Y211.357 E67.55522
M204 S3000
M205 X10 Y10
G0 F3000 X178.385 Y210.855
M204 S1800
M205 X8 Y8
G1 F1500 X186.805 Y219.275 E68.10969
G1 X186.875 Y219.345
M204 S3000
M205 X10 Y10
G0 F3000 X188.679 Y220.357
M204 S1800
M205 X8 Y8
G1 F1500 X178.675 Y210.353 E68.76847
M204 S3000
M205 X10 Y10
G0 F3000 X178.965 Y209.851
M204 S1800
M205 X8 Y8
G1 F1500 X190.552 Y221.438 E69.53149
G1 X190.622 Y221.508
M204 S3000
M205 X10 Y10
G0 F3000 X192.426 Y222.52
M204 S1800
M205 X8 Y8
G1 F1500 X179.255 Y209.349 E70.39882
M204 S3000
M205 X10 Y10
G0 F3000 X179.545 Y208.847
M204 S1800
M205 X8 Y8
G1 F1500 X194.3 Y223.602 E71.37047
G1 X194.37 Y223.672
M204 S3000
M205 X10 Y10
G0 F3000 X196.174 Y224.684
M204 S1800
M205 X8 Y8
G1 F1500 X179.834 Y208.344 E72.44648
M204 S3000
M205 X10 Y10
G0 F3000 X180.124 Y207.842
M204 S1800
M205 X8 Y8
G1 F1500 X198.047 Y225.766 E73.62678
G1 X198.117 Y225.836
M204 S3000
M205 X10 Y10
G0 F3000 X199.874 Y226.8
M204 S1800
M205 X8 Y8
G1 F1500 X180.414 Y207.34 E74.90825
M204 S3000
M205 X10 Y10
G0 F3000 X180.703 Y206.838
M204 S1800
M205 X8 Y8
G1 F1500 X200.164 Y226.298 E76.18976
M204 S3000
M205 X10 Y10
G0 F3000 X200.454 Y225.796
M204 S1800
M205 X8 Y8
G1 F1500 X180.993 Y206.336 E77.47127
M204 S3000
M205 X10 Y10
G0 F3000 X181.283 Y205.834
M204 S1800
M205 X8 Y8
G1 F1500 X200.744 Y225.294 E78.75277
M204 S3000
M205 X10 Y10
G0 F3000 X201.033 Y224.792
M204 S1800
M205 X8 Y8
G1 F1500 X181.573 Y205.332 E80.03425
M204 S3000
M205 X10 Y10
G0 F3000 X181.863 Y204.83
M204 S1800
M205 X8 Y8
G1 F1500 X201.323 Y224.29 E81.31572
M204 S3000
M205 X10 Y10
G0 F3000 X201.613 Y223.787
M204 S1800
M205 X8 Y8
G1 F1500 X182.153 Y204.328 E82.59716
M204 S3000
M205 X10 Y10
G0 F3000 X182.443 Y203.826
M204 S1800
M205 X8 Y8
G1 F1500 X201.903 Y223.285 E83.8786
M204 S3000
M205 X10 Y10
G0 F3000 X202.192 Y222.783
M204 S1800
M205 X8 Y8
G1 F1500 X182.733 Y203.324 E85.16001
M204 S3000
M205 X10 Y10
G0 F3000 X183.023 Y202.822
M204 S1800
M205 X8 Y8
G1 F1500 X202.482 Y222.281 E86.44142
M204 S3000
M205 X10 Y10
G0 F3000 X202.772 Y221.779
M204 S1800
M205 X8 Y8
G1 F1500 X183.313 Y202.32 E87.72283
M204 S3000
M205 X10 Y10
G0 F3000 X183.603 Y201.818
M204 S1800
M205 X8 Y8
G1 F1500 X203.062 Y221.277 E89.00424
M204 S3000
M205 X10 Y10
G0 F3000 X203.352 Y220.775
M204 S1800
M205 X8 Y8
G1 F1500 X183.893 Y201.316 E90.28565
M204 S3000
M205 X10 Y10
G0 F3000 X184.182 Y200.814
M204 S1800
M205 X8 Y8
G1 F1500 X188.342 Y204.973 E90.55956
M204 S3000
M205 X10 Y10
G0 F3000 X188.54 Y205.171
M204 S1800
M205 X8 Y8
G1 F1500 X203.642 Y220.273 E91.55405
M204 S3000
M205 X10 Y10
G0 F3000 X203.932 Y219.771
M204 S1800
M205 X8 Y8
G1 F1500 X190.414 Y206.253 E92.44423
G1 X190.344 Y206.183
M204 S3000
M205 X10 Y10
G0 F3000 X192.288 Y207.335
M204 S1800
M205 X8 Y8
G1 F1500 X204.222 Y219.269 E93.23011
M204 S3000
M205 X10 Y10
G0 F3000 X204.512 Y218.767
M204 S1800
M205 X8 Y8
G1 F1500 X194.128 Y208.383 E93.91391
M204 S3000
M205 X10 Y10
G0 F3000 X194.419 Y207.882
M204 S1800
M205 X8 Y8
G1 F1500 X195.355 Y208.819 E93.97558
M204 S3000
M205 X10 Y10
G0 F3000 X195.646 Y208.317
M204 S1800
M205 X8 Y8
G1 F1500 X194.708 Y207.38 E94.03732
M204 S3000
M205 X10 Y10
G0 F3000 X195.005 Y206.884
M204 S1800
M205 X8 Y8
G1 F1500 X195.937 Y207.816 E94.09869
G1 X196.007 Y207.886
M204 S3000
M205 X10 Y10
G0 F3000 X196.037 Y209.5
M204 S1800
M205 X8 Y8
G1 F1500 X204.802 Y218.265 E94.67588
M204 S3000
M205 X10 Y10
G0 F3000 X205.092 Y217.763
M204 S1800
M205 X8 Y8
G1 F1500 X197.91 Y210.582 E95.14879
G1 X197.84 Y210.512
M204 S3000
M205 X10 Y10
