;FLAVOR:Marlin
;TIME:8161
;Filament used: 8.01569m
;Layer height: 0.2
;MINX:184.6
;MINY:41.1
;MINZ:0.2
;MAXX:215.4
;MAXY:358.9
;MAXZ:18
;Generated with Cura_SteamEngine 4.11.0
M140 S60
M105
M190 S60
M104 S200
M105
M109 S200
M82 ;absolute extrusion mode
M107 ;Start with the fan off
G21 ;Set units to millimeters
G91 ;Change to relative positioning mode for retract filament and nozzle lifting
G1 F200 E-3 ;Retract 3mm filament for a clean start
G92 E0 ;Zero the extruded length
G1 F1000 Z5 ;Lift the nozzle 5mm before homing axes
G90 ;Absolute positioning
M82 ;Set extruder to absolute mode too
G28 X0 Y0 ;First move X/Y to min endstops
G28 Z0 ;Then move Z to min endstops
G1 F1000 Z15 ;After homing lift the nozzle 15mm before start printing

G92 E0
G92 E0
G1 F2400 E-6
;LAYER_COUNT:90
;LAYER:0
M106 S255
M204 S3000
M205 X10 Y10
G1 F600 Z0.275
G0 F3000 X184.788 Y46.005 Z0.275
M204 S1800
M205 X8 Y8
;TYPE:SKIRT
G1 F600 Z0.2
G1 F2400 E0
G1 X184.995 Y45.321 E0.03328
G1 X185.277 Y44.663 E0.06661
G1 X185.63 Y44.041 E0.09991
G1 X186.05 Y43.463 E0.13318
G1 X186.533 Y42.935 E0.1665
G1 X187.071 Y42.464 E0.1998
G1 X187.659 Y42.056 E0.23312
G1 X188.288 Y41.716 E0.26642
G1 X188.952 Y41.449 E0.29974
G1 X189.641 Y41.257 E0.33305
G1 X190.347 Y41.143 E0.36635
G1 X191.151 Y41.103 E0.40383
G1 X191.33 Y41.1 E0.41217
G1 X208.293 Y41.1 E1.20204
G1 X209.083 Y41.111 E1.23883
G1 X209.796 Y41.161 E1.27211
G1 X210.5 Y41.29 E1.30543
G1 X211.184 Y41.498 E1.33872
G1 X211.841 Y41.78 E1.37202
G1 X212.463 Y42.134 E1.40534
G1 X213.041 Y42.555 E1.43864
G1 X213.569 Y43.038 E1.47196
G1 X214.039 Y43.576 E1.50522
G1 X214.447 Y44.164 E1.53855
G1 X214.786 Y44.794 E1.57186
G1 X215.053 Y45.457 E1.60514
G1 X215.244 Y46.147 E1.63848
G1 X215.357 Y46.853 E1.67177
G1 X215.397 Y47.65 E1.70893
G1 X215.4 Y47.83 E1.71731
G1 X215.4 Y351.843 E15.87343
G1 X215.391 Y352.57 E15.90729
G1 X215.342 Y353.284 E15.94061
G1 X215.214 Y353.988 E15.97393
G1 X215.008 Y354.673 E16.00724
G1 X214.727 Y355.33 E16.04051
G1 X214.374 Y355.953 E16.07386
G1 X213.954 Y356.532 E16.10716
G1 X213.472 Y357.06 E16.14045
G1 X212.935 Y357.532 E16.17374
G1 X212.347 Y357.94 E16.20707
G1 X211.718 Y358.281 E16.24038
G1 X211.055 Y358.549 E16.27368
G1 X210.366 Y358.741 E16.30699
G1 X209.66 Y358.856 E16.3403
G1 X208.849 Y358.897 E16.37811
G1 X208.67 Y358.9 E16.38644
G1 X191.624 Y358.899 E17.18018
G1 X190.926 Y358.89 E17.21268
G1 X190.213 Y358.841 E17.24596
G1 X189.509 Y358.713 E17.27928
G1 X188.824 Y358.507 E17.31259
G1 X188.167 Y358.225 E17.34588
G1 X187.545 Y357.872 E17.37918
G1 X186.966 Y357.452 E17.41249
G1 X186.437 Y356.97 E17.44581
G1 X185.966 Y356.432 E17.47911
G1 X185.558 Y355.845 E17.51239
G1 X185.218 Y355.215 E17.54573
G1 X184.95 Y354.552 E17.57903
G1 X184.758 Y353.863 E17.61233
G1 X184.644 Y353.157 E17.64563
G1 X184.602 Y352.331 E17.68414
G1 X184.6 Y352.158 E17.6922
G1 X184.601 Y48.087 E31.85102
G1 X184.61 Y47.422 E31.88199
G1 X184.659 Y46.709 E31.91527
G1 X184.788 Y46.005 E31.94859
M204 S3000
M205 X10 Y10
G0 F3000 X185.347 Y46.077
M204 S1800
M205 X8 Y8
G1 F2400 X185.553 Y45.426 E31.98039
G1 X185.834 Y44.803 E32.01221
G1 X186.185 Y44.217 E32.04402
G1 X186.603 Y43.676 E32.07585
G1 X187.08 Y43.188 E32.10763
G1 X187.612 Y42.759 E32.13945
G1 X188.19 Y42.394 E32.17128
G1 X188.807 Y42.1 E32.20311
G1 X189.453 Y41.88 E32.23489
G1 X190.121 Y41.737 E32.2667
G1 X190.845 Y41.671 E32.30055
G1 X191.33 Y41.66 E32.32314
G1 X208.293 Y41.66 E33.11301
G1 X209.075 Y41.671 E33.14942
G1 X209.756 Y41.72 E33.18121
G1 X210.427 Y41.849 E33.21303
G1 X211.078 Y42.056 E33.24484
G1 X211.701 Y42.337 E33.27666
G1 X212.287 Y42.689 E33.30849
G1 X212.827 Y43.107 E33.34029
G1 X213.315 Y43.585 E33.3721
G1 X213.744 Y44.117 E33.40392
G1 X214.108 Y44.695 E33.43573
G1 X214.402 Y45.312 E33.46755
G1 X214.621 Y45.959 E33.49936
G1 X214.764 Y46.627 E33.53117
G1 X214.829 Y47.346 E33.56479
G1 X214.84 Y47.83 E33.58733
G1 X214.84 Y351.836 E47.74312
G1 X214.831 Y352.563 E47.77698
G1 X214.782 Y353.245 E47.80882
G1 X214.654 Y353.916 E47.84062
G1 X214.449 Y354.568 E47.87245
G1 X214.169 Y355.191 E47.90425
G1 X213.819 Y355.777 E47.93604
G1 X213.402 Y356.319 E47.96788
G1 X212.925 Y356.808 E47.99969
G1 X212.394 Y357.237 E48.03148
G1 X211.816 Y357.602 E48.06331
G1 X211.2 Y357.897 E48.09511
G1 X210.553 Y358.118 E48.12695
G1 X209.885 Y358.262 E48.15877
G1 X209.155 Y358.329 E48.1929
G1 X208.67 Y358.34 E48.21549
G1 X191.632 Y358.34 E49.00885
G1 X190.934 Y358.331 E49.04135
G1 X190.252 Y358.282 E49.07319
G1 X189.581 Y358.154 E49.105
G1 X188.93 Y357.948 E49.1368
G1 X188.306 Y357.668 E49.16864
G1 X187.72 Y357.317 E49.20045
G1 X187.179 Y356.9 E49.23226
G1 X186.69 Y356.422 E49.2641
G1 X186.261 Y355.891 E49.29588
G1 X185.896 Y355.313 E49.32772
G1 X185.602 Y354.697 E49.3595
G1 X185.381 Y354.05 E49.39133
G1 X185.237 Y353.382 E49.42315
G1 X185.171 Y352.649 E49.45742
G1 X185.16 Y352.158 E49.48029
G1 X185.161 Y48.095 E63.63874
G1 X185.17 Y47.43 E63.66971
G1 X185.219 Y46.749 E63.7015
G1 X185.347 Y46.077 E63.73335
M204 S3000
M205 X10 Y10
G0 F3000 X185.906 Y46.153
M204 S1800
M205 X8 Y8
G1 F2400 X186.111 Y45.536 E63.76363
G1 X186.391 Y44.95 E63.79387
G1 X186.74 Y44.402 E63.82412
G1 X187.154 Y43.901 E63.85438
G1 X187.626 Y43.455 E63.88462
G1 X188.149 Y43.071 E63.91484
G1 X188.716 Y42.753 E63.94511
G1 X189.317 Y42.507 E63.97534
G1 X189.944 Y42.337 E64.00559
G1 X190.861 Y42.231 E64.04858
G1 X191.33 Y42.22 E64.07042
G1 X208.293 Y42.22 E64.86029
G1 X209.067 Y42.231 E64.89634
G1 X209.714 Y42.28 E64.92655
G1 X210.351 Y42.408 E64.9568
G1 X210.967 Y42.614 E64.98705
G1 X211.554 Y42.894 E65.01733
G1 X212.101 Y43.243 E65.04754
G1 X212.602 Y43.657 E65.07781
G1 X213.047 Y44.13 E65.10805
G1 X213.432 Y44.654 E65.13833
G1 X213.749 Y45.221 E65.16857
G1 X213.994 Y45.822 E65.19879
G1 X214.163 Y46.449 E65.22903
G1 X214.269 Y47.362 E65.27183
G1 X214.28 Y47.83 E65.29363
G1 X214.28 Y351.829 E79.4491
G1 X214.271 Y352.556 E79.48295
G1 X214.223 Y353.204 E79.51321
G1 X214.095 Y353.841 E79.54346
G1 X213.891 Y354.458 E79.57372
G1 X213.612 Y355.045 E79.60398
G1 X213.264 Y355.593 E79.63421
G1 X212.851 Y356.094 E79.66445
G1 X212.379 Y356.541 E79.69472
G1 X211.856 Y356.926 E79.72496
G1 X211.29 Y357.244 E79.75519
G1 X210.688 Y357.491 E79.78548
G1 X210.062 Y357.661 E79.81569
G1 X209.139 Y357.769 E79.85896
G1 X208.67 Y357.78 E79.88081
G1 X191.639 Y357.78 E80.67384
G1 X190.941 Y357.771 E80.70635
G1 X190.293 Y357.722 E80.73661
G1 X189.656 Y357.595 E80.76685
G1 X189.04 Y357.39 E80.79708
G1 X188.453 Y357.111 E80.82734
G1 X187.905 Y356.762 E80.8576
G1 X187.404 Y356.349 E80.88783
G1 X186.957 Y355.877 E80.9181
G1 X186.572 Y355.354 E80.94834
G1 X186.254 Y354.787 E80.97861
G1 X186.008 Y354.186 E81.00885
G1 X185.838 Y353.559 E81.0391
G1 X185.731 Y352.634 E81.08246
G1 X185.72 Y352.158 E81.10463
G1 X185.72 Y48.103 E95.2627
G1 X185.729 Y47.438 E95.29367
G1 X185.778 Y46.79 E95.32393
G1 X185.906 Y46.153 E95.35419
M204 S3000
M205 X10 Y10
G1 F2400 E89.35419
;MESH:aluminium_bar_template_open_27_04_2022.stl
G0 F3000 X190.335 Y48.354
G0 X191.854 Y48.354
G0 X196.643 Y178.924
G0 X203.885 Y239
G0 X207.6 Y351.1
M204 S1800
M205 X8 Y8
;TYPE:WALL-INNER
G1 F2400 E95.35419
G1 F1500 X192.4 Y351.1 E96.06196
G1 X192.4 Y48.9 E110.13366
G1 X207.6 Y48.9 E110.84143
G1 X207.6 Y351.1 E124.91313
M204 S3000
M205 X10 Y10
G0 F3000 X200.245 Y312.901
M204 S1800
M205 X8 Y8
G1 F1500 X201.207 Y312.719 E124.95872
G1 X202.096 Y312.3 E125.00449
G1 X202.851 Y311.675 E125.05012
G1 X203.425 Y310.883 E125.09567
G1 X203.788 Y309.974 E125.14125
G1 X203.909 Y309 E125.18695
G1 X203.788 Y308.026 E125.23265
G1 X203.425 Y307.117 E125.27823
G1 X202.851 Y306.325 E125.32377
G1 X202.096 Y305.7 E125.36941
G1 X201.207 Y305.281 E125.41518
G1 X200.245 Y305.099 E125.46077
G1 X199.268 Y305.158 E125.50634
G1 X198.337 Y305.462 E125.55195
G1 X197.507 Y305.988 E125.5977
G1 X196.837 Y306.702 E125.64329
G1 X196.365 Y307.561 E125.68893
G1 X196.122 Y308.51 E125.73455
G1 X196.122 Y309.49 E125.78018
G1 X196.365 Y310.439 E125.8258
G1 X196.837 Y311.298 E125.87143
G1 X197.507 Y312.012 E125.91703
G1 X198.337 Y312.538 E125.96278
G1 X199.268 Y312.842 E126.00839
G1 X200.245 Y312.901 E126.05396
M204 S3000
M205 X10 Y10
G0 F3000 X201.814 Y311.857
G0 X202.468 Y311.316
G0 X202.966 Y310.63
G0 X203.279 Y309.842
G0 X203.385 Y309
G0 X200.245 Y297.901
M204 S1800
M205 X8 Y8
G1 F1500 X201.207 Y297.719 E126.09955
G1 X202.096 Y297.3 E126.14532
G1 X202.851 Y296.675 E126.19095
G1 X203.425 Y295.883 E126.2365
G1 X203.788 Y294.974 E126.28208
G1 X203.909 Y294 E126.32778
G1 X203.788 Y293.026 E126.37348
G1 X203.425 Y292.117 E126.41906
G1 X202.851 Y291.325 E126.4646
G1 X202.096 Y290.7 E126.51024
G1 X201.207 Y290.281 E126.55601
G1 X200.245 Y290.099 E126.6016
G1 X199.268 Y290.158 E126.64717
G1 X198.337 Y290.462 E126.69278
G1 X197.507 Y290.988 E126.73853
G1 X196.837 Y291.702 E126.78412
G1 X196.365 Y292.561 E126.82976
G1 X196.122 Y293.51 E126.87538
G1 X196.122 Y294.49 E126.92101
G1 X196.365 Y295.439 E126.96663
G1 X196.837 Y296.298 E127.01226
G1 X197.507 Y297.012 E127.05786
G1 X198.337 Y297.538 E127.10361
G1 X199.268 Y297.842 E127.14922
G1 X200.245 Y297.901 E127.19479
M204 S3000
M205 X10 Y10
G0 F3000 X201.814 Y296.857
G0 X202.468 Y296.316
G0 X202.966 Y295.63
G0 X203.279 Y294.842
G0 X199.724 Y258.394
M204 S1800
M205 X8 Y8
G1 F1500 X200.276 Y258.394 E127.2205
G1 X200.825 Y258.325 E127.24626
G1 X201.361 Y258.188 E127.27202
G1 X201.874 Y257.985 E127.29771
G1 X202.359 Y257.718 E127.32349
G1 X202.805 Y257.394 E127.34916
G1 X203.21 Y257.014 E127.37502
G1 X203.562 Y256.586 E127.40082
G1 X203.859 Y256.121 E127.42652
G1 X204.094 Y255.621 E127.45224
G1 X204.276 Y255.062 E127.47962
G1 X204.409 Y254 E127.52945
G1 X204.276 Y252.938 E127.57929
G1 X204.094 Y252.379 E127.60666
G1 X203.859 Y251.879 E127.63239
G1 X203.562 Y251.414 E127.65808
G1 X203.21 Y250.986 E127.68389
G1 X202.805 Y250.606 E127.70975
G1 X202.359 Y250.282 E127.73542
G1 X201.874 Y250.015 E127.76119
G1 X201.361 Y249.812 E127.78688
G1 X200.825 Y249.675 E127.81265
G1 X200.276 Y249.606 E127.83841
G1 X199.724 Y249.606 E127.86411
G1 X199.175 Y249.675 E127.88988
G1 X198.639 Y249.812 E127.91564
G1 X198.126 Y250.015 E127.94133
G1 X197.641 Y250.282 E127.96711
G1 X197.195 Y250.606 E127.99278
G1 X196.79 Y250.986 E128.01864
G1 X196.438 Y251.414 E128.04444
G1 X196.141 Y251.879 E128.07013
G1 X195.906 Y252.379 E128.09586
G1 X195.724 Y252.938 E128.12323
G1 X195.591 Y254 E128.17307
G1 X195.724 Y255.062 E128.22291
G1 X195.906 Y255.621 E128.25028
G1 X196.141 Y256.121 E128.27601
G1 X196.438 Y256.586 E128.3017
G1 X196.79 Y257.014 E128.3275
G1 X197.195 Y257.394 E128.35336
G1 X197.641 Y257.718 E128.37903
G1 X198.126 Y257.985 E128.40481
G1 X198.639 Y258.188 E128.4305
G1 X199.175 Y258.325 E128.45626
G1 X199.724 Y258.394 E128.48203
M204 S3000
M205 X10 Y10
G0 F3000 X197.527 Y256.991
G0 X196.86 Y256.28
G0 X196.391 Y255.428
G0 X196.115 Y254
G0 X196.222 Y253.148
G0 X199.724 Y243.394
M204 S1800
M205 X8 Y8
G1 F1500 X200.276 Y243.394 E128.50773
G1 X200.825 Y243.325 E128.5335
G1 X201.361 Y243.188 E128.55926
G1 X201.874 Y242.985 E128.58495
G1 X202.359 Y242.718 E128.61073
G1 X202.805 Y242.394 E128.63639
G1 X203.21 Y242.014 E128.66225
G1 X203.562 Y241.586 E128.68806
G1 X203.859 Y241.121 E128.71375
G1 X204.094 Y240.621 E128.73948
G1 X204.276 Y240.062 E128.76685
G1 X204.409 Y239 E128.81669
G1 X204.276 Y237.938 E128.86653
G1 X204.094 Y237.379 E128.8939
G1 X203.859 Y236.879 E128.91962
G1 X203.562 Y236.414 E128.94532
G1 X203.21 Y235.986 E128.97112
G1 X202.805 Y235.606 E128.99698
G1 X202.359 Y235.282 E129.02265
G1 X201.874 Y235.015 E129.04843
G1 X201.361 Y234.812 E129.07412
G1 X200.825 Y234.675 E129.09988
G1 X200.276 Y234.606 E129.12564
G1 X199.724 Y234.606 E129.15135
G1 X199.175 Y234.675 E129.17711
G1 X198.639 Y234.812 E129.20287
G1 X198.126 Y235.015 E129.22856
G1 X197.641 Y235.282 E129.25434
G1 X197.195 Y235.606 E129.28001
G1 X196.79 Y235.986 E129.30587
G1 X196.438 Y236.414 E129.33168
G1 X196.141 Y236.879 E129.35737
G1 X195.906 Y237.379 E129.38309
G1 X195.724 Y237.938 E129.41047
G1 X195.591 Y239 E129.46031
G1 X195.724 Y240.062 E129.51014
G1 X195.906 Y240.621 E129.53752
G1 X196.141 Y241.121 E129.56324
G1 X196.438 Y241.586 E129.58893
G1 X196.79 Y242.014 E129.61474
G1 X197.195 Y242.394 E129.6406
G1 X197.641 Y242.718 E129.66627
G1 X198.126 Y242.985 E129.69205
G1 X198.639 Y243.188 E129.71774
G1 X199.175 Y243.325 E129.7435
G1 X199.724 Y243.394 E129.76926
M204 S3000
M205 X10 Y10
G0 F3000 X197.527 Y241.991
G0 X196.86 Y241.28
G0 X196.391 Y240.428
G0 X196.138 Y239.181
G0 X200.245 Y182.401
M204 S1800
M205 X8 Y8
G1 F1500 X201.207 Y182.219 E129.81485
G1 X202.096 Y181.8 E129.86061
G1 X202.851 Y181.175 E129.90625
G1 X203.425 Y180.383 E129.9518
G1 X203.788 Y179.474 E129.99738
G1 X203.909 Y178.5 E130.04308
G1 X203.788 Y177.526 E130.08878
G1 X203.425 Y176.617 E130.13436
G1 X202.851 Y175.825 E130.1799
G1 X202.096 Y175.2 E130.22554
G1 X201.207 Y174.781 E130.27131
G1 X200.245 Y174.599 E130.31689
G1 X199.268 Y174.658 E130.36247
G1 X198.337 Y174.962 E130.40807
G1 X197.507 Y175.488 E130.45383
G1 X196.837 Y176.202 E130.49942
G1 X196.365 Y177.061 E130.54506
G1 X196.122 Y178.01 E130.59068
G1 X196.122 Y178.99 E130.63631
G1 X196.365 Y179.939 E130.68192
G1 X196.837 Y180.798 E130.72756
G1 X197.507 Y181.512 E130.77316
G1 X198.337 Y182.038 E130.81891
G1 X199.268 Y182.342 E130.86452
G1 X200.245 Y182.401 E130.91009
M204 S3000
M205 X10 Y10
G0 F3000 X201.814 Y181.357
G0 X202.468 Y180.816
G0 X202.966 Y180.13
G0 X203.279 Y179.342
G0 X200.245 Y103.901
M204 S1800
M205 X8 Y8
G1 F1500 X201.207 Y103.719 E130.95568
G1 X202.096 Y103.3 E131.00144
G1 X202.851 Y102.675 E131.04708
G1 X203.425 Y101.883 E131.09263
G1 X203.788 Y100.974 E131.13821
G1 X203.909 Y100 E131.18391
G1 X203.788 Y99.026 E131.22961
G1 X203.425 Y98.117 E131.27519
G1 X202.851 Y97.325 E131.32073
G1 X202.096 Y96.7 E131.36637
G1 X201.207 Y96.281 E131.41214
G1 X200.245 Y96.099 E131.45772
G1 X199.268 Y96.158 E131.5033
G1 X198.337 Y96.462 E131.5489
G1 X197.507 Y96.988 E131.59466
G1 X196.837 Y97.702 E131.64025
G1 X196.365 Y98.561 E131.68589
G1 X196.122 Y99.51 E131.73151
G1 X196.122 Y100.49 E131.77714
G1 X196.365 Y101.439 E131.82275
G1 X196.837 Y102.298 E131.86839
G1 X197.507 Y103.012 E131.91399
G1 X198.337 Y103.538 E131.95974
G1 X199.268 Y103.842 E132.00535
G1 X200.245 Y103.901 E132.05092
M204 S3000
M205 X10 Y10
G0 F3000 X203.385 Y178.5
G0 X208.09 Y351.59
G0 X208.16 Y351.66
M204 S1800
M205 X8 Y8
G1 F1500 X191.84 Y351.66 E132.81085
G1 X191.84 Y48.34 E146.9347
G1 X208.16 Y48.34 E147.69463
G1 X208.16 Y351.66 E161.81848
M204 S3000
M205 X10 Y10
G0 F3000 X208.09 Y351.59
G0 X200.215 Y312.437
G0 X200.209 Y312.338
M204 S1800
M205 X8 Y8
G1 F1500 X201.033 Y312.182 E161.85753
G1 X201.793 Y311.824 E161.89665
G1 X202.439 Y311.289 E161.9357
G1 X202.931 Y310.611 E161.97471
G1 X203.241 Y309.833 E162.01371
G1 X203.345 Y309 E162.0528
G1 X203.241 Y308.167 E162.09188
G1 X202.931 Y307.389 E162.13088
G1 X202.439 Y306.711 E162.16989
G1 X201.793 Y306.176 E162.20895
G1 X201.033 Y305.818 E162.24806
G1 X200.209 Y305.662 E162.28711
G1 X199.374 Y305.713 E162.32607
G1 X198.577 Y305.973 E162.3651
G1 X197.867 Y306.423 E162.40425
G1 X197.294 Y307.034 E162.44325
G1 X196.89 Y307.769 E162.4823
G1 X196.682 Y308.581 E162.52134
G1 X196.682 Y309.419 E162.56036
G1 X196.89 Y310.231 E162.59939
G1 X197.294 Y310.966 E162.63844
G1 X197.867 Y311.577 E162.67745
G1 X198.577 Y312.027 E162.71659
G1 X199.374 Y312.287 E162.75562
G1 X200.209 Y312.338 E162.79458
M204 S3000
M205 X10 Y10
G0 F3000 X200.215 Y312.437
G0 X201.045 Y312.22
G0 X201.814 Y311.857
G0 X202.468 Y311.316
G0 X202.966 Y310.63
G0 X203.279 Y309.842
G0 X203.385 Y309
G0 X200.215 Y297.437
G0 X200.209 Y297.338
M204 S1800
M205 X8 Y8
G1 F1500 X201.033 Y297.182 E162.83363
G1 X201.793 Y296.824 E162.87275
G1 X202.439 Y296.289 E162.9118
G1 X202.931 Y295.611 E162.95081
G1 X203.241 Y294.833 E162.98981
G1 X203.345 Y294 E163.0289
G1 X203.241 Y293.167 E163.06798
G1 X202.931 Y292.389 E163.10698
G1 X202.439 Y291.711 E163.14599
G1 X201.793 Y291.176 E163.18505
G1 X201.033 Y290.818 E163.22416
G1 X200.209 Y290.662 E163.26321
G1 X199.374 Y290.713 E163.30217
G1 X198.577 Y290.973 E163.3412
