;FLAVOR:Marlin
;TIME:4510
;Filament used: 3.33222m
;Layer height: 0.2
;MINX:126.433
;MINY:137.05
;MINZ:0.2
;MAXX:273.557
;MAXY:273.566
;MAXZ:2
;Generated with Cura_SteamEngine 4.11.0
M140 S60
M105
M190 S60
M104 S200
M105
M109 S200
M82 ;absolute extrusion mode
M107 ;Start with the fan off
G21 ;Set units to millimeters
G91 ;Change to relative positioning mode for retract filament and nozzle lifting
G1 F200 E-3 ;Retract 3mm filament for a clean start
G92 E0 ;Zero the extruded length
G1 F1000 Z5 ;Lift the nozzle 5mm before homing axes
G90 ;Absolute positioning
M82 ;Set extruder to absolute mode too
G28 X0 Y0 ;First move X/Y to min endstops
G28 Z0 ;Then move Z to min endstops
G1 F1000 Z15 ;After homing lift the nozzle 15mm before start printing

G92 E0
G92 E0
G1 F2400 E-6
;LAYER_COUNT:10
;LAYER:0
M106 S255
M204 S3000
M205 X10 Y10
G1 F600 Z0.275
G0 F3000 X138.464 Y139.349 Z0.275
M204 S1800
M205 X8 Y8
;TYPE:SKIRT
G1 F600 Z0.2
G1 F2400 E0
G1 X138.966 Y138.861 E0.0326
G1 X139.506 Y138.392 E0.0659
G1 X140.095 Y137.986 E0.09921
G1 X140.725 Y137.648 E0.13251
G1 X141.39 Y137.383 E0.16584
G1 X142.079 Y137.194 E0.19911
G1 X142.786 Y137.082 E0.23244
G1 X143.5 Y137.05 E0.26572
G1 X144.214 Y137.099 E0.29904
G1 X144.918 Y137.226 E0.33235
G1 X145.603 Y137.431 E0.36565
G1 X146.261 Y137.712 E0.39896
G1 X146.884 Y138.064 E0.43228
G1 X147.463 Y138.483 E0.46556
G1 X148.056 Y139.018 E0.50275
G1 X148.193 Y139.152 E0.51168
G1 X153.044 Y144.002 E0.83109
G1 X155.02 Y145.923 E0.95941
G1 X156.963 Y147.707 E1.08224
G1 X158.959 Y149.438 E1.20527
G1 X160.994 Y151.107 E1.32782
G1 X163.11 Y152.743 E1.45236
G1 X165.236 Y154.291 E1.57482
G1 X167.41 Y155.783 E1.6976
G1 X169.662 Y157.237 E1.82242
G1 X171.894 Y158.59 E1.94395
G1 X174.211 Y159.907 E2.06805
G1 X176.567 Y161.159 E2.19229
G1 X178.899 Y162.316 E2.3135
G1 X181.338 Y163.438 E2.43851
G1 X183.767 Y164.476 E2.56151
G1 X186.244 Y165.453 E2.6855
G1 X188.709 Y166.343 E2.80753
G1 X191.209 Y167.167 E2.9301
G1 X193.752 Y167.928 E3.0537
G1 X197.06 Y168.802 E3.21302
G1 X197.982 Y169.029 E3.25724
G1 X198.665 Y169.239 E3.29051
G1 X199.322 Y169.523 E3.32384
G1 X199.942 Y169.879 E3.35713
G1 X200.536 Y170.317 E3.3915
G1 X200.967 Y170.706 E3.41853
G1 X201.397 Y171.132 E3.44672
G1 X201.869 Y171.614 E3.47813
G1 X271.227 Y240.972 E8.04547
G1 X271.739 Y241.497 E8.07962
G1 X272.209 Y242.036 E8.11292
G1 X272.616 Y242.624 E8.14622
G1 X272.954 Y243.254 E8.17951
G1 X273.221 Y243.918 E8.21283
G1 X273.411 Y244.607 E8.24611
G1 X273.524 Y245.314 E8.27945
G1 X273.557 Y246.028 E8.31273
G1 X273.51 Y246.742 E8.34605
G1 X273.383 Y247.446 E8.37936
G1 X273.179 Y248.131 E8.41264
G1 X272.9 Y248.79 E8.44597
G1 X272.549 Y249.413 E8.47926
G1 X272.13 Y249.993 E8.51258
G1 X271.568 Y250.616 E8.55165
G1 X271.437 Y250.751 E8.56041
G1 X250.949 Y271.239 E9.90958
G1 X250.422 Y271.752 E9.94382
G1 X249.883 Y272.221 E9.97709
G1 X249.294 Y272.628 E10.01043
G1 X248.664 Y272.966 E10.04372
G1 X248 Y273.232 E10.07703
G1 X247.31 Y273.422 E10.11035
G1 X246.603 Y273.533 E10.14368
G1 X245.889 Y273.566 E10.17696
G1 X245.175 Y273.518 E10.21028
G1 X244.471 Y273.391 E10.24359
G1 X243.786 Y273.186 E10.27689
G1 X243.128 Y272.906 E10.31018
G1 X242.505 Y272.555 E10.34348
G1 X241.925 Y272.136 E10.3768
G1 X241.336 Y271.605 E10.41373
G1 X241.189 Y271.463 E10.42324
G1 X128.713 Y158.985 E17.83004
G1 X128.246 Y158.505 E17.86123
G1 X127.776 Y157.965 E17.89456
G1 X127.37 Y157.376 E17.92787
G1 X127.032 Y156.746 E17.96116
G1 X126.767 Y156.082 E17.99445
G1 X126.577 Y155.392 E18.02778
G1 X126.465 Y154.686 E18.06107
G1 X126.433 Y153.971 E18.09439
G1 X126.481 Y153.258 E18.12767
G1 X126.608 Y152.554 E18.16098
G1 X126.813 Y151.868 E18.19432
G1 X127.094 Y151.21 E18.22763
G1 X127.445 Y150.588 E18.26089
G1 X127.864 Y150.008 E18.29421
G1 X128.36 Y149.456 E18.32876
G1 X128.49 Y149.323 E18.33742
G1 X138.464 Y139.349 E18.99423
M204 S3000
M205 X10 Y10
G0 F3000 X138.854 Y139.751
M204 S1800
M205 X8 Y8
G1 F2400 X139.356 Y139.263 E19.02683
G1 X139.873 Y138.816 E19.05865
G1 X140.439 Y138.432 E19.0905
G1 X141.045 Y138.118 E19.12228
G1 X141.684 Y137.876 E19.1541
G1 X142.347 Y137.711 E19.18591
G1 X143.025 Y137.624 E19.21774
G1 X143.708 Y137.617 E19.24955
G1 X144.387 Y137.69 E19.28134
G1 X145.054 Y137.841 E19.31319
G1 X145.698 Y138.069 E19.345
G1 X146.31 Y138.371 E19.37678
G1 X146.884 Y138.743 E19.40863
G1 X147.431 Y139.199 E19.44179
G1 X147.798 Y139.547 E19.46534
G1 X152.713 Y144.462 E19.789
G1 X154.629 Y146.324 E19.91341
G1 X156.576 Y148.113 E20.03653
G1 X158.596 Y149.864 E20.16101
G1 X160.659 Y151.557 E20.28527
G1 X162.752 Y153.174 E20.40843
G1 X164.908 Y154.744 E20.53262
G1 X167.133 Y156.271 E20.65828
G1 X169.345 Y157.7 E20.7809
G1 X171.62 Y159.079 E20.90478
G1 X173.935 Y160.395 E21.02877
G1 X176.278 Y161.64 E21.15232
G1 X178.695 Y162.838 E21.27793
G1 X181.105 Y163.948 E21.40148
G1 X183.531 Y164.984 E21.52432
G1 X186.074 Y165.988 E21.65162
G1 X188.521 Y166.87 E21.77274
G1 X191.051 Y167.705 E21.8968
G1 X193.607 Y168.469 E22.02102
G1 X196.905 Y169.341 E22.17987
G1 X197.848 Y169.573 E22.22508
G1 X198.5 Y169.775 E22.25687
G1 X199.125 Y170.052 E22.2887
G1 X199.713 Y170.399 E22.32049
G1 X200.18 Y170.749 E22.34767
G1 X200.573 Y171.104 E22.37233
G1 X200.997 Y171.524 E22.40012
G1 X201.469 Y172.006 E22.43153
G1 X270.826 Y241.363 E26.99881
G1 X271.338 Y241.888 E27.03295
G1 X271.786 Y242.404 E27.06477
G1 X272.17 Y242.969 E27.09658
G1 X272.485 Y243.575 E27.12839
G1 X272.728 Y244.213 E27.16018
G1 X272.895 Y244.876 E27.19201
G1 X272.982 Y245.554 E27.22384
G1 X272.991 Y246.237 E27.25565
G1 X272.919 Y246.916 E27.28744
G1 X272.769 Y247.583 E27.31928
G1 X272.541 Y248.227 E27.35109
G1 X272.24 Y248.84 E27.38289
G1 X271.87 Y249.414 E27.41469
G1 X271.407 Y249.971 E27.44841
G1 X271.041 Y250.355 E27.47311
G1 X250.559 Y270.838 E28.82192
G1 X250.032 Y271.351 E28.85617
G1 X249.515 Y271.798 E28.88799
G1 X248.95 Y272.182 E28.9198
G1 X248.343 Y272.497 E28.95165
G1 X247.705 Y272.739 E28.98342
G1 X247.042 Y272.905 E29.01524
G1 X246.364 Y272.992 E29.04707
G1 X245.681 Y272.999 E29.07888
G1 X245.002 Y272.927 E29.11067
G1 X244.335 Y272.776 E29.14252
G1 X243.691 Y272.548 E29.17433
G1 X243.078 Y272.246 E29.20615
G1 X242.504 Y271.875 E29.23797
G1 X241.962 Y271.425 E29.27078
G1 X241.585 Y271.067 E29.29498
G1 X129.114 Y158.594 E36.70146
G1 X128.647 Y158.114 E36.73264
G1 X128.2 Y157.598 E36.76443
G1 X127.817 Y157.032 E36.79625
G1 X127.502 Y156.426 E36.82805
G1 X127.26 Y155.787 E36.85987
G1 X127.094 Y155.124 E36.8917
G1 X127.007 Y154.447 E36.92348
G1 X127 Y153.763 E36.95533
G1 X127.072 Y153.084 E36.98713
G1 X127.223 Y152.418 E37.01892
G1 X127.452 Y151.774 E37.05075
G1 X127.753 Y151.161 E37.08255
G1 X128.125 Y150.587 E37.1144
G1 X128.585 Y150.035 E37.14786
G1 X128.886 Y149.719 E37.16818
G1 X138.854 Y139.751 E37.82459
M204 S3000
M205 X10 Y10
G0 F3000 X139.245 Y140.152
M204 S1800
M205 X8 Y8
G1 F2400 X139.747 Y139.664 E37.85719
G1 X140.239 Y139.241 E37.8874
G1 X140.78 Y138.881 E37.91766
G1 X141.362 Y138.591 E37.94794
G1 X141.974 Y138.374 E37.97818
G1 X142.608 Y138.234 E38.00841
G1 X143.255 Y138.173 E38.03867
G1 X143.904 Y138.192 E38.0689
G1 X144.546 Y138.29 E38.09914
G1 X145.172 Y138.467 E38.12943
G1 X145.77 Y138.718 E38.15963
G1 X146.334 Y139.042 E38.18992
G1 X147.047 Y139.607 E38.23228
G1 X147.402 Y139.943 E38.25504
G1 X152.317 Y144.858 E38.5787
G1 X154.237 Y146.724 E38.70337
G1 X156.209 Y148.535 E38.82804
G1 X158.249 Y150.305 E38.95381
G1 X160.302 Y151.989 E39.07745
G1 X162.404 Y153.614 E39.20116
G1 X164.597 Y155.21 E39.32746
G1 X166.807 Y156.727 E39.45228
G1 X169.054 Y158.179 E39.57685
G1 X171.331 Y159.559 E39.70083
G1 X173.688 Y160.899 E39.82708
G1 X176.017 Y162.136 E39.94987
G1 X178.449 Y163.342 E40.07628
G1 X180.871 Y164.457 E40.20043
G1 X183.314 Y165.501 E40.32414
G1 X185.857 Y166.504 E40.45143
G1 X188.375 Y167.412 E40.57607
G1 X190.859 Y168.231 E40.69786
G1 X193.453 Y169.007 E40.82394
G1 X196.75 Y169.878 E40.98273
G1 X197.714 Y170.116 E41.02896
G1 X198.334 Y170.31 E41.05921
G1 X198.925 Y170.579 E41.08945
G1 X199.479 Y170.918 E41.11969
G1 X200.179 Y171.503 E41.16217
G1 X200.596 Y171.916 E41.1895
G1 X201.029 Y172.358 E41.21831
G1 X270.425 Y241.754 E45.78815
G1 X270.937 Y242.279 E45.8223
G1 X271.361 Y242.771 E45.85254
G1 X271.722 Y243.311 E45.88279
G1 X272.013 Y243.892 E45.91305
G1 X272.231 Y244.504 E45.9433
G1 X272.372 Y245.138 E45.97354
G1 X272.434 Y245.784 E46.00376
G1 X272.416 Y246.434 E46.03404
G1 X272.319 Y247.076 E46.06427
G1 X272.143 Y247.702 E46.09455
G1 X271.892 Y248.301 E46.12479
G1 X271.57 Y248.865 E46.15503
G1 X270.999 Y249.586 E46.19786
G1 X270.645 Y249.959 E46.22181
G1 X250.168 Y270.436 E47.57025
G1 X249.641 Y270.949 E47.6045
G1 X249.148 Y271.373 E47.63478
G1 X248.608 Y271.733 E47.665
G1 X248.027 Y272.024 E47.69525
G1 X247.415 Y272.241 E47.72549
G1 X246.78 Y272.382 E47.75578
G1 X246.134 Y272.443 E47.78599
G1 X245.484 Y272.425 E47.81627
G1 X244.842 Y272.327 E47.84651
G1 X244.217 Y272.151 E47.87675
G1 X243.618 Y271.899 E47.907
G1 X243.054 Y271.576 E47.93727
G1 X242.345 Y271.016 E47.97934
G1 X241.981 Y270.672 E48.00266
G1 X129.516 Y158.204 E55.40877
G1 X129.049 Y157.724 E55.43995
G1 X128.625 Y157.231 E55.47023
G1 X128.265 Y156.69 E55.50049
G1 X127.975 Y156.109 E55.53073
G1 X127.758 Y155.497 E55.56096
G1 X127.617 Y154.863 E55.59121
G1 X127.556 Y154.216 E55.62147
G1 X127.574 Y153.567 E55.6517
G1 X127.673 Y152.925 E55.68195
G1 X127.849 Y152.299 E55.71223
G1 X128.101 Y151.701 E55.74244
G1 X128.424 Y151.137 E55.77271
G1 X128.992 Y150.419 E55.81534
G1 X129.282 Y150.115 E55.8349
G1 X139.245 Y140.152 E56.49098
M204 S3000
M205 X10 Y10
G1 F2400 E50.49098
;MESH:endstop aluminium bar template 2mm 28.04.2022.stl
G0 F3000 X142.353 Y143.57
G0 X143.427 Y144.644
G0 X245.958 Y265.2
M204 S1800
M205 X8 Y8
;TYPE:WALL-INNER
G1 F2400 E56.49098
G1 F1500 X245.761 Y265.003 E56.50395
G1 X134.997 Y154.239 E63.79795
G1 X134.8 Y154.042 E63.81092
G1 X134.997 Y153.846 E63.81926
G1 X134.998 Y153.845 E63.81933
G1 X143.427 Y145.416 E64.37439
G1 X174.644 Y176.633 E66.43009
G1 X195.857 Y176.633 E67.41785
G1 X265.191 Y245.966 E71.98358
G1 X246.155 Y265.003 E73.23717
G1 X245.958 Y265.2 E73.24554
M204 S3000
M205 X10 Y10
G0 F3000 X244.366 Y260.959
M204 S1800
M205 X8 Y8
G1 F1500 X245.331 Y261.241 E73.29236
G1 X246.335 Y261.271 E73.33913
G1 X247.315 Y261.052 E73.38589
G1 X248.211 Y260.596 E73.4327
G1 X248.964 Y259.931 E73.47948
G1 X249.53 Y259.1 E73.5263
G1 X249.871 Y258.152 E73.57321
G1 X249.963 Y257.131 E73.62094
G1 X249.807 Y256.161 E73.66669
G1 X249.408 Y255.238 E73.71351
G1 X248.778 Y254.432 E73.76115
G1 X247.998 Y253.829 E73.80706
G1 X247.077 Y253.43 E73.85379
G1 X246.084 Y253.273 E73.90061
G1 X245.083 Y253.367 E73.94742
G1 X244.138 Y253.707 E73.99419
G1 X243.306 Y254.274 E74.04107
G1 X242.641 Y255.027 E74.08785
G1 X242.185 Y255.922 E74.13462
G1 X241.966 Y256.905 E74.18152
G1 X242.002 Y257.927 E74.22913
G1 X242.277 Y258.874 E74.27505
G1 X242.79 Y259.738 E74.32184
G1 X243.5 Y260.448 E74.3686
G1 X244.366 Y260.959 E74.41542
M204 S3000
M205 X10 Y10
G0 F3000 X236.138 Y252.049
M204 S1800
M205 X8 Y8
G1 F1500 X237.142 Y252.079 E74.46219
G1 X238.123 Y251.86 E74.50899
G1 X239.018 Y251.404 E74.55576
G1 X239.771 Y250.739 E74.60254
G1 X240.338 Y249.909 E74.64935
G1 X240.679 Y248.961 E74.69626
G1 X240.771 Y247.939 E74.74404
G1 X240.615 Y246.967 E74.78988
G1 X240.217 Y246.045 E74.83664
G1 X239.586 Y245.239 E74.88431
G1 X238.804 Y244.636 E74.93029
G1 X237.882 Y244.238 E74.97705
G1 X236.892 Y244.081 E75.02372
G1 X235.891 Y244.174 E75.07054
G1 X234.944 Y244.515 E75.1174
G1 X234.114 Y245.081 E75.16418
G1 X233.449 Y245.834 E75.21096
G1 X232.993 Y246.73 E75.25777
G1 X232.774 Y247.713 E75.30467
G1 X232.809 Y248.735 E75.35229
G1 X233.086 Y249.681 E75.39819
G1 X233.598 Y250.546 E75.44499
G1 X234.308 Y251.256 E75.49175
G1 X235.174 Y251.768 E75.53859
G1 X236.138 Y252.049 E75.58535
M204 S3000
M205 X10 Y10
G0 F3000 X237.945 Y251.366
G0 X238.723 Y250.97
G0 X246.134 Y240.807
M204 S1800
M205 X8 Y8
G1 F1500 X247.099 Y241.086 E75.63212
G1 X248.102 Y241.119 E75.67885
G1 X249.083 Y240.9 E75.72565
G1 X249.979 Y240.444 E75.77247
G1 X250.734 Y239.779 E75.81932
G1 X251.298 Y238.947 E75.86612
G1 X251.639 Y238 E75.91299
G1 X251.731 Y236.979 E75.96072
G1 X251.575 Y236.007 E76.00656
G1 X251.177 Y235.085 E76.05332
G1 X250.546 Y234.277 E76.10106
G1 X249.766 Y233.677 E76.14688
G1 X248.845 Y233.277 E76.19364
G1 X247.852 Y233.121 E76.24044
G1 X246.851 Y233.214 E76.28726
G1 X245.906 Y233.555 E76.33404
G1 X245.074 Y234.119 E76.38084
G1 X244.409 Y234.874 E76.42769
G1 X243.953 Y235.77 E76.4745
G1 X243.734 Y236.751 E76.52131
G1 X243.764 Y237.754 E76.56803
G1 X244.046 Y238.719 E76.61485
G1 X244.558 Y239.586 E76.66173
G1 X245.268 Y240.296 E76.70849
G1 X246.134 Y240.807 E76.75531
M204 S3000
M205 X10 Y10
G0 F3000 X255.326 Y249.999
M204 S1800
M205 X8 Y8
G1 F1500 X256.291 Y250.281 E76.80212
G1 X257.295 Y250.311 E76.84889
G1 X258.275 Y250.092 E76.89565
G1 X259.171 Y249.636 E76.94246
G1 X259.924 Y248.971 E76.98924
G1 X260.49 Y248.14 E77.03606
G1 X260.831 Y247.192 E77.08297
G1 X260.923 Y246.173 E77.13061
G1 X260.767 Y245.201 E77.17645
G1 X260.369 Y244.277 E77.2233
G1 X259.738 Y243.471 E77.27096
G1 X258.958 Y242.868 E77.31687
G1 X258.035 Y242.47 E77.36368
G1 X257.044 Y242.313 E77.4104
G1 X256.042 Y242.406 E77.45725
G1 X255.096 Y242.747 E77.50408
G1 X254.265 Y243.313 E77.5509
G1 X253.601 Y244.068 E77.59771
G1 X253.145 Y244.962 E77.64445
G1 X252.926 Y245.945 E77.69134
G1 X252.962 Y246.968 E77.739
G1 X253.239 Y247.915 E77.78495
G1 X253.75 Y248.777 E77.83161
G1 X254.46 Y249.488 E77.8784
G1 X255.326 Y249.999 E77.92522
M204 S3000
M205 X10 Y10
G0 F3000 X245.958 Y265.892
G0 X245.958 Y265.992
M204 S1800
M205 X8 Y8
G1 F1500 X245.761 Y265.795 E77.93819
G1 X134.205 Y154.239 E85.28434
G1 X134.008 Y154.042 E85.29732
G1 X134.205 Y153.846 E85.30566
G1 X134.206 Y153.845 E85.30572
G1 X143.427 Y144.624 E85.91294
G1 X174.876 Y176.073 E87.98391
G1 X196.089 Y176.073 E88.97168
G1 X265.983 Y245.966 E93.57428
G1 X246.155 Y265.795 E94.88002
G1 X245.958 Y265.992 E94.8884
M204 S3000
M205 X10 Y10
G0 F3000 X245.958 Y265.892
G0 X244.551 Y260.532
G0 X244.59 Y260.441
M204 S1800
M205 X8 Y8
G1 F1500 X245.419 Y260.683 E94.92861
G1 X246.282 Y260.709 E94.96882
G1 X247.124 Y260.521 E95.00899
G1 X247.894 Y260.129 E95.04922
G1 X248.541 Y259.558 E95.0894
G1 X249.027 Y258.844 E95.12962
G1 X249.32 Y258.03 E95.16991
G1 X249.399 Y257.151 E95.211
G1 X249.265 Y256.319 E95.25024
G1 X248.922 Y255.526 E95.29047
G1 X248.38 Y254.832 E95.33148
G1 X247.711 Y254.315 E95.37084
G1 X246.919 Y253.972 E95.41103
G1 X246.066 Y253.837 E95.45125
G1 X245.206 Y253.918 E95.49147
G1 X244.394 Y254.21 E95.53165
G1 X243.679 Y254.697 E95.57193
G1 X243.108 Y255.344 E95.61211
G1 X242.716 Y256.113 E95.65231
G1 X242.528 Y256.957 E95.69257
G1 X242.559 Y257.838 E95.73362
G1 X242.795 Y258.649 E95.77295
G1 X243.236 Y259.392 E95.81318
G1 X243.846 Y260.002 E95.85335
G1 X244.59 Y260.441 E95.89358
M204 S3000
M205 X10 Y10
G0 F3000 X244.551 Y260.532
G0 X243.822 Y260.033
G0 X236.211 Y251.589
G0 X236.226 Y251.491
M204 S1800
M205 X8 Y8
G1 F1500 X237.089 Y251.517 E95.93378
G1 X237.932 Y251.329 E95.974
G1 X238.701 Y250.937 E96.01419
G1 X239.348 Y250.366 E96.05437
G1 X239.835 Y249.652 E96.09461
G1 X240.128 Y248.839 E96.13485
G1 X240.207 Y247.959 E96.176
G1 X240.073 Y247.125 E96.21533
G1 X239.731 Y246.333 E96.2555
G1 X239.188 Y245.639 E96.29653
G1 X238.518 Y245.122 E96.33594
G1 X237.725 Y244.78 E96.37615
G1 X236.874 Y244.645 E96.41627
G1 X236.014 Y244.725 E96.45649
G1 X235.201 Y245.018 E96.49673
G1 X234.487 Y245.504 E96.53695
G1 X233.916 Y246.151 E96.57713
G1 X233.524 Y246.921 E96.61736
G1 X233.336 Y247.765 E96.65763
G1 X233.366 Y248.645 E96.69863
G1 X233.604 Y249.456 E96.73798
G1 X234.044 Y250.2 E96.77823
G1 X234.654 Y250.81 E96.8184
G1 X235.398 Y251.25 E96.85865
G1 X236.226 Y251.491 E96.8988
M204 S3000
M205 X10 Y10
G0 F3000 X236.211 Y251.589
G0 X237.092 Y251.556
G0 X237.945 Y251.366
G0 X238.723 Y250.97
G0 X246.319 Y240.38
G0 X246.358 Y240.289
M204 S1800
M205 X8 Y8
G1 F1500 X247.187 Y240.529 E96.93899
G1 X248.049 Y240.557 E96.97915
G1 X248.892 Y240.369 E97.01937
