;FLAVOR:Marlin
;TIME:679
;Filament used: 0.624782m
;Layer height: 0.2
;MINX:178.9
;MINY:170.652
;MINZ:0.2
;MAXX:203.664
;MAXY:231.663
;MAXZ:12.4
;Generated with Cura_SteamEngine 4.11.0
M140 S60
M105
M190 S60
M104 S200
M105
M109 S200
M82 ;absolute extrusion mode
M107 ;Start with the fan off
G21 ;Set units to millimeters
G91 ;Change to relative positioning mode for retract filament and nozzle lifting
G1 F200 E-3 ;Retract 3mm filament for a clean start
G92 E0 ;Zero the extruded length
G1 F1000 Z5 ;Lift the nozzle 5mm before homing axes
G90 ;Absolute positioning
M82 ;Set extruder to absolute mode too
G28 X0 Y0 ;First move X/Y to min endstops
G28 Z0 ;Then move Z to min endstops
G1 F1000 Z15 ;After homing lift the nozzle 15mm before start printing

G92 E0
G92 E0
G1 F2400 E-6
;LAYER_COUNT:63
;LAYER:0
M106 S255
M204 S3000
M205 X10 Y10
G1 F600 Z0.275
G0 F3000 X186.423 Y172.658 Z0.275
M204 S1800
M205 X8 Y8
;TYPE:SKIRT
G1 F600 Z0.2
G1 F2400 E0
G1 X186.958 Y172.183 E0.03331
G1 X187.463 Y171.818 E0.06233
G1 X188.072 Y171.444 E0.09561
G1 X188.985 Y171.041 E0.14208
G1 X189.022 Y171.028 E0.1439
G1 X189.71 Y170.829 E0.17725
G1 X190.62 Y170.687 E0.22014
G1 X190.827 Y170.67 E0.22981
G1 X191.542 Y170.652 E0.26311
G1 X192.255 Y170.713 E0.29643
G1 X192.956 Y170.854 E0.32973
G1 X193.719 Y171.103 E0.3671
G1 X193.94 Y171.191 E0.37818
G1 X194.588 Y171.492 E0.41145
G1 X195.199 Y171.864 E0.44476
G1 X195.765 Y172.302 E0.47808
G1 X196.254 Y172.774 E0.50973
G1 X196.391 Y172.921 E0.51909
G1 X196.849 Y173.47 E0.55238
G1 X197.242 Y174.068 E0.5857
G1 X197.566 Y174.705 E0.61898
G1 X197.888 Y175.617 E0.66401
G1 X197.987 Y175.984 E0.68171
G1 X198.142 Y176.736 E0.71746
G1 X198.248 Y177.548 E0.7556
G1 X198.325 Y178.469 E0.79863
G1 X199.471 Y195.319 E1.58505
G1 X199.69 Y197.981 E1.70942
G1 X199.98 Y200.599 E1.83207
G1 X200.351 Y203.258 E1.95709
G1 X200.79 Y205.867 E2.08028
G1 X201.299 Y208.439 E2.20237
G1 X201.88 Y210.998 E2.32456
G1 X202.55 Y213.603 E2.4498
G1 X202.904 Y214.823 E2.50896
G1 X203.204 Y215.896 E2.56083
G1 X203.3 Y216.289 E2.57967
G1 X203.468 Y217.08 E2.61733
G1 X203.587 Y217.892 E2.65554
G1 X203.649 Y218.655 E2.69119
G1 X203.664 Y219.448 E2.72812
G1 X203.632 Y220.192 E2.76279
G1 X203.549 Y220.98 E2.79969
G1 X203.425 Y221.716 E2.83444
G1 X203.237 Y222.517 E2.87275
G1 X203.016 Y223.243 E2.90809
G1 X202.74 Y223.982 E2.94482
G1 X202.439 Y224.658 E2.97928
G1 X202.066 Y225.37 E3.01671
G1 X201.676 Y226.014 E3.05177
G1 X201.216 Y226.676 E3.0893
G1 X200.748 Y227.266 E3.12437
G1 X200.209 Y227.865 E3.16189
G1 X199.666 Y228.396 E3.19726
G1 X199.055 Y228.922 E3.2348
G1 X198.466 Y229.368 E3.2692
G1 X197.794 Y229.813 E3.30673
G1 X197.104 Y230.21 E3.3438
G1 X196.381 Y230.568 E3.38136
G1 X195.728 Y230.841 E3.41432
G1 X194.968 Y231.104 E3.45177
G1 X194.221 Y231.311 E3.48786
G1 X193.432 Y231.477 E3.52541
G1 X192.702 Y231.583 E3.55975
G1 X191.909 Y231.648 E3.5968
G1 X191.154 Y231.663 E3.63197
G1 X190.349 Y231.628 E3.66949
G1 X189.608 Y231.549 E3.70419
G1 X188.825 Y231.416 E3.74117
G1 X188.083 Y231.242 E3.77666
G1 X187.715 Y231.145 E3.79438
G1 X187.221 Y230.987 E3.81853
G1 X186.743 Y230.805 E3.84234
G1 X186.355 Y230.644 E3.8619
G1 X185.829 Y230.398 E3.88894
G1 X185.249 Y230.093 E3.91946
G1 X184.981 Y229.944 E3.93374
G1 X184.526 Y229.655 E3.95883
G1 X183.904 Y229.222 E3.99412
G1 X183.272 Y228.719 E4.03174
G1 X182.716 Y228.217 E4.06662
G1 X182.157 Y227.645 E4.10386
G1 X181.689 Y227.102 E4.13724
G1 X181.5 Y226.872 E4.1511
G1 X181.182 Y226.435 E4.17627
G1 X180.765 Y225.807 E4.21137
G1 X180.359 Y225.102 E4.24925
G1 X180.028 Y224.432 E4.28405
G1 X179.719 Y223.692 E4.32139
G1 X179.472 Y222.979 E4.35652
G1 X179.257 Y222.208 E4.39379
G1 X179.101 Y221.47 E4.42892
G1 X178.985 Y220.68 E4.4661
G1 X178.924 Y219.952 E4.50012
G1 X178.9 Y219.445 E4.52375
G1 X178.908 Y218.829 E4.55244
G1 X178.954 Y218.149 E4.58417
G1 X179.023 Y217.586 E4.61058
G1 X179.143 Y216.871 E4.64434
G1 X179.246 Y216.378 E4.6678
G1 X179.315 Y216.119 E4.68028
G1 X180.037 Y213.606 E4.80203
G1 X180.684 Y211.081 E4.9234
G1 X181.276 Y208.47 E5.04806
G1 X181.787 Y205.88 E5.17099
G1 X182.229 Y203.249 E5.29522
G1 X182.591 Y200.636 E5.41805
G1 X182.878 Y198.04 E5.53967
G1 X183.1 Y195.335 E5.66605
G1 X184.26 Y178.283 E6.4619
G1 X184.311 Y177.668 E6.49063
G1 X184.353 Y177.292 E6.50825
G1 X184.424 Y176.795 E6.53163
G1 X184.495 Y176.372 E6.5516
G1 X184.656 Y175.675 E6.58491
G1 X184.894 Y175.001 E6.61819
G1 X185.177 Y174.394 E6.64938
G1 X185.527 Y173.77 E6.68269
G1 X185.944 Y173.189 E6.71599
G1 X186.423 Y172.658 E6.74929
M204 S3000
M205 X10 Y10
G0 F3000 X186.883 Y172.991
M204 S1800
M205 X8 Y8
G1 F2400 X187.602 Y172.402 E6.79257
G1 X187.781 Y172.278 E6.80271
G1 X188.365 Y171.923 E6.83453
G1 X189.171 Y171.569 E6.87552
G1 X189.208 Y171.556 E6.87735
G1 X189.865 Y171.368 E6.90917
G1 X190.666 Y171.246 E6.9469
G1 X190.873 Y171.229 E6.95657
G1 X191.556 Y171.213 E6.98838
G1 X192.236 Y171.276 E7.02018
G1 X192.904 Y171.419 E7.05199
G1 X193.511 Y171.623 E7.08181
G1 X193.732 Y171.711 E7.09289
G1 X194.351 Y172.001 E7.12471
G1 X194.932 Y172.361 E7.15654
G1 X195.467 Y172.786 E7.18836
G1 X195.844 Y173.155 E7.21292
G1 X195.981 Y173.302 E7.22228
G1 X196.417 Y173.829 E7.25413
G1 X196.788 Y174.402 E7.28591
G1 X197.09 Y175.015 E7.31773
G1 X197.347 Y175.763 E7.35456
G1 X197.446 Y176.13 E7.37226
G1 X197.588 Y176.816 E7.40488
G1 X197.69 Y177.595 E7.44146
G1 X197.767 Y178.507 E7.48408
G1 X198.914 Y195.381 E8.27162
G1 X199.131 Y198.019 E8.39487
G1 X199.428 Y200.704 E8.52066
G1 X199.793 Y203.32 E8.64365
G1 X200.239 Y205.965 E8.76855
G1 X200.753 Y208.562 E8.89182
G1 X201.343 Y211.16 E9.01588
G1 X202.004 Y213.733 E9.13958
G1 X202.364 Y214.974 E9.19975
G1 X202.664 Y216.047 E9.25162
G1 X202.753 Y216.406 E9.26885
G1 X202.921 Y217.197 E9.3065
G1 X203.029 Y217.937 E9.34132
G1 X203.091 Y218.7 E9.37697
G1 X203.105 Y219.424 E9.41069
G1 X203.073 Y220.168 E9.44536
G1 X202.997 Y220.887 E9.47903
G1 X202.873 Y221.623 E9.51378
G1 X202.701 Y222.354 E9.54875
G1 X202.48 Y223.08 E9.58409
G1 X202.228 Y223.755 E9.61764
G1 X201.927 Y224.431 E9.6521
G1 X201.587 Y225.08 E9.68621
G1 X201.197 Y225.724 E9.72127
G1 X200.777 Y226.328 E9.75553
G1 X200.309 Y226.918 E9.79059
G1 X199.817 Y227.464 E9.82482
G1 X199.274 Y227.995 E9.86018
G1 X198.716 Y228.476 E9.89448
G1 X198.127 Y228.922 E9.92889
G1 X197.514 Y229.328 E9.96312
G1 X196.824 Y229.725 E10.00019
G1 X196.165 Y230.051 E10.03443
G1 X195.512 Y230.324 E10.06738
G1 X194.819 Y230.564 E10.10153
G1 X194.072 Y230.771 E10.13763
G1 X193.351 Y230.922 E10.17193
G1 X192.621 Y231.028 E10.20628
G1 X191.898 Y231.088 E10.24006
G1 X191.143 Y231.103 E10.27522
G1 X190.408 Y231.071 E10.30948
G1 X189.667 Y230.992 E10.34418
G1 X188.953 Y230.871 E10.3779
G1 X188.211 Y230.697 E10.41339
G1 X187.414 Y230.461 E10.45209
G1 X186.57 Y230.127 E10.49436
G1 X186.09 Y229.902 E10.51904
G1 X185.51 Y229.597 E10.54955
G1 X184.846 Y229.195 E10.5857
G1 X184.224 Y228.762 E10.62099
G1 X183.647 Y228.304 E10.65529
G1 X183.091 Y227.802 E10.69017
G1 X182.581 Y227.28 E10.72415
G1 X182.113 Y226.737 E10.75753
G1 X181.649 Y226.126 E10.79326
G1 X181.232 Y225.498 E10.82836
G1 X180.861 Y224.854 E10.86297
G1 X180.53 Y224.184 E10.89776
G1 X180.248 Y223.509 E10.93183
G1 X180.001 Y222.796 E10.96696
G1 X179.805 Y222.092 E11.00099
G1 X179.649 Y221.354 E11.03611
G1 X179.543 Y220.634 E11.07
G1 X179.482 Y219.906 E11.10402
G1 X179.46 Y219.056 E11.14361
G1 X179.513 Y218.193 E11.18387
G1 X179.576 Y217.678 E11.20803
G1 X179.696 Y216.963 E11.24179
G1 X179.8 Y216.47 E11.26525
G1 X179.853 Y216.274 E11.27471
G1 X180.574 Y213.764 E11.39631
G1 X181.229 Y211.208 E11.51917
G1 X181.83 Y208.557 E11.64575
G1 X182.334 Y206.005 E11.76687
G1 X182.785 Y203.315 E11.89388
G1 X183.143 Y200.736 E12.01512
G1 X183.44 Y198.042 E12.14133
G1 X183.652 Y195.463 E12.26182
G1 X184.818 Y178.329 E13.0615
G1 X184.869 Y177.714 E13.09023
G1 X184.908 Y177.371 E13.10631
G1 X185.005 Y176.704 E13.13769
G1 X185.046 Y176.467 E13.14889
G1 X185.202 Y175.802 E13.1807
G1 X185.554 Y174.9 E13.22578
G1 X185.681 Y174.64 E13.23926
G1 X186.016 Y174.045 E13.27105
G1 X186.418 Y173.492 E13.30289
G1 X186.883 Y172.991 E13.33471
M204 S3000
M205 X10 Y10
G0 F3000 X187.34 Y173.329
M204 S1800
M205 X8 Y8
G1 F2400 X187.921 Y172.863 E13.36939
G1 X188.1 Y172.739 E13.37953
G1 X188.656 Y172.402 E13.40981
G1 X189.357 Y172.098 E13.44539
G1 X189.394 Y172.085 E13.44721
G1 X190.019 Y171.907 E13.47747
G1 X190.712 Y171.804 E13.5101
G1 X190.919 Y171.787 E13.51977
G1 X191.568 Y171.773 E13.54999
G1 X192.215 Y171.84 E13.58028
G1 X192.848 Y171.986 E13.61053
G1 X193.525 Y172.232 E13.64407
G1 X194.113 Y172.509 E13.67434
G1 X194.662 Y172.856 E13.70458
G1 X195.164 Y173.267 E13.73479
G1 X195.572 Y173.684 E13.76196
G1 X195.984 Y174.186 E13.7922
G1 X196.333 Y174.734 E13.82245
G1 X196.611 Y175.321 E13.85269
G1 X196.807 Y175.909 E13.88155
G1 X196.906 Y176.276 E13.89925
G1 X197.034 Y176.896 E13.92873
G1 X197.132 Y177.642 E13.96377
G1 X197.208 Y178.545 E14.00596
G1 X198.355 Y195.417 E14.79341
G1 X198.575 Y198.088 E14.9182
G1 X198.872 Y200.773 E15.04399
G1 X199.233 Y203.361 E15.16566
G1 X199.688 Y206.064 E15.2933
G1 X200.206 Y208.684 E15.41766
G1 X200.796 Y211.279 E15.54157
G1 X201.469 Y213.9 E15.66758
G1 X201.825 Y215.124 E15.72693
G1 X202.125 Y216.197 E15.77881
G1 X202.205 Y216.522 E15.7944
G1 X202.373 Y217.313 E15.83205
G1 X202.471 Y217.982 E15.86354
G1 X202.533 Y218.745 E15.89918
G1 X202.545 Y219.4 E15.92969
G1 X202.513 Y220.144 E15.96436
G1 X202.445 Y220.794 E15.99479
G1 X202.321 Y221.53 E16.02955
G1 X202.165 Y222.191 E16.06117
G1 X201.944 Y222.917 E16.09651
G1 X201.716 Y223.527 E16.12683
G1 X201.415 Y224.203 E16.16129
G1 X201.108 Y224.79 E16.19214
G1 X200.718 Y225.434 E16.22719
G1 X200.339 Y225.98 E16.25814
G1 X199.871 Y226.57 E16.29321
G1 X199.426 Y227.064 E16.32417
G1 X198.883 Y227.595 E16.35953
G1 X198.378 Y228.029 E16.39054
G1 X197.789 Y228.475 E16.42494
G1 X197.235 Y228.843 E16.45591
G1 X196.545 Y229.24 E16.49298
G1 X195.949 Y229.534 E16.52392
G1 X195.296 Y229.807 E16.55688
G1 X194.669 Y230.024 E16.58777
G1 X193.922 Y230.231 E16.62387
G1 X193.271 Y230.368 E16.65485
G1 X192.541 Y230.474 E16.68919
G1 X191.887 Y230.528 E16.71975
G1 X191.132 Y230.543 E16.75491
G1 X190.467 Y230.514 E16.78591
G1 X189.726 Y230.435 E16.82061
G1 X189.081 Y230.326 E16.85107
G1 X188.339 Y230.152 E16.88656
G1 X187.607 Y229.935 E16.92211
G1 X186.784 Y229.61 E16.96331
G1 X186.351 Y229.406 E16.9856
G1 X185.771 Y229.101 E17.01611
G1 X185.166 Y228.735 E17.04904
G1 X184.544 Y228.302 E17.08433
G1 X184.023 Y227.888 E17.11531
G1 X183.467 Y227.386 E17.15019
G1 X183.005 Y226.914 E17.18095
G1 X182.537 Y226.371 E17.21433
G1 X182.115 Y225.816 E17.24679
G1 X181.698 Y225.188 E17.28189
G1 X181.363 Y224.606 E17.31316
G1 X181.032 Y223.936 E17.34796
G1 X180.777 Y223.325 E17.37879
G1 X180.53 Y222.612 E17.41393
G1 X180.353 Y221.976 E17.44467
G1 X180.197 Y221.238 E17.47979
G1 X180.101 Y220.587 E17.51043
G1 X180.04 Y219.859 E17.54445
G1 X180.02 Y219.074 E17.58101
G1 X180.071 Y218.236 E17.62011
G1 X180.128 Y217.771 E17.64192
G1 X180.248 Y217.056 E17.67568
G1 X180.391 Y216.428 E17.70567
G1 X181.113 Y213.913 E17.82751
G1 X181.785 Y211.293 E17.95346
G1 X182.368 Y208.721 E18.07626
G1 X182.893 Y206.063 E18.20242
G1 X183.331 Y203.451 E18.32574
G1 X183.703 Y200.77 E18.45178
G1 X183.996 Y198.111 E18.57634
G1 X184.211 Y195.495 E18.69856
G1 X185.376 Y178.376 E19.49754
G1 X185.427 Y177.761 E19.52627
G1 X185.462 Y177.45 E19.54085
G1 X185.533 Y176.953 E19.56422
G1 X185.598 Y176.563 E19.58263
G1 X185.748 Y175.931 E19.61288
G1 X186.057 Y175.146 E19.65216
G1 X186.184 Y174.886 E19.66564
G1 X186.504 Y174.321 E19.69587
G1 X186.892 Y173.799 E19.72616
G1 X187.34 Y173.329 E19.75639
M204 S3000
M205 X10 Y10
G1 F2400 E13.75639
;MESH:mg996r_servo_arm_09.05.2022.stl(2)
G0 F3000 X189.797 Y181.387
G0 X191.112 Y181.475
G0 X193.469 Y219.284
G0 X191.569 Y223.872
M204 S1800
M205 X8 Y8
;TYPE:WALL-INNER
G1 F2400 E19.75639
G1 F1500 X191.004 Y223.872 E19.7827
G1 X190.411 Y223.798 E19.81053
G1 X189.874 Y223.659 E19.83636
G1 X189.312 Y223.435 E19.86453
G1 X188.832 Y223.172 E19.89001
G1 X188.357 Y222.826 E19.91738
G1 X187.93 Y222.426 E19.94462
G1 X187.571 Y221.992 E19.97085
G1 X187.255 Y221.493 E19.99835
G1 X187.014 Y220.982 E20.02466
G1 X186.833 Y220.423 E20.05202
G1 X186.726 Y219.86 E20.0787
G1 X186.688 Y219.284 E20.10558
G1 X186.726 Y218.708 E20.13246
G1 X186.833 Y218.145 E20.15915
G1 X187.014 Y217.587 E20.18646
G1 X187.255 Y217.076 E20.21277
G1 X187.571 Y216.577 E20.24027
G1 X187.931 Y216.143 E20.26653
G1 X188.363 Y215.735 E20.2942
G1 X188.824 Y215.401 E20.32071
G1 X189.582 Y214.988 E20.3609
G1 X191.007 Y194.03 E21.33905
G1 X191.286 Y189.922 E21.53077
G1 X191.565 Y194.03 E21.62685
G1 X192.921 Y213.975 E22.55771
G1 X192.994 Y214.977 E22.60449
G1 X193.759 Y215.408 E22.64538
G1 X194.21 Y215.735 E22.67132
G1 X194.642 Y216.143 E22.69899
G1 X195.002 Y216.577 E22.72524
G1 X195.318 Y217.076 E22.75275
G1 X195.559 Y217.587 E22.77906
G1 X195.74 Y218.145 E22.80637
G1 X195.847 Y218.708 E22.83306
G1 X195.884 Y219.284 E22.85993
G1 X195.847 Y219.861 E22.88685
G1 X195.74 Y220.423 E22.91349
G1 X195.559 Y220.982 E22.94085
G1 X195.318 Y221.493 E22.96716
G1 X195.005 Y221.988 E22.99443
G1 X194.635 Y222.433 E23.02138
G1 X194.218 Y222.824 E23.048
G1 X193.747 Y223.167 E23.07513
G1 X193.224 Y223.453 E23.10289
G1 X192.705 Y223.659 E23.12889
G1 X192.166 Y223.798 E23.15481
G1 X191.569 Y223.872 E23.18282
M204 S3000
M205 X10 Y10
G0 F3000 X191.474 Y222.187
M204 S1800
M205 X8 Y8
G1 F1500 X192.206 Y222.044 E23.21755
G1 X192.847 Y221.739 E23.2506
G1 X193.407 Y221.277 E23.28441
G1 X193.837 Y220.686 E23.31844
G1 X194.105 Y220.006 E23.35247
G1 X194.194 Y219.284 E23.38635
G1 X194.105 Y218.561 E23.42027
G1 X193.837 Y217.883 E23.45421
G1 X193.406 Y217.291 E23.48831
G1 X192.842 Y216.825 E23.52238
G1 X192.165 Y216.513 E23.55709
G1 X191.469 Y216.381 E23.59007
G1 X190.739 Y216.428 E23.62414
G1 X190.044 Y216.653 E23.65815
G1 X189.415 Y217.058 E23.69299
G1 X188.932 Y217.576 E23.72597
G1 X188.581 Y218.213 E23.75983
G1 X188.4 Y218.918 E23.79373
G1 X188.4 Y219.65 E23.82781
G1 X188.581 Y220.356 E23.86175
G1 X188.934 Y220.997 E23.89582
G1 X189.448 Y221.538 E23.93057
G1 X190.049 Y221.918 E23.96368
G1 X190.743 Y222.144 E23.99767
G1 X191.474 Y222.187 E24.03176
M204 S3000
M205 X10 Y10
G0 F3000 X191.606 Y224.432
M204 S1800
M205 X8 Y8
G1 F1500 X190.967 Y224.432 E24.06152
G1 X190.31 Y224.35 E24.09235
G1 X189.698 Y224.192 E24.12178
G1 X189.074 Y223.943 E24.15306
G1 X188.527 Y223.643 E24.18211
G1 X188 Y223.259 E24.21248
G1 X187.525 Y222.814 E24.24278
G1 X187.115 Y222.319 E24.27271
G1 X186.763 Y221.764 E24.30332
G1 X186.491 Y221.186 E24.33306
G1 X186.29 Y220.566 E24.36341
G1 X186.169 Y219.929 E24.3936
G1 X186.127 Y219.284 E24.4237
G1 X186.169 Y218.639 E24.4538
G1 X186.29 Y218.005 E24.48385
G1 X186.492 Y217.381 E24.51439
G1 X186.763 Y216.805 E24.54403
G1 X187.115 Y216.25 E24.57464
G1 X187.525 Y215.755 E24.60456
G1 X188.003 Y215.305 E24.63513
G1 X188.527 Y214.925 E24.66527
G1 X189.044 Y214.643 E24.6927
G1 X191.007 Y185.77 E26.04025
G1 X191.286 Y181.661 E26.23202
G1 X191.565 Y185.77 E26.32812
G1 X193.48 Y213.936 E27.64267
G1 X193.531 Y214.637 E27.6754
G1 X194.06 Y214.935 E27.70367
G1 X194.57 Y215.305 E27.73301
G1 X195.048 Y215.755 E27.76358
G1 X195.458 Y216.25 E27.79351
G1 X195.81 Y216.805 E27.82411
G1 X196.081 Y217.381 E27.85375
G1 X196.283 Y218.005 E27.88429
G1 X196.404 Y218.639 E27.91435
G1 X196.445 Y219.284 E27.94444
G1 X196.404 Y219.929 E27.97454
G1 X196.283 Y220.566 E28.00473
G1 X196.082 Y221.186 E28.03508
G1 X195.81 Y221.764 E28.06482
G1 X195.458 Y222.319 E28.09542
G1 X195.044 Y222.818 E28.12562
G1 X194.579 Y223.254 E28.1553
G1 X194.047 Y223.641 E28.18593
G1 X193.464 Y223.96 E28.21688
G1 X192.88 Y224.192 E28.24614
G1 X192.265 Y224.35 E28.2757
G1 X191.606 Y224.432 E28.30663
M204 S3000
M205 X10 Y10
G0 F3000 X191.436 Y221.624
M204 S1800
M205 X8 Y8
G1 F1500 X192.029 Y221.508 E28.33476
G1 X192.544 Y221.263 E28.36132
G1 X192.996 Y220.89 E28.38861
G1 X193.342 Y220.414 E28.41601
G1 X193.558 Y219.867 E28.44339
G1 X193.63 Y219.284 E28.47074
G1 X193.558 Y218.701 E28.4981
