;FLAVOR:Marlin
;TIME:716
;Filament used: 0.622697m
;Layer height: 0.2
;MINX:181.31
;MINY:171.922
;MINZ:0.2
;MAXX:221.438
;MAXY:227.342
;MAXZ:12.4
;Generated with Cura_SteamEngine 4.11.0
M140 S60
M105
M190 S60
M104 S200
M105
M109 S200
M82 ;absolute extrusion mode
M107 ;Start with the fan off
G21 ;Set units to millimeters
G91 ;Change to relative positioning mode for retract filament and nozzle lifting
G1 F200 E-3 ;Retract 3mm filament for a clean start
G92 E0 ;Zero the extruded length
G1 F1000 Z5 ;Lift the nozzle 5mm before homing axes
G90 ;Absolute positioning
M82 ;Set extruder to absolute mode too
G28 X0 Y0 ;First move X/Y to min endstops
G28 Z0 ;Then move Z to min endstops
G1 F1000 Z15 ;After homing lift the nozzle 15mm before start printing

G92 E0
G92 E0
G1 F2400 E-6
;LAYER_COUNT:63
;LAYER:0
M106 S255
M204 S3000
M205 X10 Y10
G1 F600 Z0.275
G0 F3000 X199.768 Y176.124 Z0.275
M204 S1800
M205 X8 Y8
;TYPE:SKIRT
G1 F600 Z0.2
G1 F2400 E0
G1 X200.319 Y175.539 E0.03742
G1 X200.89 Y175.004 E0.07386
G1 X201.51 Y174.492 E0.1113
G1 X202.099 Y174.065 E0.14517
G1 X202.78 Y173.634 E0.1827
G1 X203.459 Y173.262 E0.21875
G1 X204.181 Y172.923 E0.25589
G1 X204.864 Y172.653 E0.29009
G1 X205.626 Y172.406 E0.32739
G1 X206.343 Y172.222 E0.36186
G1 X207.139 Y172.071 E0.39958
G1 X207.93 Y171.972 E0.4367
G1 X208.751 Y171.922 E0.475
G1 X209.477 Y171.925 E0.50881
G1 X210.261 Y171.976 E0.54539
G1 X211.006 Y172.071 E0.58036
G1 X211.801 Y172.224 E0.61806
G1 X212.523 Y172.411 E0.65279
G1 X213.279 Y172.658 E0.68982
G1 X213.982 Y172.937 E0.72504
G1 X214.791 Y173.313 E0.76658
G1 X215.231 Y173.558 E0.79003
G1 X215.597 Y173.777 E0.80989
G1 X216.081 Y174.097 E0.83691
G1 X216.638 Y174.503 E0.86901
G1 X217.324 Y175.063 E0.91024
G1 X217.71 Y175.428 E0.93498
G1 X218.006 Y175.728 E0.9546
G1 X218.394 Y176.159 E0.98161
G1 X218.837 Y176.698 E1.01409
G1 X218.991 Y176.893 E1.02566
G1 X219.33 Y177.375 E1.0531
G1 X219.678 Y177.923 E1.08333
G1 X220.141 Y178.749 E1.12742
G1 X220.358 Y179.212 E1.15123
G1 X220.523 Y179.598 E1.17078
G1 X220.725 Y180.138 E1.19763
G1 X220.934 Y180.782 E1.22915
G1 X221.019 Y181.063 E1.24282
G1 X221.152 Y181.623 E1.26962
G1 X221.29 Y182.347 E1.30394
G1 X221.39 Y183.145 E1.34139
G1 X221.438 Y183.911 E1.37713
G1 X221.438 Y184.726 E1.41508
G1 X221.39 Y185.464 E1.44952
G1 X221.289 Y186.253 E1.48656
G1 X221.145 Y187.005 E1.52221
G1 X220.941 Y187.794 E1.56016
G1 X220.712 Y188.493 E1.59441
G1 X220.423 Y189.22 E1.63083
G1 X220.1 Y189.908 E1.66623
G1 X219.709 Y190.62 E1.70405
G1 X219.31 Y191.248 E1.7387
G1 X218.831 Y191.905 E1.77656
G1 X218.321 Y192.519 E1.81372
G1 X217.837 Y193.04 E1.84683
G1 X216.034 Y194.777 E1.96341
G1 X214.193 Y196.654 E2.08584
G1 X212.373 Y198.618 E2.21052
G1 X210.647 Y200.59 E2.33255
G1 X208.952 Y202.64 E2.45641
G1 X207.309 Y204.745 E2.58075
G1 X205.762 Y206.848 E2.70231
G1 X204.228 Y209.062 E2.82773
G1 X194.731 Y223.2 E3.6208
G1 X194.309 Y223.809 E3.6553
G1 X193.863 Y224.398 E3.6897
G1 X193.442 Y224.904 E3.72035
G1 X192.887 Y225.485 E3.75776
G1 X192.797 Y225.568 E3.76346
G1 X192.245 Y226.023 E3.79677
G1 X191.645 Y226.413 E3.8301
G1 X191.006 Y226.734 E3.86339
G1 X190.459 Y226.942 E3.89064
G1 X190.216 Y227.022 E3.90256
G1 X189.526 Y227.207 E3.93582
G1 X188.818 Y227.315 E3.96917
G1 X188.104 Y227.342 E4.00244
G1 X187.056 Y227.237 E4.05148
G1 X186.828 Y227.195 E4.06228
G1 X186.132 Y227.026 E4.09563
G1 X185.461 Y226.781 E4.12889
G1 X184.82 Y226.463 E4.16221
G1 X184.219 Y226.074 E4.19555
G1 X183.713 Y225.665 E4.22584
G1 X183.499 Y225.473 E4.23923
G1 X182.994 Y224.966 E4.27255
G1 X182.549 Y224.406 E4.30586
G1 X182.169 Y223.8 E4.33916
G1 X181.859 Y223.156 E4.37244
G1 X181.647 Y222.562 E4.40181
G1 X181.575 Y222.324 E4.41339
G1 X181.407 Y221.629 E4.44668
G1 X181.317 Y220.919 E4.48001
G1 X181.31 Y220.135 E4.51652
G1 X181.315 Y220.04 E4.52095
G1 X181.392 Y219.329 E4.55425
G1 X181.549 Y218.631 E4.58756
G1 X181.688 Y218.198 E4.60874
G1 X181.903 Y217.604 E4.63815
G1 X182.161 Y216.98 E4.66959
G1 X182.587 Y216.072 E4.7163
G1 X189.988 Y200.972 E5.49933
G1 X191.15 Y198.516 E5.62585
G1 X192.209 Y196.102 E5.74859
G1 X193.197 Y193.66 E5.87126
G1 X194.121 Y191.181 E5.99445
G1 X194.974 Y188.678 E6.11758
G1 X195.753 Y186.158 E6.2404
G1 X196.466 Y183.604 E6.36387
G1 X196.756 Y182.422 E6.42054
G1 X197.045 Y181.296 E6.47467
G1 X197.157 Y180.911 E6.49334
G1 X197.418 Y180.107 E6.5327
G1 X197.714 Y179.357 E6.57025
G1 X198.027 Y178.692 E6.60447
G1 X198.416 Y177.986 E6.64201
G1 X198.827 Y177.339 E6.6777
G1 X199.302 Y176.686 E6.7153
G1 X199.768 Y176.124 E6.74929
M204 S3000
M205 X10 Y10
G0 F3000 X200.199 Y176.481
M204 S1800
M205 X8 Y8
G1 F2400 X200.702 Y175.947 E6.78345
G1 X201.273 Y175.412 E6.81989
G1 X201.838 Y174.946 E6.85399
G1 X202.427 Y174.519 E6.88787
G1 X203.049 Y174.125 E6.92215
G1 X203.728 Y173.753 E6.9582
G1 X204.387 Y173.444 E6.99209
G1 X205.07 Y173.174 E7.02629
G1 X205.765 Y172.948 E7.06032
G1 X206.482 Y172.764 E7.09479
G1 X207.209 Y172.626 E7.12925
G1 X208 Y172.527 E7.16637
G1 X208.749 Y172.482 E7.20131
G1 X209.475 Y172.485 E7.23511
G1 X210.19 Y172.532 E7.26848
G1 X210.935 Y172.627 E7.30345
G1 X211.66 Y172.767 E7.33783
G1 X212.382 Y172.954 E7.37256
G1 X213.072 Y173.179 E7.40635
G1 X213.775 Y173.458 E7.44157
G1 X214.524 Y173.805 E7.48001
G1 X215.31 Y174.258 E7.52225
G1 X215.751 Y174.55 E7.54688
G1 X216.308 Y174.956 E7.57898
G1 X216.945 Y175.476 E7.61727
G1 X217.311 Y175.821 E7.64069
G1 X217.607 Y176.121 E7.66031
G1 X217.962 Y176.515 E7.68501
G1 X218.405 Y177.054 E7.71749
G1 X218.548 Y177.235 E7.72823
G1 X218.857 Y177.675 E7.75327
G1 X219.205 Y178.223 E7.7835
G1 X219.637 Y178.993 E7.82461
G1 X220.008 Y179.819 E7.86677
G1 X220.193 Y180.311 E7.89125
G1 X220.402 Y180.955 E7.92277
G1 X220.48 Y181.217 E7.9355
G1 X220.602 Y181.728 E7.95997
G1 X220.74 Y182.452 E7.99429
G1 X220.832 Y183.18 E8.02845
G1 X220.88 Y183.946 E8.06419
G1 X220.879 Y184.69 E8.09884
G1 X220.831 Y185.428 E8.13327
G1 X220.739 Y186.147 E8.16703
G1 X220.595 Y186.899 E8.20268
G1 X220.409 Y187.619 E8.23731
G1 X220.18 Y188.318 E8.27156
G1 X219.916 Y188.982 E8.30483
G1 X219.593 Y189.67 E8.34022
G1 X219.236 Y190.32 E8.37475
G1 X218.837 Y190.948 E8.4094
G1 X218.4 Y191.547 E8.44392
G1 X217.89 Y192.161 E8.48109
G1 X217.449 Y192.637 E8.5113
G1 X215.624 Y194.395 E8.6293
G1 X213.779 Y196.277 E8.75202
G1 X211.971 Y198.227 E8.87584
G1 X210.206 Y200.243 E9.00061
G1 X208.522 Y202.28 E9.12368
G1 X206.877 Y204.388 E9.24818
G1 X205.299 Y206.533 E9.37218
G1 X203.737 Y208.787 E9.49987
G1 X194.22 Y222.955 E10.29462
G1 X193.849 Y223.491 E10.32497
G1 X193.421 Y224.054 E10.3579
G1 X193.014 Y224.543 E10.38753
G1 X192.507 Y225.073 E10.42168
G1 X192.417 Y225.156 E10.42738
G1 X191.889 Y225.589 E10.45918
G1 X191.313 Y225.957 E10.491
G1 X190.699 Y226.256 E10.5228
G1 X190.041 Y226.49 E10.55532
G1 X189.381 Y226.665 E10.58712
G1 X188.705 Y226.762 E10.61892
G1 X188.022 Y226.78 E10.65073
G1 X187.157 Y226.686 E10.69125
G1 X186.929 Y226.644 E10.70204
G1 X186.265 Y226.481 E10.73388
G1 X185.626 Y226.242 E10.76565
G1 X185.018 Y225.93 E10.79747
G1 X184.451 Y225.549 E10.82928
G1 X183.873 Y225.056 E10.86465
G1 X183.392 Y224.571 E10.89646
G1 X182.971 Y224.033 E10.92827
G1 X182.616 Y223.449 E10.96009
G1 X182.331 Y222.828 E10.99191
G1 X182.111 Y222.162 E11.02457
G1 X181.952 Y221.498 E11.05636
G1 X181.871 Y220.819 E11.0882
G1 X181.869 Y220.164 E11.1187
G1 X181.874 Y220.069 E11.12313
G1 X181.95 Y219.39 E11.15494
G1 X182.104 Y218.725 E11.18673
G1 X182.215 Y218.388 E11.20325
G1 X182.43 Y217.794 E11.23267
G1 X182.668 Y217.217 E11.26173
G1 X183.09 Y216.319 E11.30793
G1 X190.482 Y201.237 E12.09003
G1 X191.648 Y198.773 E12.21696
G1 X192.733 Y196.299 E12.34275
G1 X193.726 Y193.845 E12.46602
G1 X194.645 Y191.38 E12.58852
G1 X195.508 Y188.847 E12.71312
G1 X196.297 Y186.297 E12.83741
G1 X197.003 Y183.766 E12.95977
G1 X197.298 Y182.561 E13.01753
G1 X197.587 Y181.435 E13.07167
G1 X197.689 Y181.084 E13.08869
G1 X197.95 Y180.28 E13.12805
G1 X198.221 Y179.596 E13.1623
G1 X198.534 Y178.931 E13.19653
G1 X198.889 Y178.287 E13.23077
G1 X199.3 Y177.64 E13.26646
G1 X199.733 Y177.043 E13.3008
G1 X200.199 Y176.481 E13.3348
M204 S3000
M205 X10 Y10
G0 F3000 X200.631 Y176.839
M204 S1800
M205 X8 Y8
G1 F2400 X201.085 Y176.356 E13.36566
G1 X201.656 Y175.821 E13.4021
G1 X202.167 Y175.399 E13.43296
G1 X202.756 Y174.972 E13.46683
G1 X203.318 Y174.616 E13.49781
G1 X203.997 Y174.244 E13.53386
G1 X204.593 Y173.965 E13.5645
G1 X205.276 Y173.695 E13.5987
G1 X205.905 Y173.491 E13.62949
G1 X206.622 Y173.307 E13.66396
G1 X207.278 Y173.182 E13.69506
G1 X208.069 Y173.083 E13.73218
G1 X208.747 Y173.042 E13.76381
G1 X209.473 Y173.045 E13.79761
G1 X210.119 Y173.087 E13.82776
G1 X210.864 Y173.182 E13.86273
G1 X211.52 Y173.309 E13.89384
G1 X212.242 Y173.496 E13.92857
G1 X212.866 Y173.699 E13.95912
G1 X213.569 Y173.978 E13.99434
G1 X214.258 Y174.298 E14.02972
G1 X215.022 Y174.738 E14.07077
G1 X215.421 Y175.002 E14.09305
G1 X215.978 Y175.408 E14.12514
G1 X216.566 Y175.888 E14.16049
G1 X217.208 Y176.515 E14.20227
G1 X217.529 Y176.87 E14.22456
G1 X217.972 Y177.409 E14.25705
G1 X218.384 Y177.976 E14.28968
G1 X218.732 Y178.524 E14.31991
G1 X219.133 Y179.237 E14.358
G1 X219.493 Y180.039 E14.39893
G1 X219.66 Y180.484 E14.42107
G1 X219.869 Y181.128 E14.45259
G1 X220.052 Y181.832 E14.48646
G1 X220.19 Y182.556 E14.52078
G1 X220.273 Y183.215 E14.55171
G1 X220.321 Y183.981 E14.58745
G1 X220.32 Y184.654 E14.61879
G1 X220.272 Y185.392 E14.65322
G1 X220.189 Y186.042 E14.68374
G1 X220.045 Y186.794 E14.71939
G1 X219.877 Y187.445 E14.7507
G1 X219.648 Y188.144 E14.78495
G1 X219.409 Y188.744 E14.81502
G1 X219.086 Y189.432 E14.85041
G1 X218.764 Y190.019 E14.88159
G1 X218.365 Y190.647 E14.91623
G1 X217.97 Y191.19 E14.9475
G1 X217.46 Y191.804 E14.98466
G1 X217.061 Y192.233 E15.01195
G1 X215.25 Y193.977 E15.12902
G1 X213.346 Y195.919 E15.25566
G1 X211.569 Y197.837 E15.37741
G1 X209.784 Y199.875 E15.50356
G1 X208.08 Y201.936 E15.62808
G1 X206.428 Y204.053 E15.75312
G1 X204.843 Y206.208 E15.87768
G1 X203.277 Y208.468 E16.00571
G1 X193.759 Y222.636 E16.80048
G1 X193.388 Y223.172 E16.83083
G1 X192.98 Y223.709 E16.86224
G1 X192.586 Y224.182 E16.8909
G1 X192.128 Y224.661 E16.92176
G1 X192.038 Y224.744 E16.92746
G1 X191.534 Y225.155 E16.95774
G1 X190.984 Y225.5 E16.98798
G1 X190.109 Y225.878 E17.03236
G1 X189.866 Y225.958 E17.04427
G1 X189.238 Y226.123 E17.07451
G1 X188.594 Y226.209 E17.10476
G1 X187.944 Y226.216 E17.13503
G1 X187.258 Y226.136 E17.16719
G1 X187.03 Y226.094 E17.17798
G1 X186.4 Y225.937 E17.20822
G1 X185.794 Y225.704 E17.23845
G1 X185.22 Y225.398 E17.26874
G1 X184.461 Y224.831 E17.31285
G1 X184.247 Y224.639 E17.32624
G1 X183.791 Y224.176 E17.3565
G1 X183.395 Y223.661 E17.38675
G1 X183.066 Y223.101 E17.41699
G1 X182.719 Y222.238 E17.4603
G1 X182.647 Y222 E17.47188
G1 X182.498 Y221.368 E17.50212
G1 X182.427 Y220.722 E17.53238
G1 X182.428 Y220.193 E17.55701
G1 X182.433 Y220.098 E17.56144
G1 X182.507 Y219.453 E17.59167
G1 X182.741 Y218.579 E17.6338
G1 X182.956 Y217.985 E17.66322
G1 X183.175 Y217.455 E17.68992
G1 X183.593 Y216.565 E17.73571
G1 X191.014 Y201.425 E18.52082
G1 X192.153 Y199.016 E18.6449
G1 X193.245 Y196.526 E18.77151
G1 X194.238 Y194.074 E18.89469
G1 X195.179 Y191.547 E19.02025
G1 X196.042 Y189.016 E19.14477
G1 X196.83 Y186.468 E19.26896
G1 X197.549 Y183.892 E19.39349
G1 X197.841 Y182.7 E19.45064
G1 X198.13 Y181.574 E19.50477
G1 X198.222 Y181.257 E19.52014
G1 X198.483 Y180.453 E19.5595
G1 X198.728 Y179.834 E19.5905
G1 X199.041 Y179.169 E19.62472
G1 X199.361 Y178.587 E19.65565
G1 X199.772 Y177.94 E19.69134
G1 X200.165 Y177.401 E19.7224
G1 X200.631 Y176.839 E19.75639
M204 S3000
M205 X10 Y10
G1 F2400 E13.75639
;MESH:Part_19_ServoArm_09.05.2022.stl
G0 F3000 X202.576 Y185.82
G0 X203.104 Y187.255
G0 X204.595 Y187.208
G0 X194.38 Y209.735
M204 S1800
M205 X8 Y8
;TYPE:WALL-INNER
G1 F2400 E19.75639
G1 F1500 X196.192 Y206.037 E19.94815
G1 X205.441 Y187.17 E20.92656
G1 X204.992 Y186.429 E20.9669
G1 X204.756 Y185.898 E20.99396
G1 X204.589 Y185.346 E21.02082
G1 X204.495 Y184.79 E21.04707
G1 X204.47 Y184.191 E21.07499
G1 X204.517 Y183.631 E21.10116
G1 X204.639 Y183.056 E21.12853
G1 X204.832 Y182.503 E21.1558
G1 X205.083 Y181.999 E21.18202
G1 X205.401 Y181.521 E21.20875
G1 X205.783 Y181.078 E21.23599
G1 X206.203 Y180.701 E21.26227
G1 X206.689 Y180.363 E21.28983
G1 X207.194 Y180.099 E21.31637
G1 X207.735 Y179.898 E21.34324
G1 X208.295 Y179.766 E21.37003
G1 X208.888 Y179.705 E21.39779
G1 X209.454 Y179.717 E21.42415
G1 X210.023 Y179.801 E21.45093
G1 X210.578 Y179.957 E21.47778
G1 X211.106 Y180.178 E21.50443
G1 X211.627 Y180.481 E21.5325
G1 X212.062 Y180.811 E21.55792
G1 X212.49 Y181.232 E21.58588
G1 X212.839 Y181.673 E21.61206
G1 X213.14 Y182.169 E21.63908
G1 X213.375 Y182.699 E21.66607
G1 X213.542 Y183.25 E21.69288
G1 X213.636 Y183.806 E21.71914
G1 X213.661 Y184.405 E21.74706
G1 X213.614 Y184.963 E21.77313
G1 X213.491 Y185.543 E21.80074
G1 X213.306 Y186.074 E21.82692
G1 X213.041 Y186.607 E21.85464
G1 X212.733 Y187.071 E21.88057
G1 X212.348 Y187.516 E21.90797
G1 X211.924 Y187.899 E21.93458
G1 X211.442 Y188.233 E21.96188
G1 X210.937 Y188.497 E21.98842
G1 X210.398 Y188.698 E22.0152
G1 X209.826 Y188.833 E22.04257
G1 X209.26 Y188.891 E22.06906
G1 X208.393 Y188.874 E22.10944
G1 X196.676 Y206.316 E23.08786
G1 X194.38 Y209.735 E23.18396
M204 S3000
M205 X10 Y10
G0 F3000 X208.827 Y187.199
M204 S1800
M205 X8 Y8
G1 F1500 X209.574 Y187.162 E23.21879
G1 X210.25 Y186.954 E23.25172
G1 X210.871 Y186.58 E23.28548
G1 X211.384 Y186.056 E23.31963
G1 X211.746 Y185.426 E23.35346
G1 X211.943 Y184.724 E23.38741
G1 X211.958 Y183.994 E23.42141
G1 X211.792 Y183.279 E23.45559
G1 X211.441 Y182.621 E23.49031
G1 X210.963 Y182.093 E23.52348
G1 X210.339 Y181.684 E23.55822
G1 X209.668 Y181.451 E23.59129
G1 X208.922 Y181.392 E23.62614
G1 X208.223 Y181.514 E23.65918
G1 X207.556 Y181.809 E23.69314
G1 X206.988 Y182.264 E23.72703
G1 X206.545 Y182.843 E23.76098
G1 X206.263 Y183.516 E23.79495
G1 X206.157 Y184.237 E23.82889
G1 X206.234 Y184.963 E23.86288
G1 X206.488 Y185.648 E23.8969
G1 X206.902 Y186.243 E23.93065
G1 X207.457 Y186.723 E23.96482
G1 X208.11 Y187.046 E23.99874
G1 X208.827 Y187.199 E24.03288
M204 S3000
M205 X10 Y10
G0 F3000 X190.251 Y216.886
M204 S1800
M205 X8 Y8
G1 F1500 X192.063 Y213.188 E24.22464
G1 X204.803 Y187.198 E25.57242
G1 X204.494 Y186.688 E25.60018
G1 X204.23 Y186.094 E25.63045
G1 X204.043 Y185.476 E25.66052
G1 X203.936 Y184.843 E25.69041
G1 X203.909 Y184.184 E25.72112
G1 X203.962 Y183.547 E25.75088
G1 X204.098 Y182.906 E25.7814
G1 X204.312 Y182.292 E25.81167
G1 X204.597 Y181.72 E25.84143
G1 X204.953 Y181.184 E25.87139
G1 X205.382 Y180.686 E25.902
G1 X205.857 Y180.259 E25.93174
G1 X206.4 Y179.882 E25.96252
G1 X206.966 Y179.586 E25.99226
G1 X207.571 Y179.361 E26.02232
G1 X208.203 Y179.213 E26.05255
G1 X208.866 Y179.144 E26.08358
G1 X209.5 Y179.158 E26.11311
G1 X210.138 Y179.252 E26.14314
G1 X210.763 Y179.427 E26.17336
G1 X211.355 Y179.676 E26.20327
G1 X211.937 Y180.014 E26.23461
G1 X212.432 Y180.389 E26.26352
G1 X212.908 Y180.858 E26.29464
G1 X213.301 Y181.354 E26.32411
G1 X213.636 Y181.906 E26.35417
G1 X213.901 Y182.503 E26.38459
G1 X214.088 Y183.12 E26.41461
G1 X214.195 Y183.753 E26.4445
G1 X214.222 Y184.413 E26.47526
G1 X214.169 Y185.048 E26.50493
G1 X214.032 Y185.692 E26.53559
G1 X213.823 Y186.293 E26.56522
G1 X213.53 Y186.883 E26.59589
G1 X213.178 Y187.413 E26.62552
G1 X212.749 Y187.909 E26.65605
G1 X212.274 Y188.337 E26.68583
G1 X211.731 Y188.714 E26.71661
G1 X211.165 Y189.01 E26.74635
G1 X210.56 Y189.235 E26.77641
G1 X209.92 Y189.386 E26.80703
G1 X209.283 Y189.452 E26.83685
G1 X208.687 Y189.44 E26.8646
G1 X192.547 Y213.467 E28.21239
G1 X190.251 Y216.886 E28.3085
M204 S3000
M205 X10 Y10
G0 F3000 X208.872 Y186.636
M204 S1800
M205 X8 Y8
G1 F1500 X209.476 Y186.606 E28.33666
G1 X210.02 Y186.439 E28.36315
G1 X210.521 Y186.137 E28.39039
G1 X210.934 Y185.715 E28.41789
G1 X211.226 Y185.207 E28.44517
G1 X211.385 Y184.641 E28.47255
G1 X211.397 Y184.053 E28.49993
G1 X211.263 Y183.478 E28.52742
G1 X210.979 Y182.945 E28.55555
G1 X210.596 Y182.522 E28.58212
G1 X210.09 Y182.19 E28.6103
