;FLAVOR:Marlin
;TIME:818
;Filament used: 0.782489m
;Layer height: 0.2
;MINX:187.344
;MINY:169.472
;MINZ:0.2
;MAXX:212.667
;MAXY:230.52
;MAXZ:12.4
;Generated with Cura_SteamEngine 4.11.0
M140 S60
M105
M190 S60
M104 S200
M105
M109 S200
M82 ;absolute extrusion mode
M107 ;Start with the fan off
G21 ;Set units to millimeters
G91 ;Change to relative positioning mode for retract filament and nozzle lifting
G1 F200 E-3 ;Retract 3mm filament for a clean start
G92 E0 ;Zero the extruded length
G1 F1000 Z5 ;Lift the nozzle 5mm before homing axes
G90 ;Absolute positioning
M82 ;Set extruder to absolute mode too
G28 X0 Y0 ;First move X/Y to min endstops
G28 Z0 ;Then move Z to min endstops
G1 F1000 Z15 ;After homing lift the nozzle 15mm before start printing

G92 E0
G92 E0
G1 F2400 E-6
;LAYER_COUNT:63
;LAYER:0
M106 S255
M204 S3000
M205 X10 Y10
G1 F600 Z0.275
G0 F3000 X190.818 Y173.25 Z0.275
M204 S1800
M205 X8 Y8
;TYPE:SKIRT
G1 F600 Z0.2
G1 F2400 E0
G1 X191.34 Y172.741 E0.03395
G1 X191.94 Y172.224 E0.07083
G1 X192.541 Y171.768 E0.10596
G1 X193.219 Y171.319 E0.14382
G1 X193.899 Y170.928 E0.18035
G1 X194.615 Y170.573 E0.21756
G1 X195.264 Y170.301 E0.25033
G1 X196.015 Y170.04 E0.28735
G1 X196.741 Y169.837 E0.32245
G1 X196.988 Y169.773 E0.33433
G1 X197.58 Y169.659 E0.36241
G1 X198.309 Y169.553 E0.39671
G1 X199.1 Y169.487 E0.43367
G1 X199.841 Y169.472 E0.46818
G1 X200.645 Y169.507 E0.50565
G1 X201.41 Y169.588 E0.54147
G1 X202.208 Y169.724 E0.57917
G1 X202.906 Y169.889 E0.61256
G1 X203.281 Y169.987 E0.63061
G1 X203.774 Y170.145 E0.65472
G1 X204.261 Y170.329 E0.67896
G1 X204.637 Y170.485 E0.69791
G1 X205.159 Y170.729 E0.72475
G1 X205.78 Y171.055 E0.7574
G1 X206.066 Y171.215 E0.77266
G1 X206.5 Y171.492 E0.79664
G1 X207.094 Y171.906 E0.83035
G1 X207.72 Y172.403 E0.86757
G1 X208.288 Y172.915 E0.90318
G1 X208.849 Y173.489 E0.94055
G1 X209.307 Y174.02 E0.9732
G1 X209.48 Y174.228 E0.9858
G1 X209.827 Y174.703 E1.01319
G1 X210.249 Y175.339 E1.04873
G1 X210.65 Y176.034 E1.0861
G1 X210.951 Y176.641 E1.11765
G1 X211.093 Y176.947 E1.13335
G1 X211.284 Y177.431 E1.15758
G1 X211.533 Y178.146 E1.19284
G1 X211.75 Y178.924 E1.23045
G1 X211.906 Y179.66 E1.26548
G1 X212.023 Y180.451 E1.30271
G1 X212.084 Y181.177 E1.33664
G1 X212.108 Y181.695 E1.36078
G1 X212.107 Y182.105 E1.37987
G1 X212.08 Y182.876 E1.4158
G1 X211.992 Y184.943 E1.51213
G1 X211.954 Y187.582 E1.63503
G1 X211.992 Y190.23 E1.75834
G1 X212.103 Y192.868 E1.88129
G1 X212.288 Y195.499 E2.0041
G1 X212.556 Y198.187 E2.12989
G1 X212.637 Y198.909 E2.16372
G1 X212.667 Y199.624 E2.19704
G1 X212.618 Y200.338 E2.23036
G1 X212.528 Y200.873 E2.25563
G1 X212.363 Y201.646 E2.29243
G1 X207.256 Y223.951 E3.35792
G1 X207.099 Y224.596 E3.38883
G1 X206.861 Y225.414 E3.4285
G1 X206.701 Y225.892 E3.45197
G1 X206.431 Y226.554 E3.48526
G1 X205.997 Y227.327 E3.52654
G1 X205.884 Y227.499 E3.53613
G1 X205.458 Y228.074 E3.56945
G1 X204.971 Y228.598 E3.60276
G1 X204.429 Y229.064 E3.63604
G1 X203.838 Y229.467 E3.66935
G1 X203.381 Y229.718 E3.69363
G1 X203.105 Y229.855 E3.70798
G1 X202.447 Y230.136 E3.74129
G1 X201.762 Y230.343 E3.77461
G1 X201.059 Y230.472 E3.80789
G1 X200.54 Y230.516 E3.83215
G1 X200.449 Y230.52 E3.83639
G1 X199.679 Y230.507 E3.87225
G1 X199.17 Y230.468 E3.89602
G1 X198.461 Y230.374 E3.92932
G1 X197.521 Y230.119 E3.97467
G1 X197.332 Y230.052 E3.98401
G1 X196.672 Y229.776 E4.01732
G1 X196.047 Y229.428 E4.05063
G1 X195.465 Y229.012 E4.08394
G1 X194.799 Y228.395 E4.12622
G1 X194.622 Y228.206 E4.13828
G1 X194.163 Y227.657 E4.1716
G1 X193.768 Y227.061 E4.20489
G1 X193.442 Y226.424 E4.23821
G1 X193.218 Y225.846 E4.26708
G1 X193.153 Y225.65 E4.27669
G1 X192.932 Y224.785 E4.31826
G1 X192.786 Y223.84 E4.36279
G1 X192.747 Y223.48 E4.37965
G1 X192.688 Y222.743 E4.41408
G1 X191.535 Y205.78 E5.20577
G1 X191.318 Y203.151 E5.3286
G1 X191.028 Y200.533 E5.45125
G1 X190.657 Y197.874 E5.57627
G1 X190.22 Y195.278 E5.69885
G1 X189.708 Y192.687 E5.82183
G1 X189.117 Y190.088 E5.94594
G1 X188.463 Y187.544 E6.06825
G1 X188.085 Y186.242 E6.13138
G1 X187.801 Y185.221 E6.18073
G1 X187.708 Y184.841 E6.19894
G1 X187.541 Y184.058 E6.23622
G1 X187.421 Y183.24 E6.27472
G1 X187.359 Y182.475 E6.31046
G1 X187.344 Y181.682 E6.34739
G1 X187.376 Y180.942 E6.38188
G1 X187.459 Y180.155 E6.41873
G1 X187.583 Y179.419 E6.45348
G1 X187.77 Y178.623 E6.49156
G1 X187.991 Y177.895 E6.52698
G1 X188.272 Y177.143 E6.56436
G1 X188.579 Y176.456 E6.5994
G1 X188.957 Y175.736 E6.63727
G1 X189.341 Y175.106 E6.67162
G1 X189.792 Y174.459 E6.70835
G1 X190.272 Y173.854 E6.74431
G1 X190.818 Y173.25 E6.78222
M204 S3000
M205 X10 Y10
G0 F3000 X191.209 Y173.651
M204 S1800
M205 X8 Y8
G1 F2400 X191.731 Y173.142 E6.81617
G1 X192.278 Y172.671 E6.84978
G1 X192.879 Y172.215 E6.88491
G1 X193.498 Y171.804 E6.91951
G1 X194.178 Y171.413 E6.95603
G1 X194.832 Y171.09 E6.99
G1 X195.481 Y170.818 E7.02277
G1 X196.165 Y170.58 E7.05649
G1 X196.891 Y170.377 E7.09159
G1 X197.121 Y170.317 E7.10266
G1 X197.661 Y170.213 E7.12827
G1 X198.39 Y170.107 E7.16257
G1 X199.112 Y170.047 E7.1963
G1 X199.853 Y170.032 E7.23081
G1 X200.586 Y170.063 E7.26498
G1 X201.351 Y170.144 E7.3008
G1 X202.079 Y170.269 E7.33519
G1 X202.777 Y170.434 E7.36859
G1 X203.583 Y170.671 E7.40771
G1 X204.422 Y171.002 E7.44971
G1 X204.898 Y171.225 E7.47418
G1 X205.519 Y171.551 E7.50684
G1 X206.18 Y171.952 E7.54284
G1 X206.774 Y172.366 E7.57656
G1 X207.345 Y172.819 E7.6105
G1 X207.913 Y173.331 E7.6461
G1 X208.425 Y173.855 E7.68022
G1 X208.883 Y174.386 E7.71287
G1 X209.043 Y174.579 E7.72454
G1 X209.36 Y175.012 E7.74953
G1 X209.782 Y175.648 E7.78507
G1 X210.148 Y176.283 E7.8192
G1 X210.449 Y176.89 E7.85075
G1 X210.755 Y177.615 E7.88739
G1 X211.004 Y178.33 E7.92265
G1 X211.202 Y179.04 E7.95697
G1 X211.358 Y179.776 E7.992
G1 X211.464 Y180.498 E8.02598
G1 X211.525 Y181.224 E8.05991
G1 X211.547 Y182.086 E8.10006
G1 X211.521 Y182.853 E8.13579
G1 X211.431 Y184.947 E8.23339
G1 X211.394 Y187.583 E8.35614
G1 X211.432 Y190.225 E8.47918
G1 X211.544 Y192.898 E8.60375
G1 X211.734 Y195.59 E8.72942
G1 X211.996 Y198.223 E8.85262
G1 X212.055 Y198.723 E8.87607
G1 X212.079 Y198.965 E8.88739
G1 X212.107 Y199.647 E8.91918
G1 X212.055 Y200.329 E8.95102
G1 X211.98 Y200.756 E8.97121
G1 X211.817 Y201.521 E9.00763
G1 X206.712 Y223.818 E10.07274
G1 X206.555 Y224.463 E10.10365
G1 X206.325 Y225.25 E10.14183
G1 X206.171 Y225.71 E10.16442
G1 X205.912 Y226.342 E10.19622
G1 X205.529 Y227.02 E10.23248
G1 X205.416 Y227.192 E10.24206
G1 X205.008 Y227.74 E10.27388
G1 X204.539 Y228.236 E10.30566
G1 X204.015 Y228.675 E10.33749
G1 X203.443 Y229.049 E10.36932
G1 X202.856 Y229.353 E10.4001
G1 X202.227 Y229.62 E10.43192
G1 X201.571 Y229.813 E10.46376
G1 X200.898 Y229.927 E10.49554
G1 X200.424 Y229.96 E10.51767
G1 X199.722 Y229.949 E10.55036
G1 X199.213 Y229.91 E10.57413
G1 X198.536 Y229.818 E10.60594
G1 X197.708 Y229.591 E10.64592
G1 X197.519 Y229.524 E10.65526
G1 X196.889 Y229.259 E10.68708
G1 X196.295 Y228.922 E10.71888
G1 X195.744 Y228.517 E10.75072
G1 X195.207 Y228.012 E10.78505
G1 X195.03 Y227.823 E10.79711
G1 X194.593 Y227.298 E10.82891
G1 X194.221 Y226.725 E10.86072
G1 X193.917 Y226.113 E10.89254
G1 X193.685 Y225.473 E10.92424
G1 X193.483 Y224.685 E10.96212
G1 X193.341 Y223.764 E11.00551
G1 X193.305 Y223.435 E11.02092
G1 X193.246 Y222.705 E11.05503
G1 X192.093 Y205.742 E11.84672
G1 X191.877 Y203.113 E11.96955
G1 X191.58 Y200.428 E12.09534
G1 X191.215 Y197.812 E12.21833
G1 X190.766 Y195.152 E12.34394
G1 X190.261 Y192.591 E12.46549
G1 X189.663 Y189.961 E12.59108
G1 X188.997 Y187.375 E12.71542
G1 X188.625 Y186.092 E12.77762
G1 X188.341 Y185.071 E12.82697
G1 X188.255 Y184.724 E12.84362
G1 X188.088 Y183.941 E12.8809
G1 X187.979 Y183.195 E12.916
G1 X187.917 Y182.43 E12.95174
G1 X187.903 Y181.706 E12.98546
G1 X187.935 Y180.966 E13.01995
G1 X188.011 Y180.248 E13.05357
G1 X188.135 Y179.512 E13.08832
G1 X188.306 Y178.786 E13.12305
G1 X188.527 Y178.058 E13.15848
G1 X188.783 Y177.371 E13.19262
G1 X189.09 Y176.684 E13.22766
G1 X189.435 Y176.027 E13.26221
G1 X189.819 Y175.397 E13.29657
G1 X190.231 Y174.807 E13.33008
G1 X190.711 Y174.202 E13.36604
G1 X191.209 Y173.651 E13.40062
M204 S3000
M205 X10 Y10
G0 F3000 X191.6 Y174.052
M204 S1800
M205 X8 Y8
G1 F2400 X192.122 Y173.543 E13.43457
G1 X192.617 Y173.117 E13.46498
G1 X193.218 Y172.661 E13.50011
G1 X193.777 Y172.29 E13.53135
G1 X194.457 Y171.899 E13.56787
G1 X195.048 Y171.606 E13.59859
G1 X195.697 Y171.334 E13.63136
G1 X196.316 Y171.119 E13.66187
G1 X197.042 Y170.916 E13.69697
G1 X197.741 Y170.767 E13.73025
G1 X198.47 Y170.661 E13.76455
G1 X199.123 Y170.607 E13.79506
G1 X199.864 Y170.592 E13.82957
G1 X200.527 Y170.62 E13.86047
G1 X201.292 Y170.701 E13.89629
G1 X201.951 Y170.814 E13.92743
G1 X202.649 Y170.979 E13.96082
G1 X203.391 Y171.197 E13.99684
G1 X204.207 Y171.519 E14.03768
G1 X204.638 Y171.721 E14.05985
G1 X205.259 Y172.047 E14.09251
G1 X205.86 Y172.411 E14.12522
G1 X206.454 Y172.825 E14.15894
G1 X206.97 Y173.235 E14.18963
G1 X207.538 Y173.747 E14.22523
G1 X208.001 Y174.22 E14.25605
G1 X208.459 Y174.751 E14.28871
G1 X208.894 Y175.322 E14.32213
G1 X209.316 Y175.958 E14.35767
G1 X209.646 Y176.531 E14.38846
G1 X209.947 Y177.138 E14.42001
G1 X210.226 Y177.8 E14.45346
G1 X210.475 Y178.515 E14.48872
G1 X210.654 Y179.156 E14.51971
G1 X210.81 Y179.892 E14.55474
G1 X210.906 Y180.545 E14.58547
G1 X210.967 Y181.271 E14.6194
G1 X210.988 Y182.066 E14.65643
G1 X210.961 Y182.829 E14.69198
G1 X210.872 Y184.915 E14.7892
G1 X210.834 Y187.583 E14.91345
G1 X210.872 Y190.257 E15.03797
G1 X210.984 Y192.924 E15.16227
G1 X211.174 Y195.615 E15.28788
G1 X211.442 Y198.304 E15.41371
G1 X211.522 Y199.02 E15.44726
G1 X211.546 Y199.669 E15.4775
G1 X211.491 Y200.316 E15.50774
G1 X211.432 Y200.639 E15.52303
G1 X211.271 Y201.396 E15.55907
G1 X206.168 Y223.686 E16.62383
G1 X206.011 Y224.331 E16.65474
G1 X205.79 Y225.087 E16.69142
G1 X205.642 Y225.528 E16.71308
G1 X205.393 Y226.128 E16.74333
G1 X205.061 Y226.712 E16.77461
G1 X204.948 Y226.884 E16.78419
G1 X204.558 Y227.404 E16.81446
G1 X204.108 Y227.872 E16.84469
G1 X203.604 Y228.282 E16.87494
G1 X202.883 Y228.714 E16.91408
G1 X202.607 Y228.851 E16.92843
G1 X202.008 Y229.104 E16.95871
G1 X201.383 Y229.281 E16.98895
G1 X200.491 Y229.397 E17.03084
G1 X200.4 Y229.401 E17.03508
G1 X199.765 Y229.391 E17.06465
G1 X199.256 Y229.352 E17.08842
G1 X198.612 Y229.262 E17.1187
G1 X197.895 Y229.064 E17.15334
G1 X197.706 Y228.997 E17.16268
G1 X197.108 Y228.742 E17.19295
G1 X196.546 Y228.416 E17.2232
G1 X196.028 Y228.024 E17.25345
G1 X195.616 Y227.629 E17.28003
G1 X195.439 Y227.44 E17.29208
G1 X195.025 Y226.94 E17.32231
G1 X194.676 Y226.392 E17.35256
G1 X194.396 Y225.806 E17.3828
G1 X194.216 Y225.297 E17.40794
G1 X194.034 Y224.584 E17.44221
G1 X193.896 Y223.687 E17.48447
G1 X193.863 Y223.39 E17.49838
G1 X193.805 Y222.667 E17.53216
G1 X192.652 Y205.704 E18.32385
G1 X192.433 Y203.044 E18.44813
G1 X192.136 Y200.359 E18.57392
G1 X191.771 Y197.746 E18.69677
G1 X191.318 Y195.06 E18.82361
G1 X190.805 Y192.462 E18.94692
G1 X190.202 Y189.808 E19.07365
G1 X189.549 Y187.269 E19.19572
G1 X189.164 Y185.942 E19.26006
G1 X188.88 Y184.921 E19.30941
G1 X188.803 Y184.607 E19.32446
G1 X188.636 Y183.824 E19.36174
G1 X188.537 Y183.15 E19.39346
G1 X188.475 Y182.385 E19.4292
G1 X188.463 Y181.73 E19.4597
G1 X188.495 Y180.99 E19.49419
G1 X188.563 Y180.341 E19.52458
G1 X188.687 Y179.605 E19.55933
G1 X188.842 Y178.948 E19.59077
G1 X189.063 Y178.22 E19.62619
G1 X189.294 Y177.6 E19.657
G1 X189.601 Y176.913 E19.69204
G1 X189.913 Y176.319 E19.72328
G1 X190.297 Y175.689 E19.75764
G1 X190.67 Y175.155 E19.78797
G1 X191.15 Y174.55 E19.82393
G1 X191.6 Y174.052 E19.85518
M204 S3000
M205 X10 Y10
G1 F2400 E13.85518
;MESH:Part_19_Servo_Arm_13.05.2022.stl
G0 F3000 X193.265 Y183.508
G0 X193.524 Y184.305
G0 X193.88 Y185.063
G0 X194.328 Y185.769
G0 X194.863 Y186.415
G0 X196.036 Y187.392
G0 X197.547 Y187.198
G0 X200.283 Y219.464
M204 S1800
M205 X8 Y8
;TYPE:WALL-INNER
G1 F2400 E19.85518
G1 F1500 X200.155 Y217.571 E19.94353
G1 X198.087 Y187.16 E21.36286
G1 X198.014 Y186.156 E21.40974
G1 X197.259 Y185.732 E21.45006
G1 X196.792 Y185.393 E21.47693
G1 X196.365 Y184.993 E21.50417
G1 X196.006 Y184.559 E21.5304
G1 X195.69 Y184.06 E21.5579
G1 X195.449 Y183.549 E21.58421
G1 X195.268 Y182.99 E21.61157
G1 X195.161 Y182.428 E21.63821
G1 X195.124 Y181.851 E21.66513
G1 X195.161 Y181.274 E21.69206
G1 X195.268 Y180.712 E21.71869
G1 X195.448 Y180.157 E21.74586
G1 X195.691 Y179.64 E21.77246
G1 X196.006 Y179.144 E21.79982
G1 X196.366 Y178.71 E21.82608
G1 X196.793 Y178.307 E21.85342
G1 X197.261 Y177.968 E21.88033
G1 X197.779 Y177.684 E21.90784
G1 X198.302 Y177.478 E21.93401
G1 X198.847 Y177.338 E21.96021
G1 X199.44 Y177.263 E21.98804
G1 X200.003 Y177.263 E22.01426
G1 X200.599 Y177.338 E22.04223
G1 X201.141 Y177.478 E22.0683
G1 X201.687 Y177.694 E22.09564
G1 X202.179 Y177.966 E22.12181
G1 X202.65 Y178.307 E22.14889
G1 X203.077 Y178.71 E22.17623
G1 X203.437 Y179.144 E22.20249
G1 X203.752 Y179.64 E22.22985
G1 X203.995 Y180.157 E22.25645
G1 X204.175 Y180.712 E22.28362
G1 X204.282 Y181.275 E22.3103
G1 X204.32 Y181.851 E22.33718
G1 X204.282 Y182.427 E22.36406
G1 X204.175 Y182.99 E22.39074
G1 X203.994 Y183.549 E22.4181
G1 X203.753 Y184.06 E22.44441
G1 X203.44 Y184.555 E22.47168
G1 X203.067 Y185.005 E22.4989
G1 X202.655 Y185.391 E22.52519
G1 X202.183 Y185.734 E22.55236
G1 X201.426 Y186.148 E22.59253
G1 X200.482 Y200.042 E23.24099
G1 X204.283 Y200.645 E23.42019
G1 X204.578 Y200.691 E23.43409
G1 X204.512 Y200.982 E23.44291
G1 X200.706 Y217.614 E24.23738
G1 X200.283 Y219.464 E24.28203
M204 S3000
M205 X10 Y10
G0 F3000 X199.908 Y184.754
M204 S1800
M205 X8 Y8
G1 F1500 X200.64 Y184.611 E24.31676
G1 X201.282 Y184.307 E24.34983
G1 X201.844 Y183.842 E24.3838
G1 X202.272 Y183.253 E24.4177
G1 X202.54 Y182.576 E24.45161
G1 X202.633 Y181.851 E24.48564
G1 X202.538 Y181.126 E24.51969
G1 X202.272 Y180.45 E24.55352
G1 X201.841 Y179.858 E24.58761
G1 X201.277 Y179.392 E24.62168
G1 X200.6 Y179.08 E24.65639
G1 X199.904 Y178.948 E24.68938
G1 X199.174 Y178.995 E24.72344
G1 X198.481 Y179.218 E24.75734
G1 X197.85 Y179.623 E24.79225
G1 X197.366 Y180.145 E24.8254
G1 X197.016 Y180.78 E24.85916
G1 X196.835 Y181.486 E24.8931
G1 X196.835 Y182.216 E24.92709
G1 X197.016 Y182.922 E24.96103
G1 X197.369 Y183.564 E24.99514
G1 X197.884 Y184.107 E25.02999
G1 X198.484 Y184.484 E25.06299
G1 X199.176 Y184.711 E25.0969
G1 X199.908 Y184.754 E25.13104
M204 S3000
M205 X10 Y10
G0 F3000 X200.001 Y223.044
G0 X199.994 Y223.143
M204 S1800
M205 X8 Y8
G1 F1500 X199.961 Y222.928 E25.14117
G1 X199.954 Y222.889 E25.14302
G1 X199.852 Y221.388 E25.21307
G1 X197.528 Y187.199 E26.80873
G1 X197.477 Y186.497 E26.8415
G1 X196.95 Y186.201 E26.86965
G1 X196.435 Y185.826 E26.89931
G1 X195.96 Y185.381 E26.92962
G1 X195.55 Y184.886 E26.95955
G1 X195.198 Y184.331 E26.99015
G1 X194.926 Y183.753 E27.0199
G1 X194.725 Y183.133 E27.05024
G1 X194.604 Y182.496 E27.08044
G1 X194.563 Y181.851 E27.11053
G1 X194.604 Y181.206 E27.14063
G1 X194.725 Y180.569 E27.17082
G1 X194.925 Y179.953 E27.20097
G1 X195.199 Y179.37 E27.23097
G1 X195.55 Y178.817 E27.26147
G1 X195.96 Y178.322 E27.2914
G1 X196.433 Y177.877 E27.32164
G1 X196.961 Y177.494 E27.35201
G1 X197.541 Y177.176 E27.38281
G1 X198.128 Y176.945 E27.41218
G1 X198.746 Y176.786 E27.4419
G1 X199.402 Y176.703 E27.47269
G1 X200.041 Y176.703 E27.50244
G1 X200.7 Y176.786 E27.53337
G1 X201.314 Y176.944 E27.56289
G1 X201.928 Y177.188 E27.59366
G1 X202.479 Y177.492 E27.62296
G1 X203.01 Y177.877 E27.6535
G1 X203.483 Y178.322 E27.68374
G1 X203.893 Y178.817 E27.71367
G1 X204.244 Y179.37 E27.74417
G1 X204.518 Y179.953 E27.77417
G1 X204.718 Y180.569 E27.80432
G1 X204.839 Y181.206 E27.83451
G1 X204.881 Y181.851 E27.86461
G1 X204.839 Y182.496 E27.89471
G1 X204.718 Y183.133 E27.9249
G1 X204.517 Y183.753 E27.95525
G1 X204.245 Y184.331 E27.985
G1 X203.893 Y184.886 E28.0156
G1 X203.479 Y185.385 E28.04579
G1 X203.011 Y185.824 E28.07567
G1 X202.483 Y186.208 E28.10607
G1 X201.964 Y186.492 E28.13362
G1 X201.075 Y199.569 E28.74394
G1 X204.963 Y200.186 E28.92725
G1 X205.258 Y200.232 E28.94115
G1 X205.192 Y200.523 E28.94996
